P3
18 20
255
0 0 0 0 0 0 0 0 0 0 0 0 0 0 0 0 0 0 0 0 0 0 0 0 0 0 0 0 0 0 0 0 0 0 0 0 0 0 0 0 0 0 0 0 0 0 170 0 0 170 0 0 0 0
0 0 0 0 0 0 0 0 0 0 0 0 0 0 0 0 0 0 0 0 0 0 0 0 0 0 0 0 0 0 0 0 0 0 0 0 0 0 0 0 0 0 0 170 0 0 170 170 170 0 0 0 170 0
0 0 0 0 0 0 0 0 0 0 0 0 0 0 0 0 0 0 0 0 0 0 0 0 0 0 0 0 0 0 0 0 0 0 0 0 0 170 0 0 170 0 0 170 170 170 0 0 0 0 170 0 170 0
0 0 0 0 0 0 0 0 0 0 0 0 0 0 0 0 0 0 0 0 0 0 0 0 0 0 0 0 0 0 0 0 0 0 170 0 0 170 170 0 170 170 170 0 0 0 0 170 0 170 0 0 0 0
0 0 0 0 0 0 0 0 0 0 0 0 0 0 0 0 0 0 0 0 0 0 0 0 0 0 0 0 170 0 0 170 0 0 170 170 0 170 170 170 0 0 0 0 170 0 170 0 0 0 0 0 0 0
0 0 0 0 0 0 0 0 0 0 0 0 0 0 0 0 0 0 0 0 0 0 0 0 0 170 0 170 0 0 170 0 0 170 0 0 170 0 0 0 0 170 0 170 0 0 0 0 0 0 0 0 0 0
0 0 0 0 0 0 0 0 0 0 0 0 0 0 0 0 0 0 0 0 0 0 170 0 0 170 170 0 170 170 0 170 170 0 170 170 170 0 0 0 170 170 0 170 0 0 0 0 0 0 0 0 0 0
0 0 0 0 0 0 0 0 0 0 0 0 0 0 0 0 0 0 0 170 0 0 170 170 170 0 0 170 0 0 170 0 0 170 0 0 0 170 170 170 0 0 0 170 170 0 170 0 0 0 0 0 0 0
0 0 0 0 0 0 0 0 0 0 0 0 0 0 0 0 170 0 0 170 170 0 170 170 0 0 170 0 0 170 0 0 170 0 0 170 170 0 0 0 0 170 170 0 0 0 170 170 0 170 0 0 0 0
0 0 0 0 0 0 0 0 0 0 0 0 0 170 0 0 170 0 0 0 170 0 170 170 0 170 170 0 170 170 0 0 170 0 0 170 0 0 170 0 0 170 0 0 170 170 0 0 0 170 170 0 170 0
0 0 0 0 170 0 0 170 0 0 170 0 170 0 0 170 0 0 0 170 170 0 170 170 170 0 0 170 0 0 0 0 170 0 0 170 0 0 170 0 0 170 170 0 0 170 0 0 0 0 170 0 170 0
0 170 0 170 0 0 170 0 0 170 0 0 0 0 170 0 0 170 0 170 170 170 0 0 170 0 0 0 0 170 0 0 170 0 0 170 0 0 170 170 0 0 170 0 0 0 0 170 0 170 0 0 0 0
0 170 0 0 0 170 0 0 170 0 0 170 0 170 170 0 170 170 0 0 170 0 0 170 0 0 170 0 0 170 0 0 170 0 0 170 170 0 0 0 0 170 0 0 170 0 170 0 0 0 0 0 0 0
0 170 0 0 0 170 0 170 170 0 170 170 0 170 170 0 0 170 0 170 170 0 0 170 170 0 0 0 0 170 0 0 170 0 0 170 0 0 170 0 0 170 0 170 0 0 0 0 0 0 0 0 0 0
0 170 0 0 0 170 170 0 0 0 170 170 0 0 170 0 170 170 0 0 170 170 0 0 0 0 170 0 0 170 0 0 170 0 0 170 0 0 170 0 170 0 0 0 0 0 0 0 0 0 0 0 0 0
0 0 0 0 170 0 0 0 170 0 0 170 0 170 170 0 0 170 170 0 0 0 0 170 170 0 0 170 0 0 0 0 170 0 170 0 0 170 0 0 0 0 0 0 0 0 0 0 0 0 0 0 0 0
0 0 0 0 170 0 0 0 170 170 0 0 0 0 170 170 0 0 0 0 170 170 0 0 0 0 170 0 0 170 0 0 170 0 170 0 0 0 0 0 0 0 0 0 0 0 0 0 0 0 0 0 0 0
0 0 0 0 0 0 0 170 0 0 0 170 0 0 170 0 0 170 170 0 0 0 0 170 170 0 0 0 0 170 0 170 0 0 0 0 0 0 0 0 0 0 0 0 0 0 0 0 0 0 0 0 0 0
0 0 0 0 0 0 0 0 0 0 170 0 0 170 0 0 0 170 0 0 170 0 0 170 0 0 170 0 170 0 0 0 0 0 0 0 0 0 0 0 0 0 0 0 0 0 0 0 0 0 0 0 0 0
0 0 0 0 0 0 0 0 0 0 0 0 0 0 0 0 170 0 0 170 0 0 170 0 0 170 0 0 0 0 0 0 0 0 0 0 0 0 0 0 0 0 0 0 0 0 0 0 0 0 0 0 0 0
