P3
38 44
255
0 170 0 0 170 0 0 170 0 0 170 0 0 170 0 0 170 0 0 170 0 0 170 0 0 170 0 0 170 0 0 170 0 0 170 0 0 170 0 0 170 0 0 170 0 0 170 0 0 170 0 0 170 0 0 170 0 0 170 0 0 170 0 0 170 0 0 170 0 0 170 0 0 170 0 0 170 0 0 170 0 0 170 0 0 170 0 0 170 0 0 170 0 0 170 0 0 170 0 0 170 0 0 170 0 0 170 0 0 170 0 0 170 0
0 170 0 0 170 0 0 170 0 0 170 0 0 170 0 0 170 0 0 170 0 0 170 0 0 170 0 0 170 0 0 170 0 0 170 0 0 170 0 0 170 0 0 170 0 0 170 0 0 170 0 0 170 0 0 170 0 0 170 0 0 170 0 0 170 0 0 170 0 0 170 0 0 170 0 0 170 0 0 170 0 0 170 0 0 170 0 0 170 0 0 170 0 0 170 0 0 170 0 0 170 0 0 170 0 0 170 0 0 170 0 170 0 0
0 170 0 0 170 0 0 170 170 0 170 170 0 170 170 0 170 170 0 170 170 0 170 170 0 170 170 0 170 170 0 170 170 0 170 170 0 170 170 0 170 170 0 170 170 0 170 170 0 170 170 0 170 170 0 170 170 0 170 170 0 170 170 0 170 170 0 170 170 0 170 170 0 170 170 0 170 170 0 170 170 0 170 170 0 170 170 0 170 170 0 170 170 0 170 170 0 170 170 0 170 170 0 170 170 0 170 170 0 0 170 170 0 0
0 170 0 0 170 0 0 0 170 0 0 170 0 0 170 0 0 170 0 0 170 0 0 170 0 0 170 0 0 170 0 0 170 0 0 170 0 0 170 0 0 170 0 0 170 0 0 170 0 0 170 0 0 170 0 0 170 0 0 170 0 0 170 0 0 170 0 0 170 0 0 170 0 0 170 0 0 170 0 0 170 0 0 170 0 0 170 0 0 170 0 0 170 0 0 170 0 0 170 0 0 170 0 0 170 0 170 170 0 0 170 170 0 0
0 170 0 0 170 0 0 0 170 0 170 170 0 170 170 0 170 170 0 170 170 0 170 170 0 170 170 0 170 170 0 170 170 0 170 170 0 170 170 0 170 170 0 170 170 0 170 170 0 170 170 0 170 170 0 170 170 0 170 170 0 170 170 0 170 170 0 170 170 0 170 170 0 170 170 0 170 170 0 170 170 0 170 170 0 170 170 0 170 170 0 170 170 0 170 170 0 170 170 0 170 170 0 0 170 0 170 170 0 0 170 170 0 0
0 170 0 0 170 0 0 0 170 0 170 170 0 0 170 0 0 170 0 0 170 0 0 170 0 0 170 0 0 170 0 0 170 0 0 170 0 0 170 0 0 170 0 0 170 0 0 170 0 0 170 0 0 170 0 0 170 0 0 170 0 0 170 0 0 170 0 0 170 0 0 170 0 0 170 0 0 170 0 0 170 0 0 170 0 0 170 0 0 170 0 0 170 0 0 170 0 0 170 0 170 170 0 0 170 0 170 170 0 0 170 170 0 0
0 170 0 0 170 0 0 0 170 0 170 170 0 0 170 170 0 0 170 0 0 170 0 0 170 0 0 170 0 0 170 0 0 170 0 0 170 0 0 170 0 0 170 0 0 170 0 0 170 0 0 170 0 0 170 0 0 170 0 0 170 0 0 170 0 0 170 0 0 170 0 0 170 0 0 170 0 0 170 0 0 170 0 0 170 0 0 170 0 0 170 0 0 170 0 0 0 0 170 0 170 170 0 0 170 0 170 170 0 0 170 170 0 0
0 170 0 0 170 0 0 0 170 0 170 170 0 0 170 170 0 0 170 0 0 170 0 0 170 0 0 170 0 0 170 0 0 170 0 0 170 0 0 170 0 0 0 0 170 0 0 170 0 0 170 0 0 170 0 0 170 0 0 170 0 0 170 0 0 170 0 0 170 170 0 0 170 0 0 170 0 0 170 0 0 170 0 0 170 0 0 170 0 0 170 0 0 170 0 0 0 0 170 0 170 170 0 0 170 0 170 170 0 0 170 170 0 0
0 170 0 0 170 0 0 0 170 0 170 170 0 0 170 170 0 0 170 0 0 170 0 0 170 0 0 170 0 0 170 0 0 0 0 170 0 0 170 0 0 170 0 0 170 0 170 0 0 170 0 0 170 0 0 170 0 0 170 0 0 170 0 0 170 0 0 0 170 0 0 170 0 0 170 0 0 170 170 0 0 170 0 0 170 0 0 170 0 0 170 0 0 170 0 0 0 0 170 0 170 170 0 0 170 0 170 170 0 0 170 170 0 0
0 170 0 0 170 0 0 0 170 0 170 170 0 0 170 170 0 0 170 0 0 170 0 0 170 0 0 0 0 170 0 0 170 0 0 170 0 170 0 0 170 0 0 170 0 85 85 255 85 85 255 85 85 255 85 85 255 0 0 170 0 0 170 0 0 170 0 170 0 0 170 0 0 170 0 0 0 170 0 0 170 0 0 170 170 0 0 170 0 0 170 0 0 170 0 0 0 0 170 0 170 170 0 0 170 0 170 170 0 0 170 170 0 0
0 170 0 0 170 0 0 0 170 0 170 170 0 0 170 170 0 0 170 0 0 0 0 170 0 0 170 0 0 170 0 170 0 0 170 0 85 85 255 85 85 255 85 85 255 0 0 170 0 0 170 0 0 170 0 0 170 0 0 170 0 0 170 85 85 255 0 0 170 0 0 170 0 0 170 0 170 0 0 170 0 0 0 170 0 0 170 0 0 170 170 0 0 170 0 0 0 0 170 0 170 170 0 0 170 0 170 170 0 0 170 170 0 0
0 170 0 0 170 0 0 0 170 0 170 170 0 0 170 170 0 0 0 0 170 0 0 170 0 170 0 0 170 0 85 85 255 85 85 255 85 85 255 85 85 255 85 85 255 85 85 255 0 0 170 0 0 170 0 0 170 0 0 170 0 0 170 0 0 170 0 0 170 0 0 170 0 0 170 0 0 170 0 0 170 0 170 0 0 170 0 0 0 170 0 0 170 170 0 0 0 0 170 0 170 170 0 0 170 0 170 170 0 0 170 170 0 0
0 170 0 0 170 0 0 0 170 0 170 170 0 0 170 0 0 170 0 0 170 0 170 0 85 85 255 85 85 255 85 85 255 85 85 255 0 0 170 85 85 255 85 85 255 85 85 255 0 0 170 0 0 170 0 0 170 0 0 170 0 0 170 0 0 170 0 0 170 0 0 170 0 0 170 0 0 170 85 85 255 0 0 170 0 0 170 0 170 0 0 0 170 0 0 170 0 0 170 0 170 170 0 0 170 0 170 170 0 0 170 170 0 0
0 170 0 0 170 0 0 0 170 0 170 170 0 0 170 0 0 170 0 170 0 85 85 255 85 85 255 85 85 255 0 0 170 85 85 255 85 85 255 85 85 255 85 85 255 0 0 170 0 0 170 0 0 170 255 85 85 0 0 170 0 0 170 0 0 170 0 0 170 0 0 170 0 0 170 0 0 170 0 0 170 0 0 170 85 85 255 0 0 170 0 170 0 0 0 170 0 0 170 0 170 170 0 0 170 0 170 170 0 0 170 170 0 0
0 170 0 0 170 0 0 0 170 0 170 170 0 0 170 0 0 170 0 170 0 85 85 255 85 85 255 85 85 255 85 85 255 85 85 255 85 85 255 85 85 255 85 85 255 85 85 255 0 0 170 0 0 170 0 0 170 0 0 170 0 0 170 0 0 170 0 0 170 0 0 170 0 0 170 0 0 170 0 0 170 0 0 170 0 0 170 0 0 170 0 170 0 0 0 170 0 0 170 0 170 170 0 0 170 0 170 170 0 0 170 170 0 0
0 170 0 0 170 0 0 0 170 0 0 170 0 0 170 0 170 0 85 85 255 85 85 255 0 0 170 85 85 255 85 85 255 85 85 255 85 85 255 85 85 255 85 85 255 0 0 170 0 0 170 0 0 170 0 0 170 0 0 170 0 0 170 0 0 170 85 85 255 85 85 255 85 85 255 0 0 170 0 0 170 0 0 170 0 0 170 85 85 255 0 0 170 0 170 0 0 0 170 0 170 170 0 0 170 0 170 170 0 0 170 170 0 0
0 170 0 0 170 0 0 0 170 0 0 170 0 0 170 0 170 0 85 85 255 85 85 255 85 85 255 85 85 255 85 85 255 85 85 255 85 85 255 85 85 255 0 0 170 0 0 170 0 0 170 0 0 170 85 85 255 85 85 255 0 0 170 0 0 170 85 85 255 85 85 255 85 85 255 85 85 255 0 0 170 0 0 170 0 0 170 0 0 170 0 0 170 0 170 0 0 0 170 0 0 170 0 0 170 0 170 170 0 0 170 170 0 0
0 170 0 0 170 0 0 0 170 0 0 170 0 170 0 85 85 255 85 85 255 0 0 170 85 85 255 85 85 255 85 85 255 85 85 255 85 85 255 0 0 170 0 0 170 0 0 170 85 85 255 85 85 255 85 85 255 85 85 255 85 85 255 0 0 170 0 0 170 85 85 255 85 85 255 85 85 255 85 85 255 0 0 170 0 0 170 0 0 170 85 85 255 85 85 255 0 170 0 0 0 170 0 0 170 0 170 170 0 0 170 170 0 0
0 170 0 0 170 0 0 0 170 0 0 170 0 170 0 85 85 255 85 85 255 85 85 255 85 85 255 85 85 255 85 85 255 85 85 255 85 85 255 0 0 170 0 0 170 0 0 170 0 0 170 0 0 170 85 85 255 85 85 255 85 85 255 85 85 255 0 0 170 0 0 170 85 85 255 85 85 255 85 85 255 0 0 170 0 0 170 0 0 170 0 0 170 85 85 255 0 170 0 0 0 170 0 0 170 0 170 170 0 0 170 170 0 0
0 170 0 0 170 0 0 0 170 0 0 170 0 170 0 85 85 255 0 0 170 85 85 255 85 85 255 85 85 255 85 85 255 85 85 255 85 85 255 85 85 255 85 85 255 0 0 170 85 85 255 85 85 255 85 85 255 85 85 255 85 85 255 0 0 170 0 0 170 0 0 170 0 0 170 85 85 255 85 85 255 85 85 255 0 0 170 0 0 170 0 0 170 85 85 255 0 170 0 0 0 170 0 0 170 0 170 170 0 0 170 170 0 0
0 170 0 0 170 0 0 0 170 0 170 0 85 85 255 85 85 255 85 85 255 85 85 255 85 85 255 85 85 255 85 85 255 85 85 255 85 85 255 85 85 255 85 85 255 85 85 255 85 85 255 85 85 255 85 85 255 85 85 255 85 85 255 85 85 255 0 0 170 85 85 255 85 85 255 85 85 255 85 85 255 85 85 255 0 0 170 0 0 170 0 0 170 85 85 255 85 85 255 0 170 0 0 0 170 0 170 170 0 0 170 170 0 0
0 170 0 0 170 0 0 0 170 0 170 0 85 85 255 85 85 255 0 0 170 85 85 255 85 85 255 85 85 255 85 85 255 85 85 255 85 85 255 85 85 255 85 85 255 0 0 170 0 0 170 0 0 170 0 0 170 0 0 170 85 85 255 85 85 255 85 85 255 85 85 255 85 85 255 85 85 255 85 85 255 85 85 255 0 0 170 0 0 170 0 0 170 85 85 255 85 85 255 0 170 0 0 0 170 0 170 170 0 0 170 170 0 0
0 170 0 0 170 0 0 0 170 0 170 0 85 85 255 85 85 255 85 85 255 85 85 255 85 85 255 85 85 255 85 85 255 85 85 255 85 85 255 0 0 170 0 0 170 0 0 170 0 0 170 0 0 170 0 0 170 0 0 170 0 0 170 85 85 255 85 85 255 85 85 255 85 85 255 85 85 255 85 85 255 0 0 170 0 0 170 0 0 170 0 0 170 85 85 255 85 85 255 0 170 0 0 0 170 0 170 170 0 0 170 170 0 0
0 170 0 0 170 0 0 0 170 0 0 170 0 170 0 85 85 255 0 0 170 85 85 255 85 85 255 85 85 255 85 85 255 85 85 255 0 0 170 0 0 170 0 0 170 0 0 170 0 0 170 0 0 170 0 0 170 0 0 170 0 0 170 0 0 170 0 0 170 85 85 255 85 85 255 85 85 255 0 0 170 0 0 170 0 0 170 0 0 170 85 85 255 85 85 255 0 170 0 0 0 170 0 0 170 0 170 170 0 0 170 170 0 0
0 170 0 0 170 0 0 0 170 0 0 170 0 170 0 85 85 255 85 85 255 85 85 255 85 85 255 85 85 255 85 85 255 85 85 255 0 0 170 0 0 170 0 0 170 0 0 170 85 85 255 85 85 255 85 85 255 0 0 170 0 0 170 0 0 170 0 0 170 0 0 170 0 0 170 0 0 170 0 0 170 0 0 170 0 0 170 0 0 170 85 85 255 85 85 255 0 170 0 0 0 170 0 0 170 0 170 170 0 0 170 170 0 0
0 170 0 0 170 0 0 0 170 0 0 170 0 170 0 85 85 255 85 85 255 0 0 170 85 85 255 85 85 255 85 85 255 0 0 170 0 0 170 0 0 170 0 0 170 85 85 255 85 85 255 85 85 255 85 85 255 85 85 255 0 0 170 0 0 170 0 0 170 0 0 170 0 0 170 0 0 170 0 0 170 0 0 170 0 0 170 85 85 255 85 85 255 85 85 255 0 170 0 0 0 170 0 0 170 0 170 170 0 0 170 170 0 0
0 170 0 0 170 0 0 0 170 0 0 170 0 0 170 0 170 0 85 85 255 85 85 255 85 85 255 85 85 255 85 85 255 0 0 170 0 0 170 0 0 170 0 0 170 85 85 255 85 85 255 85 85 255 85 85 255 85 85 255 85 85 255 85 85 255 0 0 170 0 0 170 0 0 170 0 0 170 0 0 170 0 0 170 85 85 255 85 85 255 85 85 255 0 170 0 0 0 170 0 0 170 0 0 170 0 170 170 0 0 170 170 0 0
0 170 0 0 170 0 0 0 170 0 170 170 0 0 170 0 170 0 85 85 255 85 85 255 0 0 170 85 85 255 85 85 255 85 85 255 0 0 170 0 0 170 0 0 170 85 85 255 85 85 255 85 85 255 85 85 255 85 85 255 85 85 255 85 85 255 85 85 255 85 85 255 85 85 255 85 85 255 85 85 255 0 0 170 85 85 255 85 85 255 85 85 255 0 170 0 0 0 170 0 170 170 0 0 170 0 170 170 0 0 170 170 0 0
0 170 0 0 170 0 0 0 170 0 170 170 0 0 170 0 0 170 0 170 0 85 85 255 85 85 255 0 0 170 85 85 255 85 85 255 0 0 170 0 0 170 0 0 170 0 0 170 85 85 255 85 85 255 85 85 255 85 85 255 85 85 255 85 85 255 85 85 255 85 85 255 85 85 255 85 85 255 0 0 170 85 85 255 85 85 255 85 85 255 0 170 0 0 0 170 0 0 170 0 170 170 0 0 170 0 170 170 0 0 170 170 0 0
0 170 0 0 170 0 0 0 170 0 170 170 0 0 170 0 0 170 0 170 0 85 85 255 85 85 255 85 85 255 0 0 170 85 85 255 85 85 255 0 0 170 0 0 170 0 0 170 0 0 170 0 0 170 85 85 255 85 85 255 0 0 170 0 0 170 0 0 170 0 0 170 0 0 170 0 0 170 85 85 255 85 85 255 85 85 255 85 85 255 0 170 0 0 0 170 0 0 170 0 170 170 0 0 170 0 170 170 0 0 170 170 0 0
0 170 0 0 170 0 0 0 170 0 170 170 0 0 170 0 0 170 0 0 170 0 170 0 85 85 255 85 85 255 85 85 255 0 0 170 0 0 170 85 85 255 0 0 170 0 0 170 0 0 170 0 0 170 0 0 170 0 0 170 0 0 170 0 0 170 0 0 170 0 0 170 85 85 255 85 85 255 85 85 255 85 85 255 85 85 255 0 170 0 0 0 170 0 0 170 0 0 170 0 170 170 0 0 170 0 170 170 0 0 170 170 0 0
0 170 0 0 170 0 0 0 170 0 170 170 0 0 170 170 0 0 0 0 170 0 0 170 0 170 0 0 170 0 85 85 255 85 85 255 85 85 255 0 0 170 0 0 170 85 85 255 85 85 255 0 0 170 0 0 170 0 0 170 0 0 170 0 0 170 85 85 255 85 85 255 85 85 255 85 85 255 85 85 255 0 170 0 0 170 0 0 0 170 0 0 170 170 0 0 0 0 170 0 170 170 0 0 170 0 170 170 0 0 170 170 0 0
0 170 0 0 170 0 0 0 170 0 170 170 0 0 170 170 0 0 170 0 0 0 0 170 0 0 170 0 0 170 0 170 0 0 170 0 85 85 255 85 85 255 85 85 255 85 85 255 85 85 255 85 85 255 85 85 255 85 85 255 85 85 255 85 85 255 85 85 255 85 85 255 85 85 255 0 170 0 0 170 0 0 0 170 0 0 170 0 0 170 170 0 0 170 0 0 0 0 170 0 170 170 0 0 170 0 170 170 0 0 170 170 0 0
0 170 0 0 170 0 0 0 170 0 170 170 0 0 170 170 0 0 170 0 0 170 0 0 170 0 0 0 0 170 0 0 170 0 0 170 0 170 0 0 170 0 0 170 0 85 85 255 85 85 255 85 85 255 85 85 255 85 85 255 85 85 255 85 85 255 0 170 0 0 170 0 0 170 0 0 0 170 0 0 170 0 0 170 170 0 0 170 0 0 170 0 0 170 0 0 0 0 170 0 170 170 0 0 170 0 170 170 0 0 170 170 0 0
0 170 0 0 170 0 0 0 170 0 170 170 0 0 170 170 0 0 170 0 0 170 0 0 170 0 0 170 0 0 170 0 0 0 0 170 0 0 170 0 0 170 0 0 170 0 170 0 0 170 0 0 170 0 0 170 0 0 170 0 0 170 0 0 170 0 0 0 170 0 0 170 0 0 170 0 0 170 170 0 0 170 0 0 170 0 0 170 0 0 170 0 0 170 0 0 0 0 170 0 170 170 0 0 170 0 170 170 0 0 170 170 0 0
0 170 0 0 170 0 0 0 170 0 170 170 0 0 170 170 0 0 170 0 0 170 0 0 170 0 0 170 0 0 170 0 0 170 0 0 170 0 0 170 0 0 0 0 170 0 0 170 0 0 170 0 0 170 0 0 170 0 0 170 0 0 170 0 0 170 0 0 170 170 0 0 170 0 0 170 0 0 170 0 0 170 0 0 170 0 0 170 0 0 170 0 0 170 0 0 0 0 170 0 170 170 0 0 170 0 170 170 0 0 170 170 0 0
0 170 0 0 170 0 0 0 170 0 170 170 0 0 170 170 0 0 170 0 0 170 0 0 170 0 0 170 0 0 170 0 0 170 0 0 170 0 0 170 0 0 170 0 0 170 0 0 170 0 0 170 0 0 170 0 0 170 0 0 170 0 0 170 0 0 170 0 0 170 0 0 170 0 0 170 0 0 170 0 0 170 0 0 170 0 0 170 0 0 170 0 0 170 0 0 0 0 170 0 170 170 0 0 170 0 170 170 0 0 170 170 0 0
0 170 0 0 170 0 0 0 170 0 170 170 0 0 170 170 0 0 170 0 0 170 0 0 170 0 0 170 0 0 170 0 0 170 0 0 170 0 0 170 0 0 170 0 0 170 0 0 170 0 0 170 0 0 170 0 0 170 0 0 170 0 0 170 0 0 170 0 0 170 0 0 170 0 0 170 0 0 170 0 0 170 0 0 170 0 0 170 0 0 170 0 0 170 0 0 0 0 170 0 170 170 0 0 170 0 170 170 0 0 170 170 0 0
0 170 0 0 170 0 0 0 170 0 170 170 0 0 170 0 0 170 0 0 170 0 0 170 0 0 170 0 0 170 0 0 170 0 0 170 0 0 170 0 0 170 0 0 170 0 0 170 0 0 170 0 0 170 0 0 170 0 0 170 0 0 170 0 0 170 0 0 170 0 0 170 0 0 170 0 0 170 0 0 170 0 0 170 0 0 170 0 0 170 0 0 170 0 0 170 0 0 170 0 170 170 0 0 170 0 170 170 0 0 170 170 0 0
0 170 0 0 170 0 0 0 170 0 170 170 0 170 170 0 170 170 0 170 170 0 170 170 0 170 170 0 170 170 0 170 170 0 170 170 0 170 170 0 170 170 0 170 170 0 170 170 0 170 170 0 170 170 0 170 170 0 170 170 0 170 170 0 170 170 0 170 170 0 170 170 0 170 170 0 170 170 0 170 170 0 170 170 0 170 170 0 170 170 0 170 170 0 170 170 0 170 170 0 170 170 0 0 170 0 170 170 0 0 170 170 0 0
0 170 0 0 170 0 0 0 170 0 0 170 0 0 170 0 0 170 0 0 170 0 0 170 0 0 170 0 0 170 0 0 170 0 0 170 0 0 170 0 0 170 0 0 170 0 0 170 0 0 170 0 0 170 0 0 170 0 0 170 0 0 170 0 0 170 0 0 170 0 0 170 0 0 170 0 0 170 0 0 170 0 0 170 0 0 170 0 0 170 0 0 170 0 0 170 0 0 170 0 0 170 0 0 170 0 170 170 0 0 170 170 0 0
0 170 0 0 170 0 0 170 170 0 170 0 0 170 170 0 170 170 0 170 170 0 170 170 0 170 170 0 170 170 0 170 170 0 170 170 0 170 170 0 170 170 0 170 170 0 170 170 0 170 170 0 170 170 0 170 170 0 170 170 0 170 170 0 170 170 0 170 170 0 170 170 0 170 170 0 170 170 0 170 170 0 170 170 0 170 170 0 170 170 0 170 170 0 170 170 0 170 170 0 170 170 0 170 170 0 170 170 0 0 170 170 0 0
0 170 0 0 170 0 0 170 0 0 0 170 0 0 170 0 0 170 0 0 170 0 0 170 0 0 170 0 0 170 0 0 170 0 0 170 0 0 170 0 0 170 0 0 170 0 0 170 0 0 170 0 0 170 0 0 170 0 0 170 0 0 170 0 0 170 0 0 170 0 0 170 0 0 170 0 0 170 0 0 170 0 0 170 0 0 170 0 0 170 0 0 170 0 0 170 0 0 170 0 0 170 0 0 170 0 0 170 0 0 170 170 0 0
0 170 0 0 170 0 170 0 0 170 0 0 170 0 0 170 0 0 170 0 0 170 0 0 170 0 0 170 0 0 170 0 0 170 0 0 170 0 0 170 0 0 170 0 0 170 0 0 170 0 0 170 0 0 170 0 0 170 0 0 170 0 0 170 0 0 170 0 0 170 0 0 170 0 0 170 0 0 170 0 0 170 0 0 170 0 0 170 0 0 170 0 0 170 0 0 170 0 0 170 0 0 170 0 0 170 0 0 170 0 0 170 0 0
