P3
19 17
255
0 0 0 0 0 0 0 0 0 0 0 0 0 0 0 0 0 0 0 0 0 255 85 85 255 85 85 255 85 85 255 85 85 255 85 85 255 85 85 255 85 85 255 85 85 0 0 0 0 0 0 0 0 0 0 0 0
0 0 0 0 0 0 0 0 0 0 0 0 0 0 0 0 0 0 0 0 0 0 0 0 255 85 85 255 85 85 255 85 85 255 85 85 255 85 85 255 85 85 255 85 85 255 85 85 0 0 0 0 0 0 0 0 0
0 0 0 0 0 0 0 0 0 0 0 0 0 0 0 0 0 0 0 0 0 0 0 0 0 0 0 255 85 85 255 85 85 255 85 85 255 85 85 255 85 85 255 85 85 255 85 85 255 85 85 0 0 0 0 0 0
0 0 0 0 0 0 0 0 0 0 0 0 0 0 0 0 0 0 0 0 0 0 0 0 0 0 0 0 0 0 255 85 85 255 85 85 255 85 85 255 85 85 255 85 85 255 85 85 255 85 85 255 85 85 0 0 0
0 0 0 0 0 0 0 0 0 0 0 0 0 0 0 0 0 0 0 0 0 0 0 0 0 0 0 0 0 0 0 0 0 255 85 85 255 85 85 255 85 85 255 85 85 255 85 85 255 85 85 255 85 85 255 85 85
255 85 85 255 85 85 255 85 85 255 85 85 0 0 0 0 0 0 0 0 0 0 0 0 0 0 0 0 0 0 0 0 0 255 85 85 255 85 85 255 85 85 255 85 85 255 85 85 255 85 85 255 85 85 255 85 85
255 85 85 255 85 85 255 85 85 255 85 85 255 85 85 0 0 0 0 0 0 0 0 0 0 0 0 0 0 0 0 0 0 255 85 85 255 85 85 255 85 85 255 85 85 255 85 85 255 85 85 255 85 85 255 85 85
255 85 85 255 85 85 255 85 85 255 85 85 255 85 85 255 85 85 0 0 0 0 0 0 0 0 0 0 0 0 0 0 0 255 85 85 255 85 85 255 85 85 255 85 85 255 85 85 255 85 85 255 85 85 255 85 85
255 85 85 255 85 85 255 85 85 255 85 85 255 85 85 255 85 85 255 85 85 0 0 0 0 0 0 0 0 0 0 0 0 255 85 85 255 85 85 255 85 85 255 85 85 255 85 85 255 85 85 255 85 85 255 85 85
255 85 85 255 85 85 255 85 85 255 85 85 255 85 85 255 85 85 255 85 85 255 85 85 0 0 0 0 0 0 0 0 0 255 85 85 255 85 85 255 85 85 255 85 85 255 85 85 255 85 85 255 85 85 255 85 85
255 85 85 255 85 85 255 85 85 255 85 85 255 85 85 255 85 85 255 85 85 255 85 85 0 0 0 0 0 0 0 0 0 255 85 85 255 85 85 255 85 85 255 85 85 255 85 85 255 85 85 255 85 85 255 85 85
255 85 85 255 85 85 255 85 85 255 85 85 0 0 0 0 0 0 0 0 0 0 0 0 0 0 0 0 0 0 0 0 0 255 85 85 255 85 85 255 85 85 255 85 85 255 85 85 255 85 85 255 85 85 255 85 85
255 85 85 255 85 85 255 85 85 255 85 85 0 0 0 0 0 0 0 0 0 0 0 0 0 0 0 0 0 0 0 0 0 0 0 0 255 85 85 255 85 85 255 85 85 255 85 85 255 85 85 255 85 85 255 85 85
255 85 85 255 85 85 255 85 85 255 85 85 0 0 0 0 0 0 0 0 0 0 0 0 0 0 0 0 0 0 0 0 0 0 0 0 0 0 0 255 85 85 255 85 85 255 85 85 255 85 85 255 85 85 255 85 85
255 85 85 255 85 85 255 85 85 255 85 85 0 0 0 0 0 0 0 0 0 0 0 0 0 0 0 0 0 0 0 0 0 0 0 0 0 0 0 0 0 0 255 85 85 255 85 85 255 85 85 255 85 85 255 85 85
255 85 85 255 85 85 255 85 85 255 85 85 0 0 0 0 0 0 0 0 0 0 0 0 0 0 0 0 0 0 0 0 0 0 0 0 0 0 0 0 0 0 0 0 0 255 85 85 255 85 85 255 85 85 255 85 85
255 85 85 255 85 85 255 85 85 255 85 85 0 0 0 0 0 0 0 0 0 0 0 0 0 0 0 0 0 0 0 0 0 0 0 0 0 0 0 0 0 0 0 0 0 0 0 0 255 85 85 255 85 85 255 85 85
