P3
140 7
255
0 170 0 0 170 0 0 170 0 0 170 0 0 170 0 0 170 0 0 170 0 0 170 0 0 170 0 0 170 0 0 170 0 0 170 0 0 170 0 0 170 0 0 170 0 0 170 0 0 170 0 0 170 0 0 170 0 0 170 0 0 170 0 0 170 0 0 170 0 0 170 0 0 170 0 0 170 0 0 170 0 0 170 0 0 170 0 0 170 0 0 170 0 0 170 0 0 170 0 0 170 0 0 170 0 0 170 0 0 170 0 0 170 0 0 170 0 0 170 0 0 170 0 0 170 0 0 170 0 0 170 0 0 170 0 0 170 0 0 170 0 0 170 0 0 170 0 0 170 0 0 170 0 0 170 0 0 170 0 0 170 0 0 170 0 0 170 0 0 170 0 0 170 0 0 170 0 0 170 0 0 170 0 0 170 0 0 170 0 0 170 0 0 170 0 0 170 0 0 170 0 0 170 0 0 170 0 0 170 0 0 170 0 0 170 0 0 170 0 0 170 0 0 170 0 0 170 0 0 170 0 0 170 0 0 170 0 0 170 0 0 170 0 0 170 0 0 170 0 0 170 0 0 170 0 0 170 0 0 170 0 0 170 0 0 170 0 0 170 0 0 170 0 0 170 0 0 170 0 0 170 0 0 170 0 0 170 0 0 170 0 0 170 0 0 170 0 0 170 0 0 170 0 0 170 0 0 170 0 0 170 0 0 170 0 0 170 0 0 170 0 0 170 0 0 170 0 0 170 0 0 170 0 0 170 0 0 170 0 0 170 0 0 170 0 0 170 0 0 170 0 0 170 0 0 170 0 0 170 0 0 170 0 0 170 0 0 170 0 0 170 0 0 170 0 0 170 0 0 170 0 0 170 0 0 170 0 0 170 0 0 170 0 0 170 0 0 170 0 0 170 0 0 170 0 0 170 0 0 170 0 0 170 0 0 170 0 0 170 0
0 0 170 0 0 170 0 0 170 0 0 170 0 0 170 0 0 170 0 0 170 0 0 170 0 0 170 0 0 170 0 0 170 0 0 170 0 0 170 0 0 170 0 0 170 0 0 170 0 0 170 0 0 170 0 0 170 0 0 170 0 0 170 0 0 170 0 0 170 0 0 170 0 0 170 0 0 170 0 0 170 0 0 170 0 0 170 0 0 170 0 0 170 0 0 170 0 0 170 0 0 170 0 0 170 0 0 170 0 0 170 0 0 170 0 0 170 0 0 170 0 0 170 0 0 170 0 0 170 0 0 170 0 0 170 0 0 170 0 0 170 0 0 170 0 0 170 0 0 170 0 0 170 0 0 170 0 0 170 0 0 170 0 0 170 0 0 170 0 0 170 0 0 170 0 0 170 0 0 170 0 0 170 0 0 170 0 0 170 0 0 170 0 0 170 0 0 170 0 0 170 0 0 170 0 0 170 0 0 170 0 0 170 0 0 170 0 0 170 0 0 170 0 0 170 0 0 170 0 0 170 0 0 170 0 0 170 0 0 170 0 0 170 0 0 170 0 0 170 0 0 170 0 0 170 0 0 170 0 0 170 0 0 170 0 0 170 0 0 170 0 0 170 0 0 170 0 0 170 0 0 170 0 0 170 0 0 170 0 0 170 0 0 170 0 0 170 0 0 170 0 0 170 0 0 170 0 0 170 0 0 170 0 0 170 0 0 170 0 0 170 0 0 170 0 0 170 0 0 170 0 0 170 0 0 170 0 0 170 0 0 170 0 0 170 0 0 170 0 0 170 0 0 170 0 0 170 0 0 170 0 0 170 0 0 170 0 0 170 0 0 170 0 0 170 0 0 170 0 0 170 0 0 170 0 0 170 0 0 170 0 0 170 0 0 170 0 0 170 0 0 170 0 0 170 0 0 170 0 0 170 0 0 170 0 0 170 0 0 170
0 0 170 0 170 170 0 0 170 0 170 170 0 0 170 0 170 170 0 0 170 0 170 170 0 0 170 0 170 170 0 0 170 0 170 170 0 0 170 0 170 170 0 0 170 0 170 170 0 0 170 0 170 170 0 0 170 0 170 170 0 0 170 0 170 170 0 0 170 0 170 170 0 0 170 0 170 170 0 0 170 0 170 170 0 0 170 0 170 170 0 0 170 0 170 170 0 0 170 0 170 170 0 0 170 0 170 170 0 0 170 0 170 170 0 0 170 0 170 170 0 0 170 0 170 170 0 0 170 0 170 170 0 0 170 0 170 170 0 0 170 0 170 170 0 0 170 0 170 170 0 0 170 0 170 170 0 0 170 0 170 170 0 0 170 0 170 170 0 0 170 0 170 170 0 0 170 0 170 170 0 0 170 0 170 170 0 0 170 0 170 170 0 0 170 0 170 170 0 0 170 0 170 170 0 0 170 0 170 170 0 0 170 0 170 170 0 0 170 0 170 170 0 0 170 0 170 170 0 0 170 0 170 170 0 0 170 0 170 170 0 0 170 0 170 170 0 0 170 0 170 170 0 0 170 0 170 170 0 0 170 0 170 170 0 0 170 0 170 170 0 0 170 0 170 170 0 0 170 0 170 170 0 0 170 0 170 170 0 0 170 0 170 170 0 0 170 0 170 170 0 0 170 0 170 170 0 0 170 0 170 170 0 0 170 0 170 170 0 0 170 0 170 170 0 0 170 0 170 170 0 0 170 0 170 170 0 0 170 0 170 170 0 0 170 0 170 170 0 0 170 0 170 170 0 0 170 0 170 170 0 0 170 0 170 170 0 0 170 0 170 170 0 0 170 0 170 170 0 0 170 0 170 170 0 0 170 0 170 170 0 0 170 0 170 170 0 0 170 0 170 170 0 0 170 0 170 170 0 0 170 0 170 170 0 0 170 0 170 170
0 0 170 0 0 170 0 0 170 0 0 170 0 0 170 0 0 170 0 0 170 0 0 170 0 0 170 0 0 170 0 0 170 0 0 170 0 0 170 0 0 170 0 0 170 0 0 170 0 0 170 0 0 170 0 0 170 0 0 170 0 0 170 0 0 170 0 0 170 0 0 170 0 0 170 0 0 170 0 0 170 0 0 170 0 0 170 0 0 170 0 0 170 0 0 170 0 0 170 0 0 170 0 0 170 0 0 170 0 0 170 0 0 170 0 0 170 0 0 170 0 0 170 0 0 170 0 0 170 0 0 170 0 0 170 0 0 170 0 0 170 0 0 170 0 0 170 0 0 170 0 0 170 0 0 170 0 0 170 0 0 170 0 0 170 0 0 170 0 0 170 0 0 170 0 0 170 0 0 170 0 0 170 0 0 170 0 0 170 0 0 170 0 0 170 0 0 170 0 0 170 0 0 170 0 0 170 0 0 170 0 0 170 0 0 170 0 0 170 0 0 170 0 0 170 0 0 170 0 0 170 0 0 170 0 0 170 0 0 170 0 0 170 0 0 170 0 0 170 0 0 170 0 0 170 0 0 170 0 0 170 0 0 170 0 0 170 0 0 170 0 0 170 0 0 170 0 0 170 0 0 170 0 0 170 0 0 170 0 0 170 0 0 170 0 0 170 0 0 170 0 0 170 0 0 170 0 0 170 0 0 170 0 0 170 0 0 170 0 0 170 0 0 170 0 0 170 0 0 170 0 0 170 0 0 170 0 0 170 0 0 170 0 0 170 0 0 170 0 0 170 0 0 170 0 0 170 0 0 170 0 0 170 0 0 170 0 0 170 0 0 170 0 0 170 0 0 170 0 0 170 0 0 170 0 0 170 0 0 170 0 0 170 0 0 170 0 0 170 0 0 170 0 0 170 0 0 170 0 0 170 0 0 170 0 0 170 0 0 170
0 170 0 0 170 0 0 170 0 0 170 0 0 170 0 0 170 0 0 170 0 0 170 0 0 170 0 0 170 0 0 170 0 0 170 0 0 170 0 0 170 0 0 170 0 0 170 0 0 170 0 0 170 0 0 170 0 0 170 0 0 170 0 0 170 0 0 170 0 0 170 0 0 170 0 0 170 0 0 170 0 0 170 0 0 170 0 0 170 0 0 170 0 0 170 0 0 170 0 0 170 0 0 170 0 0 170 0 0 170 0 0 170 0 0 170 0 0 170 0 0 170 0 0 170 0 0 170 0 0 170 0 0 170 0 0 170 0 0 170 0 0 170 0 0 170 0 0 170 0 0 170 0 0 170 0 0 170 0 0 170 0 0 170 0 0 170 0 0 170 0 0 170 0 0 170 0 0 170 0 0 170 0 0 170 0 0 170 0 0 170 0 0 170 0 0 170 0 0 170 0 0 170 0 0 170 0 0 170 0 0 170 0 0 170 0 0 170 0 0 170 0 0 170 0 0 170 0 0 170 0 0 170 0 0 170 0 0 170 0 0 170 0 0 170 0 0 170 0 0 170 0 0 170 0 0 170 0 0 170 0 0 170 0 0 170 0 0 170 0 0 170 0 0 170 0 0 170 0 0 170 0 0 170 0 0 170 0 0 170 0 0 170 0 0 170 0 0 170 0 0 170 0 0 170 0 0 170 0 0 170 0 0 170 0 0 170 0 0 170 0 0 170 0 0 170 0 0 170 0 0 170 0 0 170 0 0 170 0 0 170 0 0 170 0 0 170 0 0 170 0 0 170 0 0 170 0 0 170 0 0 170 0 0 170 0 0 170 0 0 170 0 0 170 0 0 170 0 0 170 0 0 170 0 0 170 0 0 170 0 0 170 0 0 170 0 0 170 0 0 170 0 0 170 0 0 170 0 0 170 0 0 170 0 0 170 0 0 170 0
0 170 170 0 170 170 0 170 170 0 170 170 0 170 170 0 170 170 0 170 170 0 170 170 0 170 170 0 170 170 0 170 170 0 170 170 0 170 170 0 170 170 0 170 170 0 170 170 0 170 170 0 170 170 0 170 170 0 170 170 0 170 170 0 170 170 0 170 170 0 170 170 0 170 170 0 170 170 0 170 170 0 170 170 0 170 170 0 170 170 0 170 170 0 170 170 0 170 170 0 170 170 0 170 170 0 170 170 0 170 170 0 170 170 0 170 170 0 170 170 0 170 170 0 170 170 0 170 170 0 170 170 0 170 170 0 170 170 0 170 170 0 170 170 0 170 170 0 170 170 0 170 170 0 170 170 0 170 170 0 170 170 0 170 170 0 170 170 0 170 170 0 170 170 0 170 170 0 170 170 0 170 170 0 170 170 0 170 170 0 170 170 0 170 170 0 170 170 0 170 170 0 170 170 0 170 170 0 170 170 0 170 170 0 170 170 0 170 170 0 170 170 0 170 170 0 170 170 0 170 170 0 170 170 0 170 170 0 170 170 0 170 170 0 170 170 0 170 170 0 170 170 0 170 170 0 170 170 0 170 170 0 170 170 0 170 170 0 170 170 0 170 170 0 170 170 0 170 170 0 170 170 0 170 170 0 170 170 0 170 170 0 170 170 0 170 170 0 170 170 0 170 170 0 170 170 0 170 170 0 170 170 0 170 170 0 170 170 0 170 170 0 170 170 0 170 170 0 170 170 0 170 170 0 170 170 0 170 170 0 170 170 0 170 170 0 170 170 0 170 170 0 170 170 0 170 170 0 170 170 0 170 170 0 170 170 0 170 170 0 170 170 0 170 170 0 170 170 0 170 170 0 170 170 0 170 170 0 170 170 0 170 170 0 170 170 0 170 170 0 170 170 0 170 170 0 170 170 0 170 170 0 170 170 0 170 170 0 170 170
170 0 0 170 0 0 170 0 0 170 0 0 170 0 0 170 0 0 170 0 0 170 0 0 170 0 0 170 0 0 170 0 0 170 0 0 170 0 0 170 0 0 170 0 0 170 0 0 170 0 0 170 0 0 170 0 0 170 0 0 170 0 0 170 0 0 170 0 0 170 0 0 170 0 0 170 0 0 170 0 0 170 0 0 170 0 0 170 0 0 170 0 0 170 0 0 170 0 0 170 0 0 170 0 0 170 0 0 170 0 0 170 0 0 170 0 0 170 0 0 170 0 0 170 0 0 170 0 0 170 0 0 170 0 0 170 0 0 170 0 0 170 0 0 170 0 0 170 0 0 170 0 0 170 0 0 170 0 0 170 0 0 170 0 0 170 0 0 170 0 0 170 0 0 170 0 0 170 0 0 170 0 0 170 0 0 170 0 0 170 0 0 170 0 0 170 0 0 170 0 0 170 0 0 170 0 0 170 0 0 170 0 0 170 0 0 170 0 0 170 0 0 170 0 0 170 0 0 170 0 0 170 0 0 170 0 0 170 0 0 170 0 0 170 0 0 170 0 0 170 0 0 170 0 0 170 0 0 170 0 0 170 0 0 170 0 0 170 0 0 170 0 0 170 0 0 170 0 0 170 0 0 170 0 0 170 0 0 170 0 0 170 0 0 170 0 0 170 0 0 170 0 0 170 0 0 170 0 0 170 0 0 170 0 0 170 0 0 170 0 0 170 0 0 170 0 0 170 0 0 170 0 0 170 0 0 170 0 0 170 0 0 170 0 0 170 0 0 170 0 0 170 0 0 170 0 0 170 0 0 170 0 0 170 0 0 170 0 0 170 0 0 170 0 0 170 0 0 170 0 0 170 0 0 170 0 0 170 0 0 170 0 0 170 0 0 170 0 0 170 0 0 170 0 0 170 0 0 170 0 0 170 0 0 170 0 0 170 0 0
