P3
29 154
255
0 170 0 0 0 170 0 170 0 0 170 170 0 170 170 0 170 170 0 170 170 0 170 170 0 170 170 0 170 170 0 170 170 0 0 170 0 170 0 0 170 0 170 0 170 0 0 170 0 170 170 0 170 170 0 170 170 0 170 170 0 170 170 0 0 170 170 0 0 170 0 0 170 0 0 170 0 0 0 0 170 170 0 0 170 0 0
0 0 0 0 170 0 0 0 170 0 170 0 0 170 170 0 170 170 0 170 170 0 170 170 0 170 170 0 170 170 0 170 170 0 170 170 0 0 170 0 170 0 0 170 0 170 0 170 0 0 170 0 170 170 0 170 170 0 170 170 0 170 170 0 170 170 0 0 170 170 0 0 170 0 0 170 0 0 170 0 0 0 0 170 170 0 0
170 0 0 0 0 0 0 170 0 0 0 170 0 170 0 0 170 170 0 170 170 0 170 170 0 170 170 0 170 170 0 170 170 0 170 170 0 170 170 0 0 170 0 170 0 0 170 0 170 0 170 0 0 170 0 170 170 0 170 170 0 170 170 0 170 170 0 170 170 0 0 170 170 0 0 170 0 0 170 0 0 170 0 0 0 0 170
170 0 0 170 0 0 0 0 0 0 170 0 0 0 170 0 170 0 0 170 170 0 170 170 0 170 170 0 170 170 0 170 170 0 170 170 0 170 170 0 170 170 0 0 170 0 170 0 0 170 0 170 0 170 0 0 170 0 170 170 0 170 170 0 170 170 0 170 170 0 170 170 0 0 170 170 0 0 170 0 0 170 0 0 170 0 0
0 0 170 170 0 0 170 0 0 0 0 0 0 170 0 0 0 170 0 170 0 0 170 170 0 170 170 0 170 170 0 170 170 0 170 170 0 170 170 0 170 170 0 170 170 0 0 170 0 170 0 0 170 0 170 0 170 0 0 170 0 170 170 0 170 170 0 170 170 0 170 170 0 170 170 0 0 170 170 0 0 170 0 0 170 0 0
170 0 0 0 0 170 170 0 0 170 0 0 0 0 0 0 170 0 0 0 170 0 170 0 0 170 170 0 170 170 0 170 170 0 170 170 0 170 170 0 170 170 0 170 170 0 170 170 0 0 170 0 170 0 0 170 0 170 0 170 0 0 170 0 170 170 0 170 170 0 170 170 0 170 170 0 170 170 0 0 170 170 0 0 170 0 0
170 0 0 170 0 0 0 0 170 170 0 0 170 0 0 0 0 0 0 170 0 0 0 170 0 170 0 0 170 170 0 170 170 0 170 170 0 170 170 0 170 170 0 170 170 0 170 170 0 170 170 0 0 170 0 170 0 0 170 0 170 0 170 0 0 170 0 170 170 0 170 170 0 170 170 0 170 170 0 170 170 0 0 170 170 0 0
170 0 0 170 0 0 170 0 0 0 0 170 170 0 0 170 0 0 0 0 0 0 170 0 0 0 170 0 170 0 0 170 170 0 170 170 0 170 170 0 170 170 0 170 170 0 170 170 0 170 170 0 170 170 0 0 170 0 170 0 0 170 0 170 0 170 0 0 170 0 170 170 0 170 170 0 170 170 0 170 170 0 170 170 0 0 170
170 0 0 170 0 0 170 0 0 170 0 0 0 0 170 170 0 0 170 0 0 0 0 0 0 170 0 0 0 170 0 170 0 170 0 0 170 0 0 170 0 0 170 0 0 170 0 0 170 0 0 170 0 0 170 0 0 0 0 170 0 170 0 0 170 0 170 0 170 0 0 170 0 170 170 0 170 170 0 170 170 0 170 170 0 170 170
0 0 170 170 0 0 170 0 0 170 0 0 170 0 0 0 0 170 170 0 0 170 0 0 0 0 0 0 170 0 0 0 170 0 0 170 0 0 170 0 0 170 0 0 170 0 0 170 0 0 170 0 0 170 0 0 170 0 0 170 0 0 170 0 170 0 0 170 0 170 0 170 0 0 170 0 170 170 0 170 170 0 170 170 0 170 170
0 170 170 0 0 170 170 0 0 170 0 0 170 0 0 170 0 0 0 0 170 0 0 170 0 0 170 0 0 0 0 170 0 0 0 170 0 170 0 0 170 0 0 170 0 0 170 0 0 170 0 0 170 0 0 170 0 0 170 0 0 170 0 0 0 170 0 170 0 0 170 0 170 0 170 0 0 170 0 170 170 0 170 170 0 170 170
0 170 170 0 170 170 0 0 170 170 0 0 170 0 0 170 0 0 170 0 0 0 0 170 0 170 170 0 170 170 0 0 0 0 170 0 0 0 170 0 170 0 0 170 170 0 170 170 0 170 170 0 170 170 0 170 170 0 170 170 0 170 170 0 170 170 0 0 170 0 170 0 0 170 0 170 0 170 0 0 170 0 170 170 0 170 170
0 170 170 0 170 170 0 170 170 0 0 170 170 0 0 170 0 0 170 0 0 170 0 0 0 0 170 170 0 0 170 0 0 0 0 0 0 170 0 0 0 170 0 170 0 0 170 170 0 170 170 0 170 170 0 170 170 0 170 170 0 170 170 0 170 170 0 170 170 0 0 170 0 170 0 0 170 0 170 0 170 0 0 170 0 170 170
0 170 170 0 170 170 0 170 170 0 170 170 0 0 170 170 0 0 170 0 0 170 0 0 170 0 0 0 0 170 170 0 0 170 0 0 0 0 0 0 170 0 0 0 170 0 170 0 0 170 170 0 170 170 0 170 170 0 170 170 0 170 170 0 170 170 0 170 170 0 170 170 0 0 170 0 170 0 0 170 0 170 0 170 0 0 170
0 170 170 0 170 170 0 170 170 0 170 170 0 170 170 0 0 170 170 0 0 170 0 0 170 0 0 170 0 0 0 0 170 170 0 0 170 0 0 0 0 0 0 170 0 0 0 170 0 170 0 0 170 170 0 170 170 0 170 170 0 170 170 0 170 170 0 170 170 0 170 170 0 170 170 0 0 170 0 170 0 0 170 0 170 0 170
0 0 170 0 170 170 0 170 170 0 170 170 0 170 170 0 170 170 0 0 170 170 0 0 170 0 0 170 0 0 170 0 0 0 0 170 170 0 0 170 0 0 0 0 0 0 170 0 0 0 170 0 170 0 0 170 170 0 170 170 0 170 170 0 170 170 0 170 170 0 170 170 0 170 170 0 170 170 0 0 170 0 170 0 0 170 0
170 0 170 0 0 170 0 170 170 0 170 170 0 170 170 0 170 170 0 170 170 0 0 170 170 0 0 170 0 0 170 0 0 170 0 0 0 0 170 170 0 0 170 0 0 0 0 0 0 170 0 0 0 170 0 170 0 0 170 170 0 170 170 0 170 170 0 170 170 0 170 170 0 170 170 0 170 170 0 170 170 0 0 170 0 170 0
0 170 0 170 0 170 0 0 170 0 170 170 0 170 170 0 170 170 0 170 170 0 170 170 0 0 170 170 0 0 170 0 0 170 0 0 170 0 0 0 0 170 170 0 0 170 0 0 0 0 0 0 170 0 0 0 170 0 170 0 0 170 170 0 170 170 0 170 170 0 170 170 0 170 170 0 170 170 0 170 170 0 170 170 0 0 170
0 170 0 0 170 0 170 0 170 0 0 170 0 170 170 0 170 170 0 170 170 0 170 170 0 170 170 0 0 170 170 0 0 170 0 0 170 0 0 170 0 0 0 0 170 170 0 0 170 0 0 0 0 0 0 170 0 0 0 170 0 170 0 0 170 170 0 170 170 0 170 170 0 170 170 0 170 170 0 170 170 0 170 170 0 170 170
0 0 170 0 170 0 0 170 0 170 0 170 0 0 170 0 170 170 0 170 170 0 170 170 0 170 170 0 170 170 0 0 170 170 0 0 170 0 0 170 0 0 170 0 0 0 0 170 170 0 0 170 0 0 0 0 0 0 170 0 0 0 170 0 170 0 0 170 170 0 170 170 0 170 170 0 170 170 0 170 170 0 170 170 0 170 170
0 170 170 0 0 170 0 170 0 0 170 0 170 0 170 0 0 170 0 170 170 0 170 170 0 170 170 0 170 170 0 170 170 0 0 170 170 0 0 170 0 0 170 0 0 170 0 0 0 0 170 170 0 0 170 0 0 0 0 0 0 170 0 0 0 170 0 170 0 0 170 170 0 170 170 0 170 170 0 170 170 0 170 170 0 170 170
0 170 170 0 170 170 0 0 170 0 170 0 0 170 0 170 0 170 0 0 170 0 170 170 0 170 170 0 170 170 0 170 170 0 170 170 0 0 170 170 0 0 170 0 0 170 0 0 170 0 0 0 0 170 170 0 0 170 0 0 0 0 0 0 170 0 0 0 170 0 170 0 0 170 170 0 170 170 0 170 170 0 170 170 0 170 170
0 170 170 0 170 170 0 170 170 0 0 170 0 170 0 0 170 0 170 0 170 0 0 170 0 170 170 0 170 170 0 170 170 0 170 170 0 170 170 0 0 170 170 0 0 170 0 0 170 0 0 170 0 0 0 0 170 170 0 0 170 0 0 0 0 0 0 170 0 0 0 170 0 170 0 0 170 170 0 170 170 0 170 170 0 170 170
0 170 170 0 170 170 0 170 170 0 170 170 0 0 170 0 170 0 0 170 0 170 0 170 0 0 170 0 170 170 0 170 170 0 170 170 0 170 170 0 170 170 0 0 170 170 0 0 170 0 0 170 0 0 170 0 0 0 0 170 170 0 0 170 0 0 0 0 0 0 170 0 0 0 170 0 170 0 0 170 170 0 170 170 0 170 170
0 170 170 0 170 170 0 170 170 0 170 170 0 170 170 0 0 170 0 170 0 0 170 0 170 0 170 0 0 170 0 170 170 0 170 170 0 170 170 0 170 170 0 170 170 0 0 170 170 0 0 170 0 0 170 0 0 170 0 0 0 0 170 170 0 0 170 0 0 0 0 0 0 170 0 0 0 170 0 170 0 0 170 170 0 170 170
0 170 170 0 170 170 0 170 170 0 170 170 0 170 170 0 170 170 0 0 170 0 170 0 0 170 0 170 0 170 0 0 170 0 170 170 0 170 170 0 170 170 0 170 170 0 170 170 0 0 170 170 0 0 170 0 0 170 0 0 170 0 0 0 0 170 170 0 0 170 0 0 0 0 0 0 170 0 0 0 170 0 170 0 0 170 170
0 170 170 0 170 170 0 170 170 0 170 170 0 170 170 0 170 170 0 170 170 0 0 170 0 170 0 0 170 0 170 0 170 0 0 170 0 170 170 0 170 170 0 170 170 0 170 170 0 170 170 0 0 170 170 0 0 170 0 0 170 0 0 170 0 0 0 0 170 170 0 0 170 0 0 0 0 0 0 170 0 0 0 170 0 170 0
0 170 170 0 170 170 0 170 170 0 170 170 0 170 170 0 170 170 0 170 170 0 170 170 0 0 170 0 170 0 0 170 0 170 0 170 0 0 170 0 170 170 0 170 170 0 170 170 0 170 170 0 170 170 0 0 170 170 0 0 170 0 0 170 0 0 170 0 0 0 0 170 170 0 0 170 0 0 0 0 0 0 170 0 0 0 170
0 170 0 0 170 170 0 170 170 0 170 170 0 170 170 0 170 170 0 170 170 0 170 170 0 170 170 0 0 170 0 170 0 0 170 0 170 0 170 0 0 170 0 170 170 0 170 170 0 170 170 0 170 170 0 170 170 0 0 170 170 0 0 170 0 0 170 0 0 170 0 0 0 0 170 170 0 0 170 0 0 0 0 0 0 170 0
0 0 170 0 170 0 0 170 170 0 170 170 0 170 170 0 170 170 0 170 170 0 170 170 0 170 170 0 170 170 0 0 170 0 170 0 0 170 0 170 0 170 0 0 170 0 170 170 0 170 170 0 170 170 0 170 170 0 170 170 0 0 170 170 0 0 170 0 0 170 0 0 170 0 0 0 0 170 170 0 0 170 0 0 0 0 0
0 170 0 0 0 170 0 170 0 0 170 170 0 170 170 0 170 170 0 170 170 0 170 170 0 170 170 0 170 170 0 170 170 0 0 170 0 170 0 0 170 0 170 0 170 0 0 170 0 170 170 0 170 170 0 170 170 0 170 170 0 170 170 0 0 170 170 0 0 170 0 0 170 0 0 170 0 0 0 0 170 170 0 0 170 0 0
0 0 0 0 170 0 0 0 170 0 170 0 0 170 170 0 170 170 0 170 170 0 170 170 0 170 170 0 170 170 0 170 170 0 170 170 0 0 170 0 170 0 0 170 0 170 0 170 0 0 170 0 170 170 0 170 170 0 170 170 0 170 170 0 170 170 0 0 170 170 0 0 170 0 0 170 0 0 170 0 0 0 0 170 170 0 0
170 0 0 0 0 0 0 170 0 0 0 170 0 170 0 0 170 170 0 170 170 0 170 170 0 170 170 0 170 170 0 170 170 0 170 170 0 170 170 0 0 170 0 170 0 0 170 0 170 0 170 0 0 170 0 170 170 0 170 170 0 170 170 0 170 170 0 170 170 0 0 170 170 0 0 170 0 0 170 0 0 170 0 0 0 0 170
170 0 0 170 0 0 0 0 0 0 170 0 0 0 170 0 170 0 0 170 170 0 170 170 0 170 170 0 170 170 0 170 170 0 170 170 0 170 170 0 170 170 0 0 170 0 170 0 0 170 0 170 0 170 0 0 170 0 170 170 0 170 170 0 170 170 0 170 170 0 170 170 0 0 170 170 0 0 170 0 0 170 0 0 170 0 0
0 0 170 170 0 0 170 0 0 0 0 0 0 170 0 0 0 170 0 170 0 0 170 170 0 170 170 0 170 170 0 170 170 0 170 170 0 170 170 0 170 170 0 170 170 0 0 170 0 170 0 0 170 0 170 0 170 0 0 170 0 170 170 0 170 170 0 170 170 0 170 170 0 170 170 0 0 170 170 0 0 170 0 0 170 0 0
170 0 0 0 0 170 170 0 0 170 0 0 0 0 0 0 170 0 0 0 170 0 170 0 0 170 170 0 170 170 0 170 170 0 170 170 0 170 170 0 170 170 0 170 170 0 170 170 0 0 170 0 170 0 0 170 0 170 0 170 0 0 170 0 170 170 0 170 170 0 170 170 0 170 170 0 170 170 0 0 170 170 0 0 170 0 0
170 0 0 170 0 0 0 0 170 170 0 0 170 0 0 0 0 0 0 170 0 0 0 170 0 170 0 0 170 170 0 170 170 0 170 170 0 170 170 0 170 170 0 170 170 0 170 170 0 170 170 0 0 170 0 170 0 0 170 0 170 0 170 0 0 170 0 170 170 0 170 170 0 170 170 0 170 170 0 170 170 0 0 170 170 0 0
170 0 0 170 0 0 170 0 0 0 0 170 170 0 0 170 0 0 0 0 0 0 170 0 0 0 170 0 170 0 0 170 170 0 170 170 0 170 170 0 170 170 0 170 170 0 170 170 0 170 170 0 170 170 0 0 170 0 170 0 0 170 0 170 0 170 0 0 170 0 170 170 0 170 170 0 170 170 0 170 170 0 170 170 0 0 170
170 0 0 170 0 0 170 0 0 170 0 0 0 0 170 170 0 0 170 0 0 0 0 0 0 170 0 0 0 170 0 170 0 0 170 170 0 170 170 0 170 170 0 170 170 0 170 170 0 170 170 0 170 170 0 170 170 0 0 170 0 170 0 0 170 0 170 0 170 0 0 170 0 170 170 0 170 170 0 170 170 0 170 170 0 170 170
0 0 170 170 0 0 170 0 0 170 0 0 170 0 0 0 0 170 170 0 0 170 0 0 0 0 0 0 170 0 0 0 170 0 170 0 0 170 170 0 170 170 0 170 170 0 170 170 0 170 170 0 170 170 0 170 170 0 170 170 0 0 170 0 170 0 0 170 0 170 0 170 0 0 170 0 170 170 0 170 170 0 170 170 0 170 170
0 170 170 0 0 170 170 0 0 170 0 0 170 0 0 170 0 0 0 0 170 170 0 0 170 0 0 0 0 0 0 170 0 0 0 170 0 170 0 0 170 170 0 170 170 0 170 170 0 170 170 0 170 170 0 170 170 0 170 170 0 170 170 0 0 170 0 170 0 0 170 0 170 0 170 0 0 170 0 170 170 0 170 170 0 170 170
0 170 170 0 170 170 0 0 170 170 0 0 170 0 0 170 0 0 170 0 0 0 0 170 170 0 0 170 0 0 0 0 0 0 170 0 0 0 170 0 170 0 0 170 170 0 170 170 0 170 170 0 170 170 0 170 170 0 170 170 0 170 170 0 170 170 0 0 170 0 170 0 0 170 0 170 0 170 0 0 170 0 170 170 0 170 170
0 170 170 0 170 170 0 170 170 0 0 170 170 0 0 170 0 0 170 0 0 170 0 0 0 0 170 170 0 0 170 0 0 0 0 0 0 170 0 0 0 170 0 170 0 0 170 170 0 170 170 0 170 170 0 170 170 0 170 170 0 170 170 0 170 170 0 170 170 0 0 170 0 170 0 0 170 0 170 0 170 0 0 170 0 170 170
0 170 170 0 170 170 0 170 170 0 170 170 0 0 170 170 0 0 170 0 0 170 0 0 170 0 0 0 0 170 170 0 0 170 0 0 0 0 0 0 170 0 0 0 170 0 170 0 0 170 170 0 170 170 0 170 170 0 170 170 0 170 170 0 170 170 0 170 170 0 170 170 0 0 170 0 170 0 0 170 0 170 0 170 0 0 170
0 170 170 0 170 170 0 170 170 0 170 170 0 170 170 0 0 170 170 0 0 170 0 0 170 0 0 170 0 0 0 0 170 170 0 0 170 0 0 0 0 0 0 170 0 0 0 170 0 170 0 0 170 170 0 170 170 0 170 170 0 170 170 0 170 170 0 170 170 0 170 170 0 170 170 0 0 170 0 170 0 0 170 0 170 0 170
0 0 170 0 170 170 0 170 170 0 170 170 0 170 170 0 170 170 0 0 170 170 0 0 170 0 0 170 0 0 170 0 0 0 0 170 170 0 0 170 0 0 0 0 0 0 170 0 0 0 170 0 170 0 0 170 170 0 170 170 0 170 170 0 170 170 0 170 170 0 170 170 0 170 170 0 170 170 0 0 170 0 170 0 0 170 0
170 0 170 0 0 170 0 170 170 0 170 170 0 170 170 0 170 170 0 170 170 0 0 170 170 0 0 170 0 0 170 0 0 170 0 0 0 0 170 170 0 0 170 0 0 0 0 0 0 170 0 0 0 170 0 170 0 0 170 170 0 170 170 0 170 170 0 170 170 0 170 170 0 170 170 0 170 170 0 170 170 0 0 170 0 170 0
0 170 0 170 0 170 0 0 170 0 170 170 0 170 170 0 170 170 0 170 170 0 170 170 0 0 170 170 0 0 170 0 0 170 0 0 170 0 0 0 0 170 170 0 0 170 0 0 0 0 0 0 170 0 0 0 170 0 170 0 0 170 170 0 170 170 0 170 170 0 170 170 0 170 170 0 170 170 0 170 170 0 170 170 0 0 170
0 170 0 0 170 0 170 0 170 0 0 170 0 170 170 0 170 170 0 170 170 0 170 170 0 170 170 0 0 170 170 0 0 170 0 0 170 0 0 170 0 0 0 0 170 170 0 0 170 0 0 0 0 0 0 170 0 0 0 170 0 170 0 0 170 170 0 170 170 0 170 170 0 170 170 0 170 170 0 170 170 0 170 170 0 170 170
0 0 170 0 170 0 0 170 0 170 0 170 0 0 170 0 170 170 0 170 170 0 170 170 0 170 170 0 170 170 0 0 170 170 0 0 170 0 0 170 0 0 170 0 0 0 0 170 170 0 0 170 0 0 0 0 0 0 170 0 0 0 170 0 170 0 0 170 170 0 170 170 0 170 170 0 170 170 0 170 170 0 170 170 0 170 170
0 170 170 0 0 170 0 170 0 0 170 0 170 0 170 0 0 170 0 170 170 0 170 170 0 170 170 0 170 170 0 170 170 0 0 170 170 0 0 170 0 0 170 0 0 170 0 0 0 0 170 170 0 0 170 0 0 0 0 0 0 170 0 0 0 170 0 170 0 0 170 170 0 170 170 0 170 170 0 170 170 0 170 170 0 170 170
0 170 170 0 170 170 0 0 170 0 170 0 0 170 0 170 0 170 0 0 170 0 170 170 0 170 170 0 170 170 0 170 170 0 170 170 0 0 170 170 0 0 170 0 0 170 0 0 170 0 0 0 0 170 170 0 0 170 0 0 0 0 0 0 170 0 0 0 170 0 170 0 0 170 170 0 170 170 0 170 170 0 170 170 0 170 170
0 170 170 0 170 170 0 170 170 0 0 170 0 170 0 0 170 0 170 0 170 0 0 170 0 170 170 0 170 170 0 170 170 0 170 170 0 170 170 0 0 170 170 0 0 170 0 0 170 0 0 170 0 0 0 0 170 170 0 0 170 0 0 0 0 0 0 170 0 0 0 170 0 170 0 0 170 170 0 170 170 0 170 170 0 170 170
0 170 170 0 170 170 0 170 170 0 170 170 0 0 170 0 170 0 0 170 0 170 0 170 0 0 170 0 170 170 0 170 170 0 170 170 0 170 170 0 170 170 0 0 170 170 0 0 170 0 0 170 0 0 170 0 0 0 0 170 170 0 0 170 0 0 0 0 0 0 170 0 0 0 170 0 170 0 0 170 170 0 170 170 0 170 170
0 170 170 0 170 170 0 170 170 0 170 170 0 170 170 0 0 170 0 170 0 0 170 0 170 0 170 0 0 170 0 170 170 0 170 170 0 170 170 0 170 170 0 170 170 0 0 170 170 0 0 170 0 0 170 0 0 170 0 0 0 0 170 170 0 0 170 0 0 0 0 0 0 170 0 0 0 170 0 170 0 0 170 170 0 170 170
0 170 170 0 170 170 0 170 170 0 170 170 0 170 170 0 170 170 0 0 170 0 170 0 0 170 0 170 0 170 0 0 170 0 170 170 0 170 170 0 170 170 0 170 170 0 170 170 0 0 170 170 0 0 170 0 0 170 0 0 170 0 0 0 0 170 170 0 0 170 0 0 0 0 0 0 170 0 0 0 170 0 170 0 0 170 170
0 170 170 0 170 170 0 170 170 0 170 170 0 170 170 0 170 170 0 170 170 0 0 170 0 170 0 0 170 0 170 0 170 0 0 170 0 170 170 0 170 170 0 170 170 0 170 170 0 170 170 0 0 170 170 0 0 170 0 0 170 0 0 170 0 0 0 0 170 170 0 0 170 0 0 0 0 0 0 170 0 0 0 170 0 170 0
0 170 170 0 170 170 0 170 170 0 170 170 0 170 170 0 170 170 0 170 170 0 170 170 0 0 170 0 170 0 0 170 0 170 0 170 0 0 170 0 170 170 0 170 170 0 170 170 0 170 170 0 170 170 0 0 170 170 0 0 170 0 0 170 0 0 170 0 0 0 0 170 170 0 0 170 0 0 0 0 0 0 170 0 0 0 170
0 170 0 0 170 170 0 170 170 0 170 170 0 170 170 0 170 170 0 170 170 0 170 170 0 170 170 0 0 170 0 170 0 0 170 0 170 0 170 0 0 170 0 170 170 0 170 170 0 170 170 0 170 170 0 170 170 0 0 170 170 0 0 170 0 0 170 0 0 170 0 0 0 0 170 170 0 0 170 0 0 0 0 0 0 170 0
0 0 170 0 170 0 0 170 170 0 170 170 0 170 170 0 170 170 0 170 170 0 170 170 0 170 170 0 170 170 0 0 170 0 170 0 0 170 0 170 0 170 0 0 170 0 170 170 0 170 170 0 170 170 0 170 170 0 170 170 0 0 170 170 0 0 170 0 0 170 0 0 170 0 0 0 0 170 170 0 0 170 0 0 0 0 0
0 170 0 0 0 170 0 170 0 0 170 170 0 170 170 0 170 170 0 170 170 0 170 170 0 170 170 0 170 170 0 170 170 0 0 170 0 170 0 0 170 0 170 0 170 0 0 170 0 170 170 0 170 170 0 170 170 0 170 170 0 170 170 0 0 170 170 0 0 170 0 0 170 0 0 170 0 0 0 0 170 170 0 0 170 0 0
0 0 0 0 170 0 0 0 170 0 170 0 0 170 170 0 170 170 0 170 170 0 170 170 0 170 170 0 170 170 0 170 170 0 170 170 0 0 170 0 170 0 0 170 0 170 0 170 0 0 170 0 170 170 0 170 170 0 170 170 0 170 170 0 170 170 0 0 170 170 0 0 170 0 0 170 0 0 170 0 0 0 0 170 170 0 0
170 0 0 0 0 0 0 170 0 0 0 170 0 170 0 0 170 170 0 170 170 0 170 170 0 170 170 0 170 170 0 170 170 0 170 170 0 170 170 0 0 170 0 170 0 0 170 0 170 0 170 0 0 170 0 170 170 0 170 170 0 170 170 0 170 170 0 170 170 0 0 170 170 0 0 170 0 0 170 0 0 170 0 0 0 0 170
170 0 0 170 0 0 0 0 0 0 170 0 0 0 170 0 170 0 0 170 170 0 170 170 0 170 170 0 170 170 0 170 170 0 170 170 0 170 170 0 170 170 0 0 170 0 170 0 0 170 0 170 0 170 0 0 170 0 170 170 0 170 170 0 170 170 0 170 170 0 170 170 0 0 170 170 0 0 170 0 0 170 0 0 170 0 0
0 0 170 170 0 0 170 0 0 0 0 0 0 170 0 0 0 170 0 170 0 0 170 170 0 170 170 0 170 170 0 170 170 0 170 170 0 170 170 0 170 170 0 170 170 0 0 170 0 170 0 0 170 0 170 0 170 0 0 170 0 170 170 0 170 170 0 170 170 0 170 170 0 170 170 0 0 170 170 0 0 170 0 0 170 0 0
170 0 0 0 0 170 170 0 0 170 0 0 0 0 0 0 170 0 0 0 170 0 170 0 0 170 170 0 170 170 0 170 170 0 170 170 0 170 170 0 170 170 0 170 170 0 170 170 0 0 170 0 170 0 0 170 0 170 0 170 0 0 170 0 170 170 0 170 170 0 170 170 0 170 170 0 170 170 0 0 170 170 0 0 170 0 0
170 0 0 170 0 0 0 0 170 170 0 0 170 0 0 0 0 0 0 170 0 0 0 170 0 170 0 0 170 170 0 170 170 0 170 170 0 170 170 0 170 170 0 170 170 0 170 170 0 170 170 0 0 170 0 170 0 0 170 0 170 0 170 0 0 170 0 170 170 0 170 170 0 170 170 0 170 170 0 170 170 0 0 170 170 0 0
170 0 0 170 0 0 170 0 0 0 0 170 170 0 0 170 0 0 0 0 0 0 170 0 0 0 170 0 170 0 0 170 170 0 170 170 0 170 170 0 170 170 0 170 170 0 170 170 0 170 170 0 170 170 0 0 170 0 170 0 0 170 0 170 0 170 0 0 170 0 170 170 0 170 170 0 170 170 0 170 170 0 170 170 0 0 170
170 0 0 170 0 0 170 0 0 170 0 0 0 0 170 170 0 0 170 0 0 0 0 0 0 170 0 0 0 170 0 170 0 0 170 170 0 170 170 0 170 170 0 170 170 0 170 170 0 170 170 0 170 170 0 170 170 0 0 170 0 170 0 0 170 0 170 0 170 0 0 170 0 170 170 0 170 170 0 170 170 0 170 170 0 170 170
0 0 170 170 0 0 170 0 0 170 0 0 170 0 0 0 0 170 170 0 0 170 0 0 0 0 0 0 170 0 0 0 170 0 170 0 0 170 170 0 170 170 0 170 170 0 170 170 0 170 170 0 170 170 0 170 170 0 170 170 0 0 170 0 170 0 0 170 0 170 0 170 0 0 170 0 170 170 0 170 170 0 170 170 0 170 170
0 170 170 0 0 170 170 0 0 170 0 0 170 0 0 170 0 0 0 0 170 170 0 0 170 0 0 0 0 0 0 170 0 0 0 170 0 170 0 0 170 170 0 170 170 0 170 170 0 170 170 0 170 170 0 170 170 0 170 170 0 170 170 0 0 170 0 170 0 0 170 0 170 0 170 0 0 170 0 170 170 0 170 170 0 170 170
0 170 170 0 170 170 0 0 170 170 0 0 170 0 0 170 0 0 170 0 0 0 0 170 170 0 0 170 0 0 0 0 0 0 170 0 0 0 170 0 170 0 0 170 170 0 170 170 0 170 170 0 170 170 0 170 170 0 170 170 0 170 170 0 170 170 0 0 170 0 170 0 0 170 0 170 0 170 0 0 170 0 170 170 0 170 170
0 170 170 0 170 170 0 170 170 0 0 170 170 0 0 170 0 0 170 0 0 170 0 0 0 0 170 170 0 0 170 0 0 0 0 0 0 170 0 0 0 170 0 170 0 0 170 170 0 170 170 0 170 170 0 170 170 0 170 170 0 170 170 0 170 170 0 170 170 0 0 170 0 170 0 0 170 0 170 0 170 0 0 170 0 170 170
0 170 170 0 170 170 0 170 170 0 170 170 0 0 170 170 0 0 170 0 0 170 0 0 170 0 0 0 0 170 170 0 0 170 0 0 0 0 0 0 170 0 0 0 170 0 170 0 0 170 170 0 170 170 0 170 170 0 170 170 0 170 170 0 170 170 0 170 170 0 170 170 0 0 170 0 170 0 0 170 0 170 0 170 0 0 170
0 170 170 0 170 170 0 170 170 0 170 170 0 170 170 0 0 170 170 0 0 170 0 0 170 0 0 170 0 0 0 0 170 170 0 0 170 0 0 0 0 0 0 170 0 0 0 170 0 170 0 0 170 170 0 170 170 0 170 170 0 170 170 0 170 170 0 170 170 0 170 170 0 170 170 0 0 170 0 170 0 0 170 0 170 0 170
0 0 170 0 170 170 0 170 170 0 170 170 0 170 170 0 170 170 0 0 170 170 0 0 170 0 0 170 0 0 170 0 0 0 0 170 170 0 0 170 0 0 0 0 0 0 170 0 0 0 170 0 170 0 0 170 170 0 170 170 0 170 170 0 170 170 0 170 170 0 170 170 0 170 170 0 170 170 0 0 170 0 170 0 0 170 0
170 0 170 0 0 170 0 170 170 0 170 170 0 170 170 0 170 170 0 170 170 0 0 170 170 0 0 170 0 0 170 0 0 170 0 0 0 0 170 170 0 0 170 0 0 0 0 0 0 170 0 0 0 170 0 170 0 0 170 170 0 170 170 0 170 170 0 170 170 0 170 170 0 170 170 0 170 170 0 170 170 0 0 170 0 170 0
0 170 0 170 0 170 0 0 170 0 170 170 0 170 170 0 170 170 0 170 170 0 170 170 0 0 170 170 0 0 170 0 0 170 0 0 170 0 0 0 0 170 170 0 0 170 0 0 0 0 0 0 170 0 0 0 170 0 170 0 0 170 170 0 170 170 0 170 170 0 170 170 0 170 170 0 170 170 0 170 170 0 170 170 0 0 170
0 170 0 0 170 0 170 0 170 0 0 170 0 170 170 0 170 170 0 170 170 0 170 170 0 170 170 0 0 170 170 0 0 170 0 0 170 0 0 170 0 0 0 0 170 170 0 0 170 0 0 0 0 0 0 170 0 0 0 170 0 170 0 0 170 170 0 170 170 0 170 170 0 170 170 0 170 170 0 170 170 0 170 170 0 170 170
0 0 170 0 170 0 0 170 0 170 0 170 0 0 170 0 170 170 0 170 170 0 170 170 0 170 170 0 170 170 0 0 170 170 0 0 170 0 0 170 0 0 170 0 0 0 0 170 170 0 0 170 0 0 0 0 0 0 170 0 0 0 170 0 170 0 0 170 170 0 170 170 0 170 170 0 170 170 0 170 170 0 170 170 0 170 170
0 170 170 0 0 170 0 170 0 0 170 0 170 0 170 0 0 170 0 170 170 0 170 170 0 170 170 0 170 170 0 170 170 0 0 170 170 0 0 170 0 0 170 0 0 170 0 0 0 0 170 170 0 0 170 0 0 0 0 0 0 170 0 0 0 170 0 170 0 0 170 170 0 170 170 0 170 170 0 170 170 0 170 170 0 170 170
0 170 170 0 170 170 0 0 170 0 170 0 0 170 0 170 0 170 0 0 170 0 170 170 0 170 170 0 170 170 0 170 170 0 170 170 0 0 170 170 0 0 170 0 0 170 0 0 170 0 0 0 0 170 170 0 0 170 0 0 0 0 0 0 170 0 0 0 170 0 170 0 0 170 170 0 170 170 0 170 170 0 170 170 0 170 170
0 170 170 0 170 170 0 170 170 0 0 170 0 170 0 0 170 0 170 0 170 0 0 170 0 170 170 0 170 170 0 170 170 0 170 170 0 170 170 0 0 170 170 0 0 170 0 0 170 0 0 170 0 0 0 0 170 170 0 0 170 0 0 0 0 0 0 170 0 0 0 170 0 170 0 0 170 170 0 170 170 0 170 170 0 170 170
0 170 170 0 170 170 0 170 170 0 170 170 0 0 170 0 170 0 0 170 0 170 0 170 0 0 170 0 170 170 0 170 170 0 170 170 0 170 170 0 170 170 0 0 170 170 0 0 170 0 0 170 0 0 170 0 0 0 0 170 170 0 0 170 0 0 0 0 0 0 170 0 0 0 170 0 170 0 0 170 170 0 170 170 0 170 170
0 170 170 0 170 170 0 170 170 0 170 170 0 170 170 0 0 170 0 170 0 0 170 0 170 0 170 0 0 170 0 170 170 0 170 170 0 170 170 0 170 170 0 170 170 0 0 170 170 0 0 170 0 0 170 0 0 170 0 0 0 0 170 170 0 0 170 0 0 0 0 0 0 170 0 0 0 170 0 170 0 0 170 170 0 170 170
0 170 170 0 170 170 0 170 170 0 170 170 0 170 170 0 170 170 0 0 170 0 170 0 0 170 0 170 0 170 0 0 170 0 170 170 0 170 170 0 170 170 0 170 170 0 170 170 0 0 170 170 0 0 170 0 0 170 0 0 170 0 0 0 0 170 170 0 0 170 0 0 0 0 0 0 170 0 0 0 170 0 170 0 0 170 170
0 170 170 0 170 170 0 170 170 0 170 170 0 170 170 0 170 170 0 170 170 0 0 170 0 170 0 0 170 0 170 0 170 0 0 170 0 170 170 0 170 170 0 170 170 0 170 170 0 170 170 0 0 170 170 0 0 170 0 0 170 0 0 170 0 0 0 0 170 170 0 0 170 0 0 0 0 0 0 170 0 0 0 170 0 170 0
0 170 170 0 170 170 0 170 170 0 170 170 0 170 170 0 170 170 0 170 170 0 170 170 0 0 170 0 170 0 0 170 0 170 0 170 0 0 170 0 170 170 0 170 170 0 170 170 0 170 170 0 170 170 0 0 170 170 0 0 170 0 0 170 0 0 170 0 0 0 0 170 170 0 0 170 0 0 0 0 0 0 170 0 0 0 170
0 170 0 0 170 170 0 170 170 0 170 170 0 170 170 0 0 170 0 170 0 0 170 0 0 170 170 0 0 170 0 170 0 0 170 0 170 0 170 0 0 170 0 170 170 0 170 170 0 170 170 0 170 170 0 170 170 0 0 170 170 0 0 170 0 0 170 0 0 170 0 0 0 0 170 170 0 0 170 0 0 0 0 0 0 170 0
0 0 170 0 170 0 0 170 170 0 170 170 0 170 170 0 170 170 0 0 170 0 170 0 0 170 0 0 170 170 0 0 170 0 170 0 0 170 0 170 0 170 0 0 170 0 170 170 0 170 170 0 170 170 0 170 170 0 170 170 0 0 170 170 0 0 170 0 0 170 0 0 170 0 0 0 0 170 170 0 0 170 0 0 0 0 0
0 170 0 0 0 170 0 170 0 170 0 0 170 0 0 170 0 0 170 0 0 0 0 170 0 170 0 0 170 0 0 170 170 0 0 170 0 170 0 0 170 0 170 0 170 0 0 170 0 170 170 0 170 170 0 170 170 0 170 170 0 170 170 0 0 170 170 0 0 170 0 0 170 0 0 170 0 0 0 0 170 170 0 0 170 0 0
0 0 0 0 170 0 0 0 170 0 0 170 0 0 170 0 0 170 0 0 170 0 0 170 0 0 170 0 170 0 0 170 0 0 170 170 0 0 170 0 170 0 0 170 0 170 0 170 0 0 170 0 170 170 0 170 170 0 170 170 0 170 170 0 170 170 0 0 170 170 0 0 170 0 0 170 0 0 170 0 0 0 0 170 170 0 0
170 0 0 0 0 0 0 170 0 0 0 170 0 170 0 0 170 0 0 170 0 0 170 0 0 170 0 0 0 170 0 170 0 0 170 0 0 170 170 0 0 170 0 170 0 0 170 0 170 0 170 0 0 170 0 170 170 0 170 170 0 170 170 0 170 170 0 170 170 0 0 170 170 0 0 170 0 0 170 0 0 170 0 0 0 0 170
170 0 0 170 0 0 0 0 0 0 170 0 0 0 170 0 170 0 0 170 170 0 170 170 0 170 170 0 170 170 0 0 170 0 170 0 0 170 0 0 170 170 0 0 170 0 170 0 0 170 0 170 0 170 0 0 170 0 170 170 0 170 170 0 170 170 0 170 170 0 170 170 0 0 170 170 0 0 170 0 0 170 0 0 170 0 0
0 0 170 170 0 0 170 0 0 0 0 0 0 170 0 0 0 170 0 170 0 0 170 170 0 170 170 0 170 170 0 170 170 0 0 170 0 170 0 0 170 0 0 170 170 0 0 170 0 170 0 0 170 0 170 0 170 0 0 170 0 170 170 0 170 170 0 170 170 0 170 170 0 170 170 0 0 170 170 0 0 170 0 0 170 0 0
170 0 0 0 0 170 170 0 0 170 0 0 0 0 0 0 170 0 0 0 170 0 170 0 0 170 170 0 170 170 0 170 170 0 170 170 0 170 170 0 170 170 0 170 170 0 170 170 0 0 170 0 170 0 0 170 0 170 0 170 0 0 170 0 170 170 0 170 170 0 170 170 0 170 170 0 170 170 0 0 170 170 0 0 170 0 0
170 0 0 170 0 0 0 0 170 170 0 0 170 0 0 0 0 0 0 170 0 0 0 170 0 170 0 0 170 170 0 170 170 0 170 170 0 170 170 0 170 170 0 170 170 0 170 170 0 170 170 0 0 170 0 170 0 0 170 0 170 0 170 0 0 170 0 170 170 0 170 170 0 170 170 0 170 170 0 170 170 0 0 170 170 0 0
170 0 0 170 0 0 170 0 0 0 0 170 170 0 0 170 0 0 0 0 0 0 170 0 0 0 170 0 170 0 0 170 170 0 170 170 0 170 170 0 170 170 0 170 170 0 170 170 0 170 170 0 170 170 0 0 170 0 170 0 0 170 0 170 0 170 0 0 170 0 170 170 0 170 170 0 170 170 0 170 170 0 170 170 0 0 170
170 0 0 170 0 0 170 0 0 170 0 0 0 0 170 170 0 0 170 0 0 0 0 0 0 170 0 0 0 170 0 170 0 0 170 170 0 170 170 0 170 170 0 170 170 0 170 170 0 170 170 0 170 170 0 170 170 0 0 170 0 170 0 0 170 0 170 0 170 0 0 170 0 170 170 0 170 170 0 170 170 0 170 170 0 170 170
0 0 170 170 0 0 170 0 0 170 0 0 170 0 0 0 0 170 170 0 0 170 0 0 0 0 0 0 170 0 0 0 170 0 170 0 0 170 170 0 170 170 0 170 170 0 170 170 0 170 170 0 170 170 0 170 170 0 170 170 0 0 170 0 170 0 0 170 0 170 0 170 0 0 170 0 170 170 0 170 170 0 170 170 0 170 170
0 170 170 0 0 170 170 0 0 170 0 0 170 0 0 170 0 0 0 0 170 170 0 0 170 0 0 0 0 0 0 170 0 0 0 170 0 170 0 0 170 170 0 170 170 0 170 170 0 170 170 0 170 170 0 170 170 0 170 170 0 170 170 0 0 170 0 170 0 0 170 0 170 0 170 0 0 170 0 170 170 0 170 170 0 170 170
0 170 170 0 170 170 0 0 170 170 0 0 170 0 0 170 0 0 170 0 0 0 0 170 170 0 0 170 0 0 0 0 0 0 170 0 0 0 170 0 170 0 0 170 170 0 170 170 0 170 170 0 170 170 0 170 170 0 170 170 0 170 170 0 170 170 0 0 170 0 170 0 0 170 0 170 0 170 0 0 170 0 170 170 0 170 170
0 170 170 0 170 170 0 170 170 0 0 170 170 0 0 170 0 0 170 0 0 170 0 0 0 0 170 170 0 0 170 0 0 0 0 0 0 170 0 0 0 170 0 170 0 0 170 170 0 170 170 0 170 170 0 170 170 0 170 170 0 170 170 0 170 170 0 170 170 0 0 170 0 170 0 0 170 0 170 0 170 0 0 170 0 170 170
0 170 170 0 170 170 0 170 170 0 170 170 0 0 170 170 0 0 170 0 0 170 0 0 170 0 0 0 0 170 170 0 0 170 0 0 0 0 0 0 170 0 0 0 170 0 170 0 0 170 170 0 170 170 0 170 170 0 170 170 0 170 170 0 170 170 0 170 170 0 170 170 0 0 170 0 170 0 0 170 0 170 0 170 0 0 170
0 170 170 0 170 170 0 170 170 0 170 170 0 170 170 0 0 170 170 0 0 170 0 0 170 0 0 170 0 0 0 0 170 170 0 0 170 0 0 0 0 0 0 170 0 0 0 170 0 170 0 0 170 170 0 170 170 0 170 170 0 170 170 0 170 170 0 170 170 0 170 170 0 170 170 0 0 170 0 170 0 0 170 0 170 0 170
0 0 170 0 170 170 0 170 170 0 170 170 0 170 170 0 170 170 0 0 170 170 0 0 170 0 0 170 0 0 170 0 0 0 0 170 170 0 0 170 0 0 0 0 0 0 170 0 0 0 170 0 170 0 0 170 170 0 170 170 0 170 170 0 170 170 0 170 170 0 170 170 0 170 170 0 170 170 0 0 170 0 170 0 0 170 0
170 0 170 0 0 170 0 170 170 0 170 170 0 170 170 0 170 170 0 170 170 0 0 170 170 0 0 170 0 0 170 0 0 170 0 0 0 0 170 170 0 0 170 0 0 0 0 0 0 170 0 0 0 170 0 170 0 0 170 170 0 170 170 0 170 170 0 170 170 0 170 170 0 170 170 0 170 170 0 170 170 0 0 170 0 170 0
0 170 0 170 0 170 0 0 170 0 170 170 0 170 170 0 170 170 0 170 170 0 170 170 0 0 170 170 0 0 170 0 0 170 0 0 170 0 0 0 0 170 170 0 0 170 0 0 0 0 0 0 170 0 0 0 170 0 170 0 0 170 170 0 170 170 0 170 170 0 170 170 0 170 170 0 170 170 0 170 170 0 170 170 0 0 170
0 170 0 0 170 0 170 0 170 0 0 170 0 170 170 0 170 170 0 170 170 0 170 170 0 170 170 0 0 170 170 0 0 170 0 0 170 0 0 170 0 0 0 0 170 170 0 0 170 0 0 0 0 0 0 170 0 0 0 170 0 170 0 0 170 170 0 170 170 0 170 170 0 170 170 0 170 170 0 170 170 0 170 170 0 170 170
0 0 170 0 170 0 0 170 0 170 0 170 0 0 170 0 170 170 0 170 170 0 170 170 0 170 170 0 170 170 0 0 170 170 0 0 170 0 0 170 0 0 170 0 0 0 0 170 170 0 0 170 0 0 0 0 0 0 170 0 0 0 170 0 170 0 0 170 170 0 170 170 0 170 170 0 170 170 0 170 170 0 170 170 0 170 170
0 170 170 0 0 170 0 170 0 0 170 0 170 0 170 0 0 170 0 170 170 0 170 170 0 170 170 0 170 170 0 170 170 0 0 170 170 0 0 170 0 0 170 0 0 170 0 0 0 0 170 170 0 0 170 0 0 0 0 0 0 170 0 0 0 170 0 170 0 0 170 170 0 170 170 0 170 170 0 170 170 0 170 170 0 170 170
0 170 170 0 170 170 0 0 170 0 170 0 0 170 0 170 0 170 0 0 170 0 170 170 0 170 170 0 170 170 0 170 170 0 170 170 0 0 170 170 0 0 170 0 0 170 0 0 170 0 0 0 0 170 170 0 0 170 0 0 0 0 0 0 170 0 0 0 170 0 170 0 0 170 170 0 170 170 0 170 170 0 170 170 0 170 170
0 170 170 0 170 170 0 170 170 0 0 170 0 170 0 0 170 0 170 0 170 0 0 170 0 170 170 0 170 170 0 170 170 0 170 170 0 170 170 0 0 170 170 0 0 170 0 0 170 0 0 170 0 0 0 0 170 170 0 0 170 0 0 0 0 0 0 170 0 0 0 170 0 170 0 0 170 170 0 170 170 0 170 170 0 170 170
0 170 170 0 170 170 0 170 170 0 170 170 0 0 170 0 170 0 0 170 0 170 0 170 0 0 170 0 170 170 0 170 170 0 170 170 0 170 170 0 170 170 0 0 170 170 0 0 170 0 0 170 0 0 170 0 0 0 0 170 170 0 0 170 0 0 0 0 0 0 170 0 0 0 170 0 170 0 0 170 170 0 170 170 0 170 170
0 170 170 0 170 170 0 170 170 0 170 170 0 170 170 0 0 170 0 170 0 0 170 0 170 0 170 0 0 170 0 170 170 0 170 170 0 170 170 0 170 170 0 170 170 0 0 170 170 0 0 170 0 0 170 0 0 170 0 0 0 0 170 170 0 0 170 0 0 0 0 0 0 170 0 0 0 170 0 170 0 0 170 170 0 170 170
0 170 170 0 170 170 0 170 170 0 170 170 0 170 170 0 170 170 0 0 170 0 170 0 0 170 0 170 0 170 0 0 170 0 170 170 0 170 170 0 170 170 0 170 170 0 170 170 0 0 170 170 0 0 170 0 0 170 0 0 170 0 0 0 0 170 170 0 0 170 0 0 0 0 0 0 170 0 0 0 170 0 170 0 0 170 170
0 170 170 0 170 170 0 170 170 0 170 170 0 170 170 0 170 170 0 170 170 0 0 170 0 170 0 0 170 0 170 0 170 0 0 170 0 170 170 0 170 170 0 170 170 0 170 170 0 170 170 0 0 170 170 0 0 170 0 0 170 0 0 170 0 0 0 0 170 170 0 0 170 0 0 0 0 0 0 170 0 0 0 170 0 170 0
0 170 170 0 170 170 0 170 170 0 170 170 0 170 170 0 170 170 0 170 170 0 170 170 0 0 170 0 170 0 0 170 0 170 0 170 0 0 170 0 170 170 0 170 170 0 170 170 0 170 170 0 170 170 0 0 170 170 0 0 170 0 0 170 0 0 170 0 0 0 0 170 170 0 0 170 0 0 0 0 0 0 170 0 0 0 170
0 170 0 0 170 170 0 170 170 0 170 170 0 170 170 0 170 170 0 170 170 0 170 170 0 170 170 0 0 170 0 170 0 0 170 0 170 0 170 0 0 170 0 170 170 0 170 170 0 170 170 0 170 170 0 170 170 0 0 170 170 0 0 170 0 0 170 0 0 170 0 0 0 0 170 170 0 0 170 0 0 0 0 0 0 170 0
0 0 170 0 170 0 0 170 170 0 170 170 0 170 170 0 170 170 0 170 170 0 170 170 0 170 170 0 170 170 0 0 170 0 170 0 0 170 0 170 0 170 0 0 170 0 170 170 0 170 170 0 170 170 0 170 170 0 170 170 0 0 170 170 0 0 170 0 0 170 0 0 170 0 0 0 0 170 170 0 0 170 0 0 0 0 0
0 170 0 0 0 170 0 170 0 0 170 170 0 170 170 0 170 170 0 170 170 0 170 170 0 170 170 0 170 170 0 170 170 0 0 170 0 170 0 0 170 0 170 0 170 0 0 170 0 170 170 0 170 170 0 170 170 0 170 170 0 170 170 0 0 170 170 0 0 170 0 0 170 0 0 170 0 0 0 0 170 170 0 0 170 0 0
0 0 0 0 170 0 0 0 170 0 170 0 0 170 170 0 170 170 0 170 170 0 170 170 0 170 170 0 170 170 0 170 170 0 170 170 0 0 170 0 170 0 0 170 0 170 0 170 0 0 170 0 170 170 0 170 170 0 170 170 0 170 170 0 170 170 0 0 170 170 0 0 170 0 0 170 0 0 170 0 0 0 0 170 170 0 0
170 0 0 0 0 0 0 170 0 0 0 170 0 170 0 0 170 170 0 170 170 0 170 170 0 170 170 0 170 170 0 170 170 0 170 170 0 170 170 0 0 170 0 170 0 0 170 0 170 0 170 0 0 170 0 170 170 0 170 170 0 170 170 0 170 170 0 170 170 0 0 170 170 0 0 170 0 0 170 0 0 170 0 0 0 0 170
170 0 0 170 0 0 0 0 0 0 170 0 0 0 170 0 170 0 0 170 170 0 170 170 0 170 170 0 170 170 0 170 170 0 170 170 0 170 170 0 170 170 0 0 170 0 170 0 0 170 0 170 0 170 0 0 170 0 170 170 0 170 170 0 170 170 0 170 170 0 170 170 0 0 170 170 0 0 170 0 0 170 0 0 170 0 0
0 0 170 170 0 0 170 0 0 0 0 0 0 170 0 0 0 170 0 170 0 0 170 170 0 170 170 0 170 170 0 170 170 0 170 170 0 170 170 0 170 170 0 170 170 0 0 170 0 170 0 0 170 0 170 0 170 0 0 170 0 170 170 0 170 170 0 170 170 0 170 170 0 170 170 0 0 170 170 0 0 170 0 0 170 0 0
170 0 0 0 0 170 170 0 0 170 0 0 0 0 0 0 170 0 0 0 170 0 170 0 0 170 170 0 170 170 0 170 170 0 170 170 0 170 170 0 170 170 0 170 170 0 170 170 0 0 170 0 170 0 0 170 0 170 0 170 0 0 170 0 170 170 0 170 170 0 170 170 0 170 170 0 170 170 0 0 170 170 0 0 170 0 0
170 0 0 170 0 0 0 0 170 170 0 0 170 0 0 0 0 0 0 170 0 0 0 170 0 170 0 0 170 170 0 170 170 0 170 170 0 170 170 0 170 170 0 170 170 0 170 170 0 170 170 0 0 170 0 170 0 0 170 0 170 0 170 0 0 170 0 170 170 0 170 170 0 170 170 0 170 170 0 170 170 0 0 170 170 0 0
170 0 0 170 0 0 170 0 0 0 0 170 170 0 0 170 0 0 0 0 0 0 170 0 0 0 170 0 170 0 0 170 170 0 170 170 0 170 170 0 170 170 0 170 170 0 170 170 0 170 170 0 170 170 0 0 170 0 170 0 0 170 0 170 0 170 0 0 170 0 170 170 0 170 170 0 170 170 0 170 170 0 170 170 0 0 170
170 0 0 170 0 0 170 0 0 170 0 0 0 0 170 170 0 0 170 0 0 0 0 0 0 170 0 0 0 170 0 170 0 0 170 170 0 170 170 0 170 170 0 170 170 0 170 170 0 170 170 0 170 170 0 170 170 0 0 170 0 170 0 0 170 0 170 0 170 0 0 170 0 170 170 0 170 170 0 170 170 0 170 170 0 170 170
0 0 170 170 0 0 170 0 0 170 0 0 170 0 0 0 0 170 170 0 0 170 0 0 0 0 0 0 170 0 0 0 170 0 170 0 0 170 170 0 170 170 0 170 170 0 170 170 0 170 170 0 170 170 0 170 170 0 170 170 0 0 170 0 170 0 0 170 0 170 0 170 0 0 170 0 170 170 0 170 170 0 170 170 0 170 170
0 170 170 0 0 170 170 0 0 170 0 0 170 0 0 170 0 0 0 0 170 170 0 0 170 0 0 0 0 0 0 170 0 0 0 170 0 170 0 0 170 170 0 170 170 0 170 170 0 170 170 0 170 170 0 170 170 0 170 170 0 170 170 0 0 170 0 170 0 0 170 0 170 0 170 0 0 170 0 170 170 0 170 170 0 170 170
0 170 170 0 170 170 0 0 170 170 0 0 170 0 0 170 0 0 170 0 0 0 0 170 170 0 0 170 0 0 0 0 0 0 170 0 0 0 170 0 170 0 0 170 170 0 170 170 0 170 170 0 170 170 0 170 170 0 170 170 0 170 170 0 170 170 0 0 170 0 170 0 0 170 0 170 0 170 0 0 170 0 170 170 0 170 170
0 170 170 0 170 170 0 170 170 0 0 170 170 0 0 170 0 0 170 0 0 170 0 0 0 0 170 170 0 0 170 0 0 0 0 0 0 170 0 0 0 170 0 170 0 0 170 170 0 170 170 0 170 170 0 170 170 0 170 170 0 170 170 0 170 170 0 170 170 0 0 170 0 170 0 0 170 0 170 0 170 0 0 170 0 170 170
0 170 170 0 170 170 0 170 170 0 170 170 0 0 170 170 0 0 170 0 0 170 0 0 170 0 0 0 0 170 170 0 0 170 0 0 0 0 0 0 170 0 0 0 170 0 170 0 0 170 170 0 170 170 0 170 170 0 170 170 0 170 170 0 170 170 0 170 170 0 170 170 0 0 170 0 170 0 0 170 0 170 0 170 0 0 170
0 170 170 0 170 170 0 170 170 0 170 170 0 170 170 0 0 170 170 0 0 170 0 0 170 0 0 170 0 0 0 0 170 170 0 0 170 0 0 0 0 0 0 170 0 0 0 170 0 170 0 0 170 170 0 170 170 0 170 170 0 170 170 0 170 170 0 170 170 0 170 170 0 170 170 0 0 170 0 170 0 0 170 0 170 0 170
0 0 170 0 170 170 0 170 170 0 170 170 0 170 170 0 170 170 0 0 170 170 0 0 170 0 0 170 0 0 170 0 0 0 0 170 170 0 0 170 0 0 0 0 0 0 170 0 0 0 170 0 170 0 0 170 170 0 170 170 0 170 170 0 170 170 0 170 170 0 170 170 0 170 170 0 170 170 0 0 170 0 170 0 0 170 0
170 0 170 0 0 170 0 170 170 0 170 170 0 170 170 0 170 170 0 170 170 0 0 170 170 0 0 170 0 0 170 0 0 170 0 0 0 0 170 170 0 0 170 0 0 0 0 0 0 170 0 0 0 170 0 170 0 0 170 170 0 170 170 0 170 170 0 170 170 0 170 170 0 170 170 0 170 170 0 170 170 0 0 170 0 170 0
0 170 0 170 0 170 0 0 170 0 170 170 0 170 170 0 170 170 0 170 170 0 170 170 0 0 170 170 0 0 170 0 0 170 0 0 170 0 0 0 0 170 170 0 0 170 0 0 0 0 0 0 170 0 0 0 170 0 170 0 0 170 170 0 170 170 0 170 170 0 170 170 0 170 170 0 170 170 0 170 170 0 170 170 0 0 170
0 170 0 0 170 0 170 0 170 0 0 170 0 170 170 0 170 170 0 170 170 0 170 170 0 170 170 0 0 170 170 0 0 170 0 0 170 0 0 170 0 0 0 0 170 170 0 0 170 0 0 0 0 0 0 170 0 0 0 170 0 170 0 0 170 170 0 170 170 0 170 170 0 170 170 0 170 170 0 170 170 0 170 170 0 170 170
0 0 170 0 170 0 0 170 0 170 0 170 0 0 170 0 170 170 0 170 170 0 170 170 0 170 170 0 170 170 0 0 170 170 0 0 170 0 0 170 0 0 170 0 0 0 0 170 170 0 0 170 0 0 0 0 0 0 170 0 0 0 170 0 170 0 0 170 170 0 170 170 0 170 170 0 170 170 0 170 170 0 170 170 0 170 170
0 170 170 0 0 170 0 170 0 0 170 0 170 0 170 0 0 170 0 170 170 0 170 170 0 170 170 0 170 170 0 170 170 0 0 170 170 0 0 170 0 0 170 0 0 170 0 0 0 0 170 170 0 0 170 0 0 0 0 0 0 170 0 0 0 170 0 170 0 0 170 170 0 170 170 0 170 170 0 170 170 0 170 170 0 170 170
0 170 170 0 170 170 0 0 170 0 170 0 0 170 0 170 0 170 0 0 170 0 170 170 0 170 170 0 170 170 0 170 170 0 170 170 0 0 170 170 0 0 170 0 0 170 0 0 170 0 0 0 0 170 170 0 0 170 0 0 0 0 0 0 170 0 0 0 170 0 170 0 0 170 170 0 170 170 0 170 170 0 170 170 0 170 170
0 170 170 0 170 170 0 170 170 0 0 170 0 170 0 0 170 0 170 0 170 0 0 170 0 170 170 0 170 170 0 170 170 0 170 170 0 170 170 0 0 170 170 0 0 170 0 0 170 0 0 170 0 0 0 0 170 170 0 0 170 0 0 0 0 0 0 170 0 0 0 170 0 170 0 0 170 170 0 170 170 0 170 170 0 170 170
0 170 170 0 170 170 0 170 170 0 170 170 0 0 170 0 170 0 0 170 0 170 0 170 0 0 170 0 170 170 0 170 170 0 170 170 0 170 170 0 170 170 0 0 170 170 0 0 170 0 0 170 0 0 170 0 0 0 0 170 170 0 0 170 0 0 0 0 0 0 170 0 0 0 170 0 170 0 0 170 170 0 170 170 0 170 170
0 170 170 0 170 170 0 170 170 0 170 170 0 170 170 0 0 170 0 170 0 0 170 0 170 0 170 0 0 170 0 170 170 0 170 170 0 170 170 0 170 170 0 170 170 0 0 170 170 0 0 170 0 0 170 0 0 170 0 0 0 0 170 170 0 0 170 0 0 0 0 0 0 170 0 0 0 170 0 170 0 0 170 170 0 170 170
0 170 170 0 170 170 0 170 170 0 170 170 0 170 170 0 170 170 0 0 170 0 170 0 0 170 0 170 0 170 0 0 170 0 170 170 0 170 170 0 170 170 0 170 170 0 170 170 0 0 170 170 0 0 170 0 0 170 0 0 170 0 0 0 0 170 170 0 0 170 0 0 0 0 0 0 170 0 0 0 170 0 170 0 0 170 170
0 170 170 0 170 170 0 170 170 0 170 170 0 170 170 0 170 170 0 170 170 0 0 170 0 170 0 0 170 0 170 0 170 0 0 170 0 170 170 0 170 170 0 170 170 0 170 170 0 170 170 0 0 170 170 0 0 170 0 0 170 0 0 170 0 0 0 0 170 170 0 0 170 0 0 0 0 0 0 170 0 0 0 170 0 170 0
0 170 170 0 170 170 0 170 170 0 170 170 0 170 170 0 170 170 0 170 170 0 170 170 0 0 170 0 170 0 0 170 0 170 0 170 0 0 170 0 170 170 0 170 170 0 170 170 0 170 170 0 170 170 0 0 170 170 0 0 170 0 0 170 0 0 170 0 0 0 0 170 170 0 0 170 0 0 0 0 0 0 170 0 0 0 170
0 170 0 0 170 170 0 170 170 0 170 170 0 170 170 0 170 170 0 170 170 0 170 170 0 170 170 0 0 170 0 170 0 0 170 0 170 0 170 0 0 170 0 170 170 0 170 170 0 170 170 0 170 170 0 170 170 0 0 170 170 0 0 170 0 0 170 0 0 170 0 0 0 0 170 170 0 0 170 0 0 0 0 0 0 170 0
0 0 170 0 170 0 0 170 170 0 170 170 0 170 170 0 170 170 0 170 170 0 170 170 0 170 170 0 170 170 0 0 170 0 170 0 0 170 0 170 0 170 0 0 170 0 170 170 0 170 170 0 170 170 0 170 170 0 170 170 0 0 170 170 0 0 170 0 0 170 0 0 170 0 0 0 0 170 170 0 0 170 0 0 0 0 0
0 170 0 0 0 170 0 170 0 0 170 170 0 170 170 0 170 170 0 170 170 0 170 170 0 170 170 0 170 170 0 170 170 0 0 170 0 170 0 0 170 0 170 0 170 0 0 170 0 170 170 0 170 170 0 170 170 0 170 170 0 170 170 0 0 170 170 0 0 170 0 0 170 0 0 170 0 0 0 0 170 170 0 0 170 0 0
0 0 0 0 170 0 0 0 170 0 170 0 0 170 170 0 170 170 0 170 170 0 170 170 0 170 170 0 170 170 0 170 170 0 170 170 0 0 170 0 170 0 0 170 0 170 0 170 0 0 170 0 170 170 0 170 170 0 170 170 0 170 170 0 170 170 0 0 170 170 0 0 170 0 0 170 0 0 170 0 0 0 0 170 170 0 0
170 0 0 0 0 0 0 170 0 0 0 170 0 170 0 0 170 170 0 170 170 0 170 170 0 170 170 0 170 170 0 170 170 0 170 170 0 170 170 0 0 170 0 170 0 0 170 0 170 0 170 0 0 170 0 170 170 0 170 170 0 170 170 0 170 170 0 170 170 0 0 170 170 0 0 170 0 0 170 0 0 170 0 0 170 0 0
0 0 170 170 0 0 0 0 0 0 170 0 0 0 170 0 170 0 0 170 170 0 170 170 0 170 170 0 170 170 0 170 170 0 170 170 0 170 170 0 170 170 0 0 170 0 170 0 0 170 0 170 0 170 0 0 170 0 170 170 0 170 170 0 170 170 0 170 170 0 170 170 0 0 170 170 0 0 170 0 0 170 0 0 170 0 0
