P3
29 154
255
170 0 0 0 0 170 0 170 0 0 170 0 0 170 0 0 170 0 0 0 170 0 170 170 0 170 170 0 170 170 0 170 170 0 170 170 0 0 170 85 255 255 170 0 0 170 0 0 0 0 170 170 0 0 170 0 0 170 0 0 170 0 0 0 170 170 0 170 170 0 170 170 0 170 170 0 170 170 170 0 0 0 0 170 0 170 0
0 0 0 170 0 0 0 0 170 0 170 0 0 170 0 0 170 0 0 170 0 0 0 170 0 170 170 0 170 170 0 170 170 0 170 170 0 170 170 0 0 170 85 255 255 170 0 0 170 0 0 0 0 170 170 0 0 170 0 0 170 0 0 170 0 0 0 170 170 0 170 170 0 170 170 0 170 170 0 170 170 170 0 0 0 0 170
0 170 0 0 0 0 170 0 0 0 0 170 0 170 0 0 170 0 0 170 0 0 170 0 0 0 170 0 170 170 0 170 170 0 170 170 0 170 170 0 170 170 0 0 170 85 255 255 170 0 0 170 0 0 0 0 170 170 0 0 170 0 0 170 0 0 170 0 0 0 170 170 0 170 170 0 170 170 0 170 170 0 170 170 170 0 0
0 0 170 0 170 0 0 0 0 170 0 0 0 0 170 0 170 0 0 170 0 0 170 0 0 170 0 0 0 170 0 0 170 0 0 170 0 0 170 0 0 170 0 0 170 0 0 170 85 255 255 170 0 0 170 0 0 0 0 170 170 0 0 170 0 0 170 0 0 170 0 0 0 170 170 0 170 170 0 170 170 0 170 170 0 170 170
170 0 0 0 0 170 0 170 0 0 0 0 170 0 0 0 0 170 0 170 0 0 170 0 0 170 0 0 0 170 0 170 0 0 0 170 0 170 0 0 170 0 0 170 0 0 170 0 0 170 0 0 0 170 170 0 0 170 0 0 0 0 170 170 0 0 170 0 0 170 0 0 170 0 0 0 170 170 0 170 170 0 170 170 0 170 170
0 170 170 170 0 0 0 0 170 0 170 0 0 0 0 170 0 0 0 0 170 0 170 0 0 170 0 0 0 170 0 170 0 0 170 0 0 0 170 0 170 0 0 170 170 0 170 170 0 170 170 0 170 170 0 0 170 0 0 170 170 0 0 0 0 170 170 0 0 170 0 0 170 0 0 170 0 0 0 170 170 0 170 170 0 170 170
0 170 170 0 170 170 170 0 0 0 0 170 0 170 0 0 0 0 170 0 0 0 0 170 0 170 0 0 0 170 0 170 0 0 170 0 0 170 0 0 0 170 0 170 0 0 170 170 0 170 170 0 170 170 0 170 170 0 0 170 85 255 255 0 0 170 0 0 170 170 0 0 170 0 0 170 0 0 170 0 0 0 170 170 0 170 170
0 170 170 0 170 170 0 170 170 170 0 0 0 0 170 0 170 0 0 0 0 0 0 170 0 0 170 0 0 170 0 170 0 0 170 0 0 170 0 0 170 0 0 0 170 0 170 0 0 170 170 0 170 170 0 170 170 0 170 170 0 0 170 85 255 255 170 0 0 0 0 170 0 0 170 170 0 0 170 0 0 170 0 0 0 170 170
0 170 170 0 170 170 0 170 170 0 170 170 170 0 0 0 0 170 0 170 0 0 0 0 0 170 170 0 170 0 0 170 0 0 170 0 0 170 0 0 170 0 0 0 170 0 0 170 0 0 170 0 0 170 0 0 170 0 0 170 0 0 170 170 0 0 85 255 255 170 0 0 170 0 0 0 0 170 170 0 0 170 0 0 170 0 0
0 170 170 0 170 170 0 170 170 0 170 170 0 170 170 170 0 0 0 0 170 0 170 0 0 0 0 0 170 170 0 170 0 0 170 0 0 170 0 0 170 0 0 0 170 0 0 170 170 0 0 170 0 0 170 0 0 170 0 0 170 0 0 0 0 170 0 0 170 170 0 0 170 0 0 170 0 0 0 0 170 170 0 0 170 0 0
170 0 0 0 170 170 0 170 170 0 170 170 0 170 170 0 170 170 170 0 0 0 0 170 0 170 0 0 0 0 0 170 170 0 170 0 0 170 0 0 170 0 0 0 170 0 170 170 0 0 170 170 0 0 170 0 0 170 0 0 170 0 0 170 0 0 0 0 170 0 0 170 0 0 170 170 0 0 170 0 0 0 0 170 170 0 0
170 0 0 170 0 0 0 170 170 0 170 170 0 170 170 0 170 170 0 170 170 170 0 0 0 0 170 0 170 0 0 0 0 0 170 170 0 170 0 0 170 0 0 0 170 0 170 170 0 170 170 0 0 170 0 170 170 0 170 170 0 170 170 0 170 170 0 170 170 0 0 170 0 0 170 0 0 170 0 0 170 170 0 0 0 0 170
170 0 0 170 0 0 170 0 0 0 170 170 0 170 170 0 170 170 0 170 170 0 170 170 170 0 0 0 0 170 0 170 0 0 0 0 0 0 170 0 0 170 0 0 170 0 170 170 0 170 170 0 170 0 0 0 170 0 170 170 0 170 170 0 170 170 0 170 170 0 170 170 0 0 170 85 255 255 0 0 170 0 0 170 0 0 170
0 0 170 170 0 0 170 0 0 170 0 0 0 170 170 0 170 170 0 170 170 0 170 170 0 170 170 170 0 0 0 0 170 0 170 0 0 0 0 170 0 0 0 0 170 0 170 170 0 170 170 0 170 0 0 170 0 0 0 170 0 170 170 0 170 170 0 170 170 0 170 170 0 170 170 0 0 170 85 255 255 170 0 0 0 0 170
0 0 170 0 0 170 170 0 0 170 0 0 170 0 0 170 0 0 0 170 170 0 170 170 0 170 170 0 170 170 170 0 0 0 0 170 0 170 0 0 0 0 170 0 0 0 0 170 0 170 170 0 170 0 0 170 0 0 170 0 0 0 170 0 170 170 0 170 170 0 170 170 0 170 170 0 170 170 0 0 170 85 255 255 170 0 0
170 0 0 0 0 170 170 0 0 170 0 0 170 0 0 170 0 0 170 0 0 0 170 170 0 170 170 0 170 170 0 170 170 170 0 0 0 0 170 0 170 0 0 0 0 0 170 170 0 0 170 0 170 0 0 170 0 0 170 0 0 170 0 0 0 170 0 170 170 0 170 170 0 170 170 0 170 170 0 170 170 0 0 170 85 255 255
170 0 0 170 0 0 0 0 170 170 0 0 170 0 0 170 0 0 170 0 0 170 0 0 0 170 170 0 170 170 0 170 170 0 170 170 170 0 0 0 0 170 0 170 0 0 0 0 0 170 170 0 0 170 0 170 0 0 170 0 0 170 0 0 170 0 0 0 170 0 170 170 0 170 170 0 170 170 0 170 170 0 170 170 0 0 170
85 255 255 170 0 0 170 0 0 0 0 170 170 0 0 170 0 0 170 0 0 170 0 0 170 0 0 0 170 170 0 170 170 0 170 170 0 170 170 170 0 0 0 0 170 0 170 0 0 0 0 0 170 170 0 0 170 0 170 0 0 170 0 0 170 0 0 170 0 0 0 170 0 170 170 0 170 170 0 170 170 0 170 170 0 170 170
0 0 170 85 255 255 170 0 0 170 0 0 0 0 170 170 0 0 170 0 0 170 0 0 170 0 0 170 0 0 170 0 0 170 0 0 170 0 0 170 0 0 170 0 0 0 0 170 0 170 0 0 0 0 0 0 170 0 0 170 0 170 0 0 170 0 0 170 0 0 170 0 0 0 170 0 170 170 0 170 170 0 170 170 0 170 170
0 170 170 0 0 170 85 255 255 170 0 0 170 0 0 0 0 170 0 0 170 0 0 170 0 0 170 0 0 170 0 0 170 0 0 170 0 0 170 0 0 170 0 0 170 0 0 170 0 0 170 0 170 0 0 0 0 0 170 170 0 0 170 0 170 0 0 170 0 0 170 0 0 170 0 0 0 170 0 170 170 0 170 170 0 170 170
0 170 170 0 170 170 0 0 170 85 255 255 170 0 0 170 0 0 0 0 170 0 170 170 0 170 170 0 170 170 0 170 170 0 170 0 0 170 0 0 170 0 0 170 0 0 170 0 0 0 170 0 0 170 0 170 0 0 0 0 0 170 170 0 0 170 0 170 0 0 170 0 0 170 0 0 170 0 0 0 170 0 170 170 0 170 170
0 170 170 0 170 170 0 170 170 0 0 170 85 255 255 170 0 0 170 0 0 0 0 170 170 0 0 170 0 0 170 0 0 170 0 0 0 170 170 0 170 170 0 170 170 0 170 170 0 170 170 0 0 170 0 0 170 0 170 0 0 0 0 0 170 170 0 0 170 0 170 0 0 170 0 0 170 0 0 170 0 0 0 170 0 170 170
0 170 170 0 170 170 0 170 170 0 170 170 0 0 170 85 255 255 170 0 0 170 0 0 0 0 170 170 0 0 170 0 0 170 0 0 170 0 0 0 170 170 0 170 170 0 170 170 0 170 170 0 170 170 0 0 170 0 0 170 0 170 0 0 0 0 0 170 170 0 0 170 0 170 0 0 170 0 0 170 0 0 170 0 0 0 170
0 170 170 0 170 170 0 170 170 0 170 170 0 170 170 0 0 170 85 255 255 170 0 0 170 0 0 0 0 170 170 0 0 170 0 0 170 0 0 170 0 0 0 170 170 0 170 170 0 170 170 0 170 170 0 170 170 0 0 170 0 0 170 0 170 0 0 0 0 0 170 170 0 0 170 0 170 0 0 170 0 0 170 0 0 170 0
0 0 170 0 170 170 0 170 170 0 170 170 0 170 170 0 170 170 0 0 170 85 255 255 170 0 0 170 0 0 0 0 170 170 0 0 170 0 0 170 0 0 170 0 0 0 170 170 0 170 170 0 170 170 0 170 170 0 170 170 0 0 170 0 0 170 0 170 0 0 0 0 0 170 170 0 0 170 0 170 0 0 170 0 0 170 0
0 170 0 0 0 170 0 170 170 0 170 170 0 170 170 0 170 170 0 170 170 0 0 170 85 255 255 170 0 0 170 0 0 0 0 170 170 0 0 170 0 0 170 0 0 170 0 0 0 170 170 0 170 170 0 170 170 0 170 170 0 170 170 0 0 170 0 0 170 0 170 0 0 0 0 0 170 170 0 0 170 0 170 0 0 170 0
0 170 0 0 170 0 0 0 170 0 170 170 0 170 170 0 170 170 0 170 170 0 170 170 0 0 170 85 255 255 170 0 0 170 0 0 0 0 170 170 0 0 170 0 0 170 0 0 170 0 0 0 170 170 0 170 170 0 170 170 0 170 170 0 170 170 0 0 170 0 0 170 0 170 0 0 0 0 0 170 170 0 0 170 0 170 0
0 170 0 0 170 0 0 170 0 0 0 170 0 170 170 0 170 170 0 170 170 0 170 170 0 170 170 0 0 170 85 255 255 170 0 0 170 0 0 0 0 170 170 0 0 170 0 0 170 0 0 170 0 0 0 170 170 0 170 170 0 170 170 0 170 170 0 170 170 0 0 170 0 0 170 0 170 0 0 0 0 0 170 170 0 0 170
0 170 0 0 170 0 0 170 0 0 170 0 0 0 170 0 170 170 0 170 170 0 170 170 0 170 170 0 170 170 0 0 170 85 255 255 170 0 0 170 0 0 0 0 170 170 0 0 170 0 0 170 0 0 170 0 0 0 170 170 0 170 170 0 170 170 0 170 170 0 170 170 0 0 170 0 0 170 0 170 0 0 0 0 0 170 170
0 0 170 0 170 0 0 170 0 0 170 0 0 170 0 0 0 170 0 170 170 0 170 170 0 170 170 0 170 170 0 170 170 0 0 170 85 255 255 170 0 0 170 0 0 0 0 170 170 0 0 170 0 0 170 0 0 170 0 0 0 170 170 0 170 170 0 170 170 0 170 170 0 170 170 0 0 170 0 0 170 0 170 0 0 0 0
0 170 170 0 0 170 0 170 0 0 170 0 0 170 0 0 170 0 0 0 170 0 170 170 0 170 170 0 170 170 0 170 170 0 170 170 0 0 170 85 255 255 170 0 0 170 0 0 0 0 170 170 0 0 170 0 0 170 0 0 170 0 0 0 170 170 0 170 170 0 170 170 0 170 170 0 170 170 0 0 170 0 0 170 0 170 0
0 0 0 0 170 170 0 0 170 0 170 0 0 170 0 0 170 0 0 170 0 0 0 170 0 170 170 0 170 170 0 170 170 0 170 170 0 170 170 0 0 170 85 255 255 170 0 0 170 0 0 0 0 170 170 0 0 170 0 0 170 0 0 170 0 0 0 170 170 0 170 170 0 170 170 0 170 170 0 170 170 0 0 170 0 0 170
0 170 0 0 0 0 0 170 170 0 0 170 0 170 0 0 170 0 0 170 0 0 170 0 0 0 170 0 170 170 0 170 170 0 170 170 0 170 170 0 170 170 0 0 170 85 255 255 170 0 0 170 0 0 0 0 170 170 0 0 170 0 0 170 0 0 170 0 0 0 170 170 0 170 170 0 170 170 0 170 170 0 170 170 0 0 170
0 0 170 0 170 0 0 0 0 0 170 170 0 0 170 0 170 0 0 170 0 0 170 0 0 170 0 0 0 170 0 170 170 0 170 170 0 170 170 0 170 170 0 170 170 0 0 170 85 255 255 170 0 0 170 0 0 0 0 170 170 0 0 170 0 0 170 0 0 170 0 0 0 170 170 0 170 170 0 170 170 0 170 170 0 170 170
0 0 170 0 0 170 0 170 0 0 0 0 0 170 170 0 0 170 0 170 0 0 170 0 0 170 0 0 170 0 0 0 170 0 170 170 0 170 170 0 170 170 0 170 170 0 170 170 0 0 170 85 255 255 170 0 0 170 0 0 0 0 170 170 0 0 170 0 0 170 0 0 170 0 0 0 170 170 0 170 170 0 170 170 0 170 170
0 170 170 0 0 170 0 0 170 0 170 0 0 0 0 0 170 170 0 0 170 0 170 0 0 170 0 0 170 0 0 170 0 0 0 170 0 170 170 0 170 170 0 170 170 0 170 170 0 170 170 0 0 170 85 255 255 170 0 0 170 0 0 0 0 170 170 0 0 170 0 0 170 0 0 170 0 0 0 170 170 0 170 170 0 170 170
0 170 170 0 170 170 0 0 170 0 0 170 0 170 0 0 0 0 0 170 170 0 0 170 0 170 0 0 170 0 0 170 0 0 170 0 0 0 170 0 0 170 0 0 170 0 0 170 0 0 170 0 0 170 0 0 170 170 0 0 170 0 0 170 0 0 0 0 170 170 0 0 170 0 0 170 0 0 170 0 0 0 170 170 0 170 170
0 170 170 0 170 170 0 170 170 0 0 170 0 0 170 0 170 0 0 0 0 0 170 170 0 0 170 0 170 0 0 170 0 0 170 0 0 0 170 170 0 0 170 0 0 170 0 0 170 0 0 170 0 0 170 0 0 170 0 0 0 0 170 170 0 0 170 0 0 0 0 170 170 0 0 170 0 0 170 0 0 170 0 0 0 170 170
0 170 170 0 170 170 0 170 170 0 170 170 0 0 170 0 0 170 0 170 0 0 0 0 0 170 170 0 0 170 0 170 0 0 170 0 0 0 170 170 0 0 170 0 0 170 0 0 0 0 170 0 0 170 0 0 170 170 0 0 170 0 0 170 0 0 0 0 170 170 0 0 0 0 170 170 0 0 170 0 0 170 0 0 170 0 0
0 170 170 0 170 170 0 170 170 0 170 170 0 170 170 0 0 170 0 0 170 0 170 0 0 0 0 0 170 170 0 0 170 0 170 0 0 0 170 170 0 0 170 0 0 170 0 0 0 0 170 0 170 170 0 170 170 0 0 170 170 0 0 170 0 0 170 0 0 170 0 0 0 0 170 0 0 170 170 0 0 170 0 0 170 0 0
170 0 0 0 170 170 0 170 170 0 170 170 0 170 170 0 170 170 0 0 170 0 0 170 0 170 0 0 0 0 0 170 170 0 0 170 0 0 170 0 0 170 0 0 170 0 0 170 0 0 170 0 0 170 0 170 170 0 170 170 0 0 170 0 0 170 0 0 170 0 0 170 0 0 170 0 0 170 0 0 170 170 0 0 170 0 0
170 0 0 170 0 0 0 170 170 0 170 170 0 170 170 0 170 170 0 170 170 0 0 170 0 0 170 0 170 0 0 0 0 0 170 170 170 0 0 170 0 0 170 0 0 170 0 0 170 0 0 170 0 0 0 0 170 0 170 170 0 170 170 0 0 170 170 0 0 170 0 0 170 0 0 170 0 0 170 0 0 170 0 0 170 0 0
170 0 0 170 0 0 170 0 0 0 170 170 0 170 170 0 170 170 0 170 170 0 170 170 0 0 170 0 0 170 0 170 0 0 0 0 0 170 170 0 170 170 0 170 170 170 0 0 170 0 0 170 0 0 170 0 0 0 0 170 0 170 170 0 170 170 0 0 170 170 0 0 170 0 0 170 0 0 170 0 0 170 0 0 170 0 0
170 0 0 170 0 0 170 0 0 170 0 0 0 170 170 0 170 170 0 170 170 0 170 170 0 170 170 0 0 170 0 0 170 0 170 0 0 0 0 0 170 170 0 170 170 0 170 170 0 170 170 0 170 170 170 0 0 170 0 0 0 0 170 0 170 170 0 170 170 0 0 170 170 0 0 170 0 0 170 0 0 170 0 0 170 0 0
170 0 0 170 0 0 170 0 0 170 0 0 170 0 0 0 170 170 0 170 170 0 170 170 0 170 170 0 170 170 0 0 170 0 0 170 0 170 0 0 0 0 0 170 170 0 170 170 0 170 170 0 170 170 0 170 170 0 170 170 0 170 170 0 0 170 0 170 0 0 170 170 0 0 170 170 0 0 170 0 0 170 0 0 170 0 0
170 0 0 170 0 0 170 0 0 170 0 0 170 0 0 170 0 0 0 170 170 0 170 170 0 170 170 0 170 170 0 170 170 0 0 170 0 0 170 0 170 0 0 0 0 0 170 170 0 170 170 0 170 170 0 170 170 0 170 170 0 170 170 0 170 170 0 0 170 0 170 0 0 170 170 0 0 170 170 0 0 170 0 0 170 0 0
170 0 0 170 0 0 170 0 0 170 0 0 170 0 0 170 0 0 170 0 0 0 170 170 0 170 170 0 170 170 0 170 170 0 170 170 0 0 170 0 0 170 0 170 0 0 0 0 0 170 170 0 170 170 0 170 170 0 170 170 0 170 170 0 170 170 0 170 170 0 0 170 0 170 0 0 170 0 0 0 170 170 0 0 170 0 0
0 170 170 0 170 170 0 170 170 0 170 170 0 170 170 0 170 170 0 170 170 0 170 170 0 170 170 0 170 170 0 170 170 0 170 170 0 170 170 0 0 170 0 0 170 0 170 0 0 0 0 0 0 170 0 0 170 0 0 170 0 0 170 0 0 170 0 0 170 0 0 170 0 0 170 0 170 0 0 170 0 0 0 170 0 0 170
0 0 170 0 0 170 0 0 170 0 0 170 0 0 170 0 0 170 0 0 170 0 0 170 0 0 170 0 0 170 0 0 170 0 0 170 0 170 170 0 170 170 0 0 170 0 0 170 0 170 0 0 0 0 0 0 170 0 0 170 0 0 170 0 0 170 0 0 170 0 0 170 0 0 170 0 0 170 0 170 0 0 170 0 0 0 170
0 0 170 0 0 170 0 0 170 0 0 170 0 0 170 0 0 170 0 0 170 0 0 170 0 0 170 0 0 170 0 0 170 0 0 170 0 0 170 0 170 170 0 170 170 0 0 170 0 0 170 0 170 0 0 0 0 0 170 0 0 170 0 0 170 0 0 170 0 0 170 0 0 170 0 0 170 0 0 0 170 0 170 0 0 170 0
0 0 170 0 170 170 0 170 170 0 170 0 0 170 0 0 170 0 0 170 0 0 170 0 0 170 0 0 170 0 0 170 0 0 0 170 0 0 170 0 0 170 0 170 170 0 170 170 0 0 170 0 0 170 0 170 0 0 0 0 0 170 0 0 170 0 0 170 0 0 170 0 0 170 0 0 170 0 0 170 0 0 0 170 0 0 170
0 0 170 0 0 170 0 170 170 0 170 0 0 170 0 0 170 0 0 170 0 0 170 0 0 170 0 0 170 0 0 170 0 0 0 170 170 0 0 0 0 170 0 0 170 0 170 170 0 170 170 0 0 170 0 0 170 0 170 0 0 0 0 0 170 0 0 170 0 0 170 0 0 170 0 0 170 0 0 170 0 0 170 0 0 170 0
0 170 0 0 170 0 0 170 0 0 170 0 0 170 0 0 170 0 0 170 0 0 170 0 0 170 0 0 170 0 0 170 0 0 0 170 170 0 0 170 0 0 0 0 170 0 0 170 170 0 0 0 170 170 0 0 170 0 0 170 0 170 0 0 0 0 0 0 170 0 0 170 0 0 170 0 0 170 0 0 170 0 0 170 0 0 170
0 0 170 0 0 170 0 0 170 0 0 170 0 0 170 0 0 170 0 0 170 0 0 170 0 0 170 0 0 170 0 0 170 0 0 170 85 255 255 170 0 0 170 0 0 0 0 170 0 0 170 170 0 0 170 0 0 0 0 170 0 0 170 0 170 0 0 0 0 0 170 170 0 170 170 0 170 170 0 170 170 0 170 170 0 170 170
0 170 170 0 170 170 0 170 170 0 170 170 0 170 170 0 170 170 0 170 170 0 170 170 0 170 170 0 170 170 0 170 170 0 170 170 0 0 170 85 255 255 170 0 0 170 0 0 0 0 170 0 0 170 170 0 0 170 0 0 0 0 170 0 0 170 0 170 0 0 0 0 0 170 170 0 170 170 0 170 170 0 170 170 0 170 170
0 170 170 0 170 170 0 170 170 0 170 170 0 170 170 0 170 170 0 170 170 0 170 170 0 170 170 0 170 170 0 170 170 0 170 170 0 170 170 0 0 170 85 255 255 170 0 0 170 0 0 0 0 170 0 0 170 170 0 0 170 0 0 0 0 170 0 0 170 0 170 0 0 0 0 0 170 170 0 0 170 0 0 170 0 0 170
0 0 170 0 0 170 0 0 170 0 0 170 0 0 170 0 0 170 0 0 170 0 0 170 0 170 170 0 170 170 0 170 170 0 170 170 0 170 170 0 170 170 0 0 170 85 255 255 170 0 0 170 0 0 0 0 170 0 0 170 170 0 0 170 0 0 0 0 170 0 0 170 0 170 170 0 0 0 0 170 170 0 0 170 0 170 0
0 170 0 0 170 0 0 170 0 0 170 0 0 170 0 0 170 0 0 170 0 0 170 0 0 0 170 170 0 0 0 170 170 0 170 170 0 170 170 0 170 170 0 170 170 0 0 170 85 255 255 170 0 0 170 0 0 0 0 170 0 0 170 170 0 0 170 0 0 0 0 170 0 0 170 0 170 170 0 0 0 0 170 170 0 0 170
0 170 0 0 170 0 0 170 0 0 170 0 0 170 0 0 170 0 0 170 0 0 170 0 170 0 0 0 0 170 170 0 0 170 0 0 0 170 170 0 170 170 0 170 170 0 170 170 0 0 170 85 255 255 170 0 0 170 0 0 0 0 170 0 0 170 170 0 0 170 0 0 0 0 170 0 0 170 0 170 170 0 0 0 0 170 170
0 0 170 0 170 0 0 170 0 0 0 170 0 0 170 0 0 170 0 0 170 0 0 170 170 0 0 170 0 0 0 0 170 170 0 0 170 0 0 0 170 170 0 170 170 0 170 170 0 170 170 0 0 170 85 255 255 170 0 0 170 0 0 0 0 170 0 0 170 170 0 0 170 0 0 0 0 170 0 0 170 0 170 170 0 0 0
0 0 170 0 0 170 0 170 0 0 170 0 0 0 170 0 170 170 0 170 170 0 170 170 0 0 170 170 0 0 170 0 0 0 0 170 170 0 0 170 0 0 0 170 170 0 170 170 0 170 170 0 170 170 0 0 170 85 255 255 170 0 0 170 0 0 0 0 170 0 0 170 170 0 0 170 0 0 0 0 170 0 0 170 0 170 170
0 0 0 0 170 0 0 170 0 0 0 170 0 170 0 0 0 170 0 170 170 0 170 170 0 170 170 0 0 170 170 0 0 170 0 0 0 0 170 170 0 0 170 0 0 0 170 170 0 170 170 0 170 170 0 170 170 0 0 170 85 255 255 170 0 0 170 0 0 0 0 170 0 0 170 170 0 0 170 0 0 0 0 170 0 0 170
0 170 170 0 0 0 170 0 0 170 0 0 0 0 170 0 170 0 0 0 170 0 170 170 0 170 170 0 170 170 0 0 170 170 0 0 170 0 0 0 0 170 170 0 0 170 0 0 0 170 170 0 170 170 0 170 170 0 170 170 0 0 170 85 255 255 170 0 0 170 0 0 0 0 170 0 0 170 170 0 0 170 0 0 0 0 170
0 0 170 0 170 170 0 0 0 0 0 170 0 0 170 0 170 0 0 170 0 0 0 170 0 170 170 0 170 170 0 170 170 0 0 170 170 0 0 170 0 0 0 0 170 170 0 0 170 0 0 0 170 170 0 170 170 0 170 170 0 170 170 0 0 170 85 255 255 170 0 0 170 0 0 0 0 170 0 0 170 170 0 0 170 0 0
0 0 170 0 0 170 0 170 170 0 0 0 0 170 170 0 0 170 0 170 0 0 170 0 0 0 170 0 0 170 0 0 170 0 0 170 0 0 170 170 0 0 170 0 0 0 0 170 0 0 170 170 0 0 0 170 170 0 170 170 0 170 170 0 170 170 0 0 170 85 255 255 170 0 0 170 0 0 0 0 170 0 0 170 170 0 0
170 0 0 0 0 170 0 0 170 0 170 170 0 0 0 0 170 170 0 0 170 0 170 0 170 0 0 170 0 0 170 0 0 170 0 0 170 0 0 170 0 0 170 0 0 170 0 0 0 0 170 170 0 0 170 0 0 0 170 170 0 170 170 0 170 170 0 170 170 0 0 170 85 255 255 170 0 0 170 0 0 0 0 170 0 0 170
170 0 0 170 0 0 0 0 170 0 0 170 0 170 170 0 0 0 0 170 170 0 0 170 0 0 170 0 0 170 0 0 170 0 0 170 0 0 170 0 0 170 0 0 170 0 0 170 0 0 170 0 0 170 170 0 0 170 0 0 0 170 170 0 170 170 0 170 170 0 170 170 0 0 170 85 255 255 170 0 0 170 0 0 0 0 170
0 0 170 170 0 0 170 0 0 0 0 170 0 0 170 0 170 170 0 0 0 0 170 170 0 170 170 0 170 170 0 170 170 0 0 170 0 170 170 170 0 0 170 0 0 0 0 170 170 0 0 170 0 0 170 0 0 170 0 0 170 0 0 0 170 170 0 170 170 0 170 170 0 170 170 0 0 170 85 255 255 170 0 0 170 0 0
0 0 170 0 0 170 170 0 0 170 0 0 0 0 170 0 0 170 0 170 170 0 0 0 0 0 170 0 0 170 0 0 170 0 0 170 0 0 170 0 170 0 170 0 0 170 0 0 0 0 170 0 0 170 0 0 170 0 0 170 0 0 170 0 0 170 0 0 170 0 0 170 0 0 170 0 0 170 0 0 170 0 0 170 170 0 0
170 0 0 0 0 170 0 0 170 170 0 0 170 0 0 0 0 170 0 0 170 0 170 170 0 0 0 170 0 0 170 0 0 170 0 0 170 0 0 0 0 170 0 170 0 0 170 170 170 0 0 0 0 170 170 0 0 170 0 0 170 0 0 170 0 0 170 0 0 170 0 0 170 0 0 170 0 0 170 0 0 170 0 0 0 0 170
0 0 170 0 0 170 0 0 170 0 0 170 170 0 0 170 0 0 0 0 170 0 0 170 0 170 170 0 0 0 170 0 0 170 0 0 170 0 0 170 0 0 0 0 170 0 170 0 0 170 170 0 170 170 0 0 170 0 0 170 170 0 0 170 0 0 170 0 0 170 0 0 170 0 0 170 0 0 170 0 0 170 0 0 170 0 0
170 0 0 170 0 0 0 0 170 0 0 170 0 0 170 170 0 0 170 0 0 0 0 170 0 0 170 0 170 170 0 0 0 0 0 170 0 0 170 0 0 170 0 0 170 0 0 170 0 170 0 0 170 0 0 170 170 0 0 170 0 0 170 0 0 170 0 0 170 0 0 170 0 0 170 0 0 170 0 0 170 0 0 170 0 0 170
0 0 170 0 0 170 0 0 170 0 0 170 0 0 170 0 0 170 170 0 0 170 0 0 0 0 170 0 0 170 0 170 170 0 0 0 0 0 170 0 0 170 0 0 170 0 0 170 0 0 170 0 0 170 0 170 170 0 170 170 0 170 170 0 0 170 0 0 170 0 0 170 0 0 170 0 0 170 0 0 170 0 0 170 0 0 170
0 0 170 0 0 170 0 0 170 0 0 170 0 0 170 0 0 170 0 0 170 170 0 0 170 0 0 0 0 170 0 0 170 0 170 170 0 0 0 170 0 0 170 0 0 170 0 0 170 0 0 170 0 0 170 0 0 0 0 170 0 170 170 0 170 170 0 170 170 0 0 170 0 0 170 170 0 0 170 0 0 170 0 0 170 0 0
170 0 0 170 0 0 170 0 0 170 0 0 170 0 0 170 0 0 170 0 0 170 0 0 170 0 0 170 0 0 0 0 170 0 0 170 0 170 170 0 0 0 170 0 0 170 0 0 170 0 0 170 0 0 170 0 0 170 0 0 0 0 170 0 0 170 170 0 0 170 0 0 170 0 0 0 0 170 170 0 0 170 0 0 170 0 0
170 0 0 170 0 0 170 0 0 170 0 0 170 0 0 170 0 0 170 0 0 170 0 0 170 0 0 170 0 0 170 0 0 0 0 170 0 0 170 0 170 170 0 0 0 0 170 170 0 170 170 0 170 170 0 170 170 0 170 170 0 170 170 0 0 170 0 0 170 0 0 170 0 0 170 0 0 170 0 0 170 0 170 170 0 170 170
0 170 170 0 170 170 0 170 170 0 170 170 0 170 170 0 170 170 0 170 170 0 170 170 0 170 170 0 170 170 0 170 170 0 170 170 0 0 170 0 0 170 0 170 0 0 0 0 0 170 170 0 170 170 0 170 170 0 170 170 0 170 170 0 170 170 0 170 170 0 170 170 0 170 170 0 170 170 0 170 170 0 170 170 0 170 170
0 170 170 0 170 170 0 170 170 0 170 170 0 170 170 0 170 170 0 170 170 0 170 170 0 170 170 0 170 170 0 170 170 0 170 170 0 170 170 0 0 170 0 0 170 0 170 0 0 0 0 0 170 170 0 170 170 0 170 170 0 170 170 0 170 170 0 170 170 0 170 170 0 170 170 0 170 170 0 170 170 0 170 170 0 170 170
0 170 170 0 170 170 0 170 170 0 170 170 0 170 170 0 170 170 0 170 170 0 170 170 0 170 170 0 170 170 0 170 170 0 170 170 0 170 170 0 170 170 0 0 170 0 0 170 0 170 0 0 0 0 0 170 170 0 170 170 0 170 170 0 170 170 0 170 170 0 170 170 0 170 170 0 170 170 0 170 170 0 170 170 0 170 170
0 170 170 0 170 170 0 170 170 0 170 170 0 170 170 0 170 170 0 170 170 0 170 170 0 170 170 0 170 170 0 170 170 0 170 170 0 170 170 0 170 170 0 170 170 0 0 170 0 0 170 0 170 0 0 0 0 0 170 170 0 170 170 0 170 170 0 170 170 0 170 170 0 170 170 0 170 170 0 170 170 0 170 170 0 170 170
0 170 170 0 170 170 0 170 170 0 170 170 0 170 170 0 170 170 0 170 170 0 170 170 0 170 170 0 170 170 0 170 170 0 170 170 0 170 170 0 170 170 0 170 170 0 170 170 0 0 170 0 0 170 0 170 0 0 0 0 0 170 170 0 170 170 0 170 170 0 170 170 0 170 170 0 170 170 0 170 170 0 170 170 0 170 170
0 170 170 0 170 170 0 170 170 0 170 170 0 170 170 0 170 170 0 170 170 0 170 170 0 170 170 0 170 170 0 170 170 0 170 170 0 170 170 0 170 170 0 170 170 0 170 170 0 170 170 0 0 170 0 0 170 0 170 0 0 0 0 0 170 170 0 170 170 0 170 170 0 170 170 0 170 170 0 170 170 0 170 170 0 170 170
0 170 170 0 170 170 0 170 170 0 170 170 0 170 170 0 170 170 0 170 170 0 170 170 0 170 170 0 170 170 0 170 170 0 170 170 0 170 170 0 170 170 0 170 170 0 170 170 0 170 170 0 170 170 0 0 170 0 0 170 0 170 0 0 0 0 0 170 170 0 170 170 0 170 170 0 170 170 0 170 170 0 170 170 0 170 170
0 170 170 0 170 170 0 170 170 0 170 170 0 170 170 0 170 170 0 170 170 0 170 170 0 170 170 0 170 170 0 170 170 0 170 170 0 170 170 0 170 170 0 170 170 0 170 170 0 170 170 0 170 170 0 170 170 0 0 170 0 0 170 0 170 0 0 0 0 0 170 170 0 170 170 0 170 170 0 170 170 0 170 170 0 170 170
0 170 170 0 170 170 0 170 170 0 170 170 0 170 170 0 170 170 0 170 170 0 170 170 0 170 170 0 170 170 0 170 170 0 170 170 0 170 170 0 170 170 0 170 170 0 170 170 0 170 170 0 170 170 0 170 170 0 170 170 0 0 170 0 0 170 0 170 0 0 0 0 0 170 170 0 170 170 0 170 170 0 170 170 0 170 170
0 170 170 0 170 170 0 170 170 0 170 170 0 170 170 0 170 170 0 170 170 0 170 170 0 170 170 0 170 170 0 170 170 0 170 170 0 170 170 0 170 170 0 170 170 0 170 170 0 170 170 0 170 170 0 170 170 0 170 170 0 170 170 0 0 170 0 0 170 0 170 0 0 0 0 170 0 0 170 0 0 170 0 0 170 0 0
170 0 0 170 0 0 170 0 0 170 0 0 170 0 0 170 0 0 170 0 0 170 0 0 170 0 0 170 0 0 170 0 0 170 0 0 170 0 0 170 0 0 170 0 0 170 0 0 170 0 0 170 0 0 170 0 0 170 0 0 170 0 0 170 0 0 0 0 170 0 0 170 0 170 0 0 0 0 0 0 170 0 0 170 0 0 170
0 0 170 0 0 170 0 0 170 0 0 170 0 0 170 0 0 170 0 0 170 0 0 170 0 0 170 0 0 170 0 0 170 0 0 170 0 0 170 0 0 170 0 0 170 0 0 170 0 0 170 0 0 170 0 0 170 0 0 170 0 0 170 0 0 170 0 0 170 0 0 170 0 0 170 0 170 0 0 0 0 170 0 0 170 0 0
170 0 0 170 0 0 170 0 0 170 0 0 170 0 0 170 0 0 170 0 0 170 0 0 170 0 0 170 0 0 170 0 0 170 0 0 170 0 0 170 0 0 170 0 0 170 0 0 170 0 0 170 0 0 0 170 170 0 170 170 0 170 170 0 170 170 170 0 0 0 0 170 0 170 170 0 0 170 0 170 0 0 0 0 170 0 0
0 0 170 0 0 170 0 0 170 0 0 170 0 0 170 0 0 170 0 0 170 0 0 170 0 0 170 0 0 170 0 0 170 0 0 170 0 0 170 0 0 170 0 0 170 0 0 170 170 0 0 170 0 0 170 0 0 0 170 170 0 170 170 0 170 170 0 170 170 170 0 0 0 0 170 0 170 170 0 0 170 0 170 0 0 0 0
170 0 0 0 0 170 0 0 170 0 170 0 0 170 0 0 170 0 0 170 0 0 170 0 0 170 0 0 170 0 0 170 0 0 170 0 0 170 0 0 170 0 0 170 0 0 170 0 0 0 170 170 0 0 170 0 0 170 0 0 0 170 170 0 170 170 0 170 170 0 170 170 170 0 0 0 0 170 0 170 170 0 0 170 0 170 0
0 0 0 170 0 0 0 0 170 0 170 0 0 0 170 0 170 0 0 170 0 0 170 0 0 170 0 0 170 0 0 170 0 0 170 0 0 170 0 0 170 0 0 170 0 0 170 0 0 0 170 0 0 170 170 0 0 170 0 0 170 0 0 0 170 170 0 170 170 0 170 170 0 170 170 170 0 0 0 0 170 0 170 170 0 0 170
0 170 0 0 0 0 170 0 0 0 0 170 0 170 0 0 170 0 0 0 170 0 170 0 0 170 0 0 170 0 0 170 0 0 170 0 0 170 0 0 170 0 0 170 0 0 170 0 0 0 170 170 0 0 0 0 170 170 0 0 170 0 0 170 0 0 0 170 170 0 170 170 0 170 170 0 170 170 170 0 0 0 0 170 0 170 170
0 0 170 0 170 0 0 0 0 170 0 0 0 0 170 0 170 0 0 170 0 0 170 0 0 0 170 0 170 0 0 170 0 0 170 0 0 170 0 0 170 0 0 170 0 0 170 0 0 0 170 170 0 0 170 0 0 0 0 170 170 0 0 170 0 0 170 0 0 0 170 170 0 170 170 0 170 170 0 170 170 170 0 0 0 0 170
0 170 170 0 0 170 0 170 0 0 0 0 170 0 0 0 0 170 0 170 0 0 170 0 0 170 0 0 170 0 0 0 170 0 0 170 0 0 170 0 0 170 0 0 170 0 0 170 0 0 170 170 0 0 170 0 0 170 0 0 0 0 170 170 0 0 170 0 0 170 0 0 0 170 170 0 170 170 0 170 170 0 170 170 170 0 0
0 0 170 0 170 170 0 0 170 0 170 0 0 0 0 170 0 0 0 0 170 0 170 0 0 170 0 0 170 0 0 170 0 0 0 170 0 170 170 0 170 170 0 170 170 0 170 170 0 170 170 0 0 170 85 255 255 170 0 0 170 0 0 0 0 170 170 0 0 170 0 0 170 0 0 0 170 170 0 170 170 0 170 170 0 170 170
170 0 0 0 0 170 0 170 170 0 0 170 0 170 0 0 0 0 170 0 0 0 0 170 0 170 0 0 170 0 0 170 0 0 170 0 0 0 170 0 170 170 0 170 170 0 170 170 0 170 170 0 170 170 0 0 170 85 255 255 170 0 0 170 0 0 0 0 170 170 0 0 170 0 0 170 0 0 0 170 170 0 170 170 0 170 170
0 170 170 170 0 0 0 0 170 0 170 170 0 0 170 0 170 0 0 0 0 170 0 0 0 0 170 0 170 0 0 170 0 0 170 0 0 170 0 0 0 170 0 170 170 0 170 170 0 170 170 0 170 170 0 170 170 0 0 170 85 255 255 170 0 0 170 0 0 0 0 170 170 0 0 170 0 0 170 0 0 0 170 170 0 170 170
0 170 170 0 170 170 170 0 0 0 0 170 0 170 170 0 0 170 0 170 0 0 0 0 170 0 0 0 0 170 0 170 0 0 170 0 0 170 0 0 170 0 0 0 170 0 170 170 0 170 170 0 170 170 0 170 170 0 170 170 0 0 170 85 255 255 170 0 0 170 0 0 0 0 170 170 0 0 170 0 0 170 0 0 0 170 170
0 170 170 0 170 170 0 170 170 170 0 0 0 0 170 0 170 170 0 0 170 0 170 0 0 0 0 170 0 0 0 0 170 0 170 0 0 170 0 0 170 0 0 170 0 0 0 170 0 170 170 0 170 170 0 170 170 0 170 170 0 170 170 0 0 170 85 255 255 170 0 0 170 0 0 0 0 170 170 0 0 170 0 0 170 0 0
0 170 170 0 170 170 0 170 170 0 170 170 170 0 0 0 0 170 0 170 170 0 0 170 0 170 0 0 0 0 170 0 0 0 0 170 0 170 0 0 170 0 0 170 0 0 170 0 0 0 170 0 170 170 0 170 170 0 170 170 0 170 170 0 170 170 0 0 170 85 255 255 170 0 0 170 0 0 0 0 170 170 0 0 170 0 0
170 0 0 0 170 170 0 170 170 0 170 170 0 170 170 170 0 0 0 0 170 0 170 170 0 0 170 0 170 0 0 0 0 170 0 0 0 0 170 0 170 0 0 170 0 0 170 0 0 170 0 0 0 170 0 170 170 0 170 170 0 170 170 0 170 170 0 170 170 0 0 170 85 255 255 170 0 0 170 0 0 0 0 170 170 0 0
170 0 0 170 0 0 0 170 170 0 170 170 0 170 170 0 170 170 170 0 0 0 0 170 0 170 170 0 0 170 0 170 0 0 0 0 170 0 0 0 0 170 0 170 0 0 170 0 0 170 0 0 170 0 0 0 170 0 170 170 0 170 170 0 170 170 0 170 170 0 170 170 0 0 170 85 255 255 170 0 0 170 0 0 0 0 170
170 0 0 170 0 0 170 0 0 0 170 170 0 170 170 0 170 170 0 170 170 170 0 0 0 0 170 0 170 170 0 0 170 0 170 0 0 0 0 170 0 0 0 0 170 0 170 0 0 170 0 0 170 0 0 170 0 0 0 170 0 170 170 0 170 170 0 170 170 0 170 170 0 170 170 0 0 170 85 255 255 170 0 0 170 0 0
0 0 170 170 0 0 170 0 0 170 0 0 0 170 170 0 170 170 0 170 170 0 170 170 170 0 0 0 0 170 0 170 170 0 0 170 0 170 0 0 0 0 170 0 0 0 0 170 0 170 0 0 170 0 0 170 0 0 170 0 0 0 170 0 170 170 0 170 170 0 170 170 0 170 170 0 170 170 0 0 170 85 255 255 170 0 0
170 0 0 0 0 170 170 0 0 170 0 0 170 0 0 0 170 170 0 170 170 0 170 170 0 170 170 170 0 0 0 0 170 0 170 170 0 0 170 0 170 0 0 0 0 170 0 0 0 0 170 0 170 0 0 170 0 0 170 0 0 170 0 0 0 170 0 170 170 0 170 170 0 170 170 0 170 170 0 170 170 0 0 170 85 255 255
170 0 0 170 0 0 0 0 170 170 0 0 170 0 0 170 0 0 0 170 170 0 170 170 0 170 170 0 170 170 170 0 0 0 0 170 0 170 170 0 0 170 0 170 0 0 0 0 170 0 0 0 0 170 0 170 0 0 170 0 0 170 0 0 170 0 0 0 170 0 170 170 0 170 170 0 170 170 0 170 170 0 170 170 0 0 170
85 255 255 170 0 0 170 0 0 0 0 170 170 0 0 170 0 0 170 0 0 0 170 170 0 170 170 0 170 170 0 170 170 170 0 0 0 0 170 0 170 170 0 0 170 0 170 0 0 0 0 170 0 0 0 0 170 0 170 0 0 170 0 0 170 0 0 170 0 0 0 170 0 170 170 0 170 170 0 170 170 0 170 170 0 170 170
0 0 170 85 255 255 170 0 0 170 0 0 0 0 170 170 0 0 170 0 0 170 0 0 0 170 170 0 170 170 0 170 170 0 170 170 170 0 0 0 0 170 0 170 170 0 0 170 0 170 0 0 0 0 170 0 0 0 0 170 0 170 0 0 170 0 0 170 0 0 170 0 0 0 170 0 170 170 0 170 170 0 170 170 0 170 170
0 170 170 0 0 170 85 255 255 170 0 0 170 0 0 0 0 170 170 0 0 170 0 0 170 0 0 0 170 170 0 170 170 0 170 170 0 170 170 170 0 0 0 0 170 0 170 170 0 0 170 0 170 0 0 0 0 170 0 0 0 0 170 0 170 0 0 170 0 0 170 0 0 170 0 0 0 170 0 170 170 0 170 170 0 170 170
0 170 170 0 170 170 0 0 170 85 255 255 170 0 0 170 0 0 0 0 170 170 0 0 170 0 0 170 0 0 0 170 170 0 170 170 0 170 170 0 170 170 170 0 0 0 0 170 0 170 170 0 0 170 0 170 0 0 0 0 170 0 0 0 0 170 0 170 0 0 170 0 0 170 0 0 170 0 0 0 170 0 170 170 0 170 170
0 170 170 0 170 170 0 170 170 0 0 170 85 255 255 170 0 0 170 0 0 0 0 170 170 0 0 170 0 0 170 0 0 0 170 170 0 170 170 0 170 170 0 170 170 170 0 0 0 0 170 0 170 170 0 0 170 0 170 0 0 0 0 170 0 0 0 0 170 0 170 0 0 170 0 0 170 0 0 170 0 0 0 170 0 170 170
0 170 170 0 170 170 0 170 170 0 170 170 0 0 170 85 255 255 170 0 0 170 0 0 0 0 170 170 0 0 170 0 0 170 0 0 0 170 170 0 170 170 0 170 170 0 170 170 170 0 0 0 0 170 0 170 170 0 0 170 0 170 0 0 0 0 170 0 0 0 0 170 0 170 0 0 170 0 0 170 0 0 170 0 0 0 170
0 170 170 0 170 170 0 170 170 0 170 170 0 170 170 0 0 170 85 255 255 170 0 0 170 0 0 0 0 170 170 0 0 170 0 0 170 0 0 0 170 170 0 170 170 0 170 170 0 170 170 170 0 0 0 0 170 0 170 170 0 0 170 0 170 0 0 0 0 170 0 0 0 0 170 0 170 0 0 170 0 0 170 0 0 170 0
0 0 170 0 170 170 0 170 170 0 170 170 0 170 170 0 170 170 0 0 170 85 255 255 170 0 0 170 0 0 0 0 170 170 0 0 170 0 0 170 0 0 0 170 170 0 170 170 0 170 170 0 170 170 170 0 0 0 0 170 0 170 170 0 0 170 0 170 0 0 0 0 170 0 0 0 0 170 0 170 0 0 170 0 0 170 0
0 170 0 0 0 170 0 170 170 0 170 170 0 170 170 0 170 170 0 170 170 0 0 170 85 255 255 170 0 0 170 0 0 0 0 170 170 0 0 170 0 0 170 0 0 0 170 170 0 170 170 0 170 170 0 170 170 170 0 0 0 0 170 0 170 170 0 0 170 0 170 0 0 0 0 170 0 0 0 0 170 0 170 0 0 170 0
0 170 0 0 170 0 0 0 170 0 170 170 0 170 170 0 170 170 0 170 170 0 170 170 0 0 170 85 255 255 170 0 0 170 0 0 0 0 170 170 0 0 170 0 0 170 0 0 0 170 170 0 170 170 0 170 170 0 170 170 170 0 0 0 0 170 0 170 170 0 0 170 0 170 0 0 0 0 170 0 0 0 0 170 0 170 0
0 170 0 0 170 0 0 170 0 0 0 170 0 170 170 0 170 170 0 170 170 0 170 170 0 170 170 0 0 170 85 255 255 170 0 0 170 0 0 0 0 170 170 0 0 170 0 0 170 0 0 0 170 170 0 170 170 0 170 170 0 170 170 170 0 0 0 0 170 0 170 170 0 0 170 0 170 0 0 0 0 170 0 0 0 0 170
0 170 0 0 170 0 0 170 0 0 170 0 0 0 170 0 170 170 0 170 170 0 170 170 0 170 170 0 170 170 0 0 170 85 255 255 170 0 0 170 0 0 0 0 170 170 0 0 170 0 0 170 0 0 0 170 170 0 170 170 0 170 170 0 170 170 170 0 0 0 0 170 0 170 170 0 0 170 0 170 0 0 0 0 0 0 170
0 0 170 0 0 170 0 170 0 0 170 0 0 170 0 0 0 170 0 170 170 0 170 170 0 170 170 0 170 170 0 170 170 0 0 170 85 255 255 170 0 0 170 0 0 0 0 170 170 0 0 170 0 0 170 0 0 0 170 170 0 170 170 0 170 170 0 170 170 170 0 0 0 0 170 0 170 170 0 0 170 0 170 0 0 0 0
0 170 0 0 170 0 0 170 0 0 0 170 0 170 0 0 170 0 0 0 170 0 170 170 0 170 170 0 170 170 0 170 170 0 170 170 0 0 170 85 255 255 170 0 0 170 0 0 0 0 170 170 0 0 170 0 0 170 0 0 0 170 170 0 170 170 0 170 170 0 170 170 170 0 0 0 0 170 0 170 170 0 0 170 0 170 0
0 0 0 0 170 0 0 170 0 0 170 0 0 170 0 0 0 170 0 170 0 0 0 170 0 170 170 0 170 170 0 170 170 0 170 170 0 170 170 0 0 170 85 255 255 170 0 0 170 0 0 0 0 170 170 0 0 170 0 0 170 0 0 0 170 170 0 170 170 0 170 170 0 170 170 170 0 0 0 0 170 0 170 170 0 0 170
0 170 0 0 0 0 0 170 0 0 170 0 0 170 0 0 170 0 0 170 0 0 0 170 0 0 170 0 170 170 0 170 170 0 170 170 0 170 170 0 170 170 0 0 170 85 255 255 170 0 0 170 0 0 0 0 170 170 0 0 170 0 0 170 0 0 0 170 170 0 170 170 0 170 170 0 170 170 170 0 0 0 0 170 0 170 170
0 0 170 0 170 0 0 0 0 0 0 170 0 0 170 0 0 170 0 0 170 0 0 170 0 0 170 0 0 170 0 170 170 0 170 170 0 170 170 0 170 170 0 170 170 0 0 170 85 255 255 170 0 0 170 0 0 0 0 170 170 0 0 170 0 0 170 0 0 0 170 170 0 170 170 0 170 170 0 170 170 170 0 0 0 0 170
0 170 170 0 0 170 0 170 0 0 0 0 0 170 170 0 170 170 0 170 170 0 170 170 0 170 170 0 170 170 0 170 170 0 170 170 0 170 170 0 170 170 0 170 170 0 170 170 0 0 170 85 255 255 170 0 0 170 0 0 0 0 170 170 0 0 170 0 0 170 0 0 0 170 170 0 170 170 0 170 170 0 170 170 170 0 0
0 0 170 0 170 170 0 0 170 0 170 0 0 0 0 0 170 170 0 170 170 0 170 170 0 170 170 0 170 170 0 170 170 0 170 170 0 170 170 0 170 170 0 170 170 0 170 170 0 170 170 0 0 170 85 255 255 170 0 0 170 0 0 0 0 170 170 0 0 170 0 0 170 0 0 0 170 170 0 170 170 0 170 170 0 170 170
170 0 0 0 0 170 0 170 170 0 0 170 0 170 0 0 0 0 0 170 170 0 170 170 0 170 170 0 170 170 0 170 170 0 170 170 0 170 170 0 170 170 0 170 170 0 170 170 0 170 170 0 170 170 0 0 170 85 255 255 170 0 0 170 0 0 0 0 170 170 0 0 170 0 0 170 0 0 0 170 170 0 170 170 0 170 170
0 170 170 170 0 0 0 0 170 0 170 170 0 0 170 0 170 0 0 0 0 0 0 170 0 0 170 0 0 170 0 0 170 0 0 170 0 0 170 0 0 170 0 170 170 0 170 170 0 170 170 0 170 170 0 170 170 0 0 170 85 255 255 170 0 0 170 0 0 0 0 170 170 0 0 170 0 0 170 0 0 0 170 170 0 170 170
0 170 170 0 170 170 170 0 0 0 0 170 0 170 170 0 0 170 0 170 0 0 0 0 170 0 0 170 0 0 170 0 0 170 0 0 170 0 0 0 0 170 0 0 170 0 170 170 0 170 170 0 170 170 0 170 170 0 170 170 0 0 170 85 255 255 170 0 0 170 0 0 0 0 170 170 0 0 170 0 0 170 0 0 0 170 170
0 170 170 0 170 170 0 170 170 170 0 0 0 0 170 0 170 170 0 0 170 0 170 0 0 0 0 170 0 0 170 0 0 170 0 0 170 0 0 0 0 170 0 170 170 0 0 170 0 170 170 0 170 170 0 170 170 0 170 170 0 170 170 0 0 170 85 255 255 170 0 0 170 0 0 0 0 170 170 0 0 170 0 0 170 0 0
0 170 170 0 170 170 0 170 170 0 170 170 170 0 0 0 0 170 0 0 170 0 0 170 0 170 0 0 0 0 170 0 0 170 0 0 170 0 0 0 0 170 0 170 170 0 170 170 0 0 170 0 170 170 0 170 170 0 170 170 0 170 170 0 170 170 0 0 170 85 255 255 170 0 0 170 0 0 0 0 170 170 0 0 170 0 0
170 0 0 0 170 170 0 170 170 0 170 170 0 170 170 170 0 0 170 0 0 170 0 0 0 0 170 0 170 0 0 0 0 0 0 170 0 0 170 0 0 170 0 170 170 0 170 170 0 170 0 0 0 170 0 170 170 0 170 170 0 170 170 0 170 170 0 170 170 0 0 170 85 255 255 170 0 0 170 0 0 0 0 170 170 0 0
170 0 0 170 0 0 0 170 170 0 170 170 0 170 170 0 170 170 0 170 170 0 170 170 170 0 0 0 0 170 0 170 0 0 0 0 170 0 0 0 0 170 0 170 170 0 170 170 0 170 170 0 170 0 0 0 170 0 170 170 0 170 170 0 170 170 0 170 170 0 170 170 0 0 170 85 255 255 170 0 0 170 0 0 0 0 170
170 0 0 170 0 0 170 0 0 0 170 170 0 170 170 0 170 170 0 170 170 0 170 170 0 170 170 170 0 0 0 0 170 0 170 0 0 0 0 170 0 0 0 0 170 0 170 170 0 170 170 0 170 0 0 170 0 0 0 170 0 170 170 0 170 170 0 170 170 0 170 170 0 170 170 0 0 170 85 255 255 170 0 0 170 0 0
0 0 170 170 0 0 170 0 0 170 0 0 0 170 170 0 170 170 0 170 170 0 170 170 0 170 170 0 170 170 170 0 0 0 0 170 0 170 0 0 0 0 170 0 0 0 0 170 0 170 170 0 170 170 0 170 0 0 170 0 0 0 170 0 170 170 0 170 170 0 170 170 0 170 170 0 170 170 0 0 170 85 255 255 170 0 0
170 0 0 0 0 170 170 0 0 170 0 0 170 0 0 0 170 170 0 170 170 0 170 170 0 170 170 0 170 170 0 170 170 170 0 0 0 0 170 0 170 0 0 0 0 170 0 0 0 0 170 0 170 170 0 170 0 0 170 0 0 170 0 0 0 170 0 170 170 0 170 170 0 170 170 0 170 170 0 170 170 0 0 170 85 255 255
170 0 0 170 0 0 0 0 170 170 0 0 170 0 0 170 0 0 0 170 170 0 170 170 0 170 170 0 170 170 0 170 170 0 170 170 170 0 0 0 0 170 0 170 0 0 0 0 170 0 0 0 0 170 0 170 170 0 170 0 0 170 0 0 170 0 0 0 170 0 170 170 0 170 170 0 170 170 0 170 170 0 170 170 0 0 170
85 255 255 170 0 0 170 0 0 0 0 170 170 0 0 170 0 0 170 0 0 0 170 170 0 170 170 0 170 170 0 170 170 0 170 170 0 170 170 170 0 0 0 0 170 0 170 0 0 0 0 170 0 0 0 0 170 0 170 0 0 170 0 0 170 0 0 170 0 0 0 170 0 170 170 0 170 170 0 170 170 0 170 170 0 170 170
0 0 170 85 255 255 170 0 0 170 0 0 0 0 170 170 0 0 170 0 0 170 0 0 0 170 170 0 170 170 0 170 170 0 170 170 0 170 170 0 170 170 170 0 0 0 0 170 0 170 0 0 0 0 170 0 0 0 0 170 0 170 0 0 170 0 0 170 0 0 170 0 0 0 170 0 170 170 0 170 170 0 170 170 0 170 170
0 170 170 0 0 170 85 255 255 170 0 0 170 0 0 0 0 170 170 0 0 170 0 0 170 0 0 0 170 170 0 170 170 0 170 170 0 170 170 0 170 170 0 170 170 170 0 0 0 0 170 0 170 0 0 0 0 170 0 0 0 0 170 0 170 0 0 170 0 0 170 0 0 170 0 0 0 170 0 170 170 0 170 170 0 170 170
0 170 170 0 170 170 0 0 170 85 255 255 170 0 0 170 0 0 0 0 170 170 0 0 170 0 0 170 0 0 0 170 170 0 170 170 0 170 170 0 170 170 0 170 170 0 170 170 170 0 0 0 0 170 0 170 0 0 0 0 170 0 0 0 0 170 0 170 0 0 170 0 0 170 0 0 170 0 0 0 170 0 170 170 0 170 170
0 170 170 0 170 170 0 170 170 0 0 170 85 255 255 170 0 0 170 0 0 0 0 170 170 0 0 170 0 0 170 0 0 0 170 170 0 170 170 0 170 170 0 170 170 0 170 170 0 170 170 170 0 0 0 0 170 0 170 0 0 0 0 170 0 0 0 0 170 0 170 0 0 170 0 0 170 0 0 170 0 0 0 170 0 170 170
0 170 170 0 170 170 0 170 170 0 170 170 0 0 170 85 255 255 170 0 0 170 0 0 0 0 170 170 0 0 170 0 0 170 0 0 0 170 170 0 170 170 0 170 170 0 170 170 0 170 170 0 170 170 170 0 0 0 0 170 0 170 0 0 0 0 170 0 0 0 0 170 0 170 0 0 170 0 0 170 0 0 170 0 0 0 170
0 170 170 0 170 170 0 170 170 0 170 170 0 170 170 0 0 170 85 255 255 170 0 0 170 0 0 0 0 170 170 0 0 170 0 0 170 0 0 0 170 170 0 170 170 0 170 170 0 170 170 0 170 170 0 170 170 170 0 0 0 0 170 0 170 0 0 0 0 170 0 0 0 0 170 0 170 0 0 170 0 0 170 0 0 170 0
0 0 170 0 170 170 0 170 170 0 170 170 0 170 170 0 170 170 0 0 170 85 255 255 170 0 0 170 0 0 0 0 170 170 0 0 170 0 0 170 0 0 0 170 170 0 170 170 0 170 170 0 170 170 0 170 170 0 170 170 170 0 0 0 0 170 0 170 0 0 0 0 170 0 0 0 0 170 0 170 0 0 170 0 0 170 0
0 170 0 0 0 170 0 170 170 0 170 170 0 170 170 0 170 170 0 170 170 0 0 170 85 255 255 170 0 0 170 0 0 0 0 170 170 0 0 170 0 0 170 0 0 0 170 170 0 170 170 0 170 170 0 170 170 0 170 170 0 170 170 170 0 0 0 0 170 0 170 0 0 0 0 170 0 0 0 0 170 0 170 0 0 170 0
0 170 0 0 170 0 0 0 170 0 170 170 0 170 170 0 170 170 0 170 170 0 170 170 0 0 170 85 255 255 170 0 0 170 0 0 0 0 170 170 0 0 170 0 0 170 0 0 0 170 170 0 170 170 0 170 170 0 170 170 0 170 170 0 170 170 170 0 0 0 0 170 0 170 0 0 0 0 170 0 0 0 0 170 0 170 0
0 170 0 0 170 0 0 170 0 0 0 170 0 170 170 0 170 170 0 170 170 0 170 170 0 170 170 0 0 170 85 255 255 170 0 0 170 0 0 0 0 170 170 0 0 170 0 0 170 0 0 170 0 0 170 0 0 170 0 0 170 0 0 170 0 0 170 0 0 170 0 0 0 0 170 0 170 0 0 0 0 170 0 0 0 0 170
0 170 0 0 170 0 0 170 0 0 170 0 0 0 170 0 170 170 0 170 170 0 170 170 0 170 170 0 170 170 0 0 170 85 255 255 170 0 0 170 0 0 0 0 170 0 0 170 0 0 170 0 0 170 0 0 170 0 0 170 0 0 170 0 0 170 0 0 170 0 0 170 0 0 170 0 0 170 0 170 0 0 0 0 170 0 0
0 0 170 0 170 0 0 170 0 0 170 0 0 170 0 0 0 170 0 170 170 0 170 170 0 170 170 0 170 170 0 170 170 0 0 170 85 255 255 170 0 0 170 0 0 0 0 170 0 170 170 0 170 170 0 170 170 0 170 0 0 170 0 0 170 0 0 170 0 0 170 0 0 170 0 170 0 0 0 0 170 0 170 0 0 0 0
170 0 0 0 0 170 0 170 0 0 170 0 0 170 0 0 170 0 0 0 170 0 170 170 0 170 170 0 170 170 0 170 170 0 170 170 0 0 170 85 255 255 170 0 0 170 0 0 0 0 170 170 0 0 170 0 0 170 0 0 0 170 170 0 170 170 0 170 170 0 170 170 0 170 170 0 170 170 170 0 0 0 0 170 0 170 0
0 0 0 170 0 0 0 0 170 0 170 0 0 170 0 0 170 0 0 170 0 0 0 170 0 170 170 0 170 170 0 170 170 0 170 170 0 170 170 0 0 170 85 255 255 170 0 0 170 0 0 0 0 170 170 0 0 170 0 0 170 0 0 0 170 170 0 170 170 0 170 170 0 170 170 0 170 170 0 170 170 170 0 0 0 0 170
0 170 0 0 0 0 170 0 0 0 0 170 0 170 0 0 170 0 0 170 0 0 170 0 0 0 170 0 170 170 0 170 170 0 170 170 0 170 170 0 170 170 0 0 170 85 255 255 170 0 0 170 0 0 0 0 170 170 0 0 170 0 0 170 0 0 0 170 170 0 170 170 0 170 170 0 170 170 0 170 170 0 170 170 170 0 0
0 0 170 0 170 0 0 0 0 170 0 0 0 0 170 0 170 0 0 170 0 0 170 0 0 170 0 0 0 170 0 170 170 0 170 170 0 170 170 0 170 170 0 170 170 0 0 170 85 255 255 170 0 0 170 0 0 0 0 170 170 0 0 170 0 0 170 0 0 0 170 170 0 170 170 0 170 170 0 170 170 0 170 170 0 170 170
