P3
140 5
255
170 0 0 170 0 0 170 0 0 170 0 0 170 0 0 170 0 0 170 0 0 170 0 0 170 0 0 170 0 0 170 0 0 170 0 0 170 0 0 170 0 0 170 0 0 170 0 0 170 0 0 170 0 0 170 0 0 170 0 0 170 0 0 170 0 0 170 0 0 170 0 0 170 0 0 170 0 0 170 0 0 170 0 0 170 0 0 170 0 0 170 0 0 170 0 0 170 0 0 170 0 0 170 0 0 170 0 0 170 0 0 170 0 0 170 0 0 170 0 0 170 0 0 170 0 0 170 0 0 170 0 0 170 0 0 170 0 0 170 0 0 170 0 0 170 0 0 170 0 0 170 0 0 170 0 0 170 0 0 170 0 0 170 0 0 170 0 0 170 0 0 170 0 0 170 0 0 170 0 0 170 0 0 170 0 0 170 0 0 170 0 0 170 0 0 170 0 0 170 0 0 170 0 0 170 0 0 170 0 0 170 0 0 170 0 0 170 0 0 170 0 0 170 0 0 170 0 0 170 0 0 170 0 0 170 0 0 170 0 0 170 0 0 170 0 0 170 0 0 170 0 0 170 0 0 170 0 0 170 0 0 170 0 0 170 0 0 170 0 0 170 0 0 170 0 0 170 0 0 170 0 0 170 0 0 170 0 0 170 0 0 170 0 0 170 0 0 170 0 0 170 0 0 170 0 0 170 0 0 170 0 0 170 0 0 170 0 0 170 0 0 170 0 0 170 0 0 170 0 0 170 0 0 170 0 0 170 0 0 170 0 0 170 0 0 170 0 0 170 0 0 170 0 0 170 0 0 170 0 0 170 0 0 170 0 0 170 0 0 170 0 0 170 0 0 170 0 0 170 0 0 170 0 0 170 0 0 170 0 0 170 0 0 170 0 0 170 0 0 170 0 0 170 0 0 170 0 0 170 0 0 170 0 0 170 0 0 170 0 0
0 170 170 0 170 170 0 170 170 0 170 170 0 170 170 0 170 170 0 170 170 0 170 170 0 170 170 0 170 170 0 170 170 0 170 170 0 170 170 0 170 170 0 170 170 0 170 170 0 170 170 0 170 170 0 170 170 0 170 170 0 170 170 0 170 170 0 170 170 0 170 170 0 170 170 0 170 170 0 170 170 0 170 170 0 170 170 0 170 170 0 170 170 0 170 170 0 170 170 0 170 170 0 170 170 0 170 170 0 170 170 0 170 170 0 170 170 0 170 170 0 170 170 0 170 170 0 170 170 0 170 170 0 170 170 0 170 170 0 170 170 0 170 170 0 170 170 0 170 170 0 170 170 0 170 170 0 170 170 0 170 170 0 170 170 0 170 170 0 170 170 0 170 170 0 170 170 0 170 170 0 170 170 0 170 170 0 170 170 0 170 170 0 170 170 0 170 170 0 170 170 0 170 170 0 170 170 0 170 170 0 170 170 0 170 170 0 170 170 0 170 170 0 170 170 0 170 170 0 170 170 0 170 170 0 170 170 0 170 170 0 170 170 0 170 170 0 170 170 0 170 170 0 170 170 0 170 170 0 170 170 0 170 170 0 170 170 0 170 170 0 170 170 0 170 170 0 170 170 0 170 170 0 170 170 0 170 170 0 170 170 0 170 170 0 170 170 0 170 170 0 170 170 0 170 170 0 170 170 0 170 170 0 170 170 0 170 170 0 170 170 0 170 170 0 170 170 0 170 170 0 170 170 0 170 170 0 170 170 0 170 170 0 170 170 0 170 170 0 170 170 0 170 170 0 170 170 0 170 170 0 170 170 0 170 170 0 170 170 0 170 170 0 170 170 0 170 170 0 170 170 0 170 170 0 170 170 0 170 170 0 170 170 0 170 170 0 170 170 0 170 170 0 170 170 0 170 170 0 170 170 0 170 170 0 170 170 0 170 170
0 170 0 0 170 0 0 170 0 0 170 0 0 170 0 0 170 0 0 170 0 0 170 0 0 170 0 0 170 0 0 170 0 0 170 0 0 170 0 0 170 0 0 170 0 0 170 0 0 170 0 0 170 0 0 170 0 0 170 0 0 170 0 0 170 0 0 170 0 0 170 0 0 170 0 0 170 0 0 170 0 0 170 0 0 170 0 0 170 0 0 170 0 0 170 0 0 170 0 0 170 0 0 170 0 0 170 0 0 170 0 0 170 0 0 170 0 0 170 0 0 170 0 0 170 0 0 170 0 0 170 0 0 170 0 0 170 0 0 170 0 0 170 0 0 170 0 0 170 0 0 170 0 0 170 0 0 170 0 0 170 0 0 170 0 0 170 0 0 170 0 0 170 0 0 170 0 0 170 0 0 170 0 0 170 0 0 170 0 0 170 0 0 170 0 0 170 0 0 170 0 0 170 0 0 170 0 0 170 0 0 170 0 0 170 0 0 170 0 0 170 0 0 170 0 0 170 0 0 170 0 0 170 0 0 170 0 0 170 0 0 170 0 0 170 0 0 170 0 0 170 0 0 170 0 0 170 0 0 170 0 0 170 0 0 170 0 0 170 0 0 170 0 0 170 0 0 170 0 0 170 0 0 170 0 0 170 0 0 170 0 0 170 0 0 170 0 0 170 0 0 170 0 0 170 0 0 170 0 0 170 0 0 170 0 0 170 0 0 170 0 0 170 0 0 170 0 0 170 0 0 170 0 0 170 0 0 170 0 0 170 0 0 170 0 0 170 0 0 170 0 0 170 0 0 170 0 0 170 0 0 170 0 0 170 0 0 170 0 0 170 0 0 170 0 0 170 0 0 170 0 0 170 0 0 170 0 0 170 0 0 170 0 0 170 0 0 170 0 0 170 0 0 170 0 0 170 0 0 170 0 0 170 0 0 170 0 0 170 0
0 0 170 0 0 170 0 0 170 0 0 170 0 0 170 0 0 170 0 0 170 0 0 170 0 0 170 0 0 170 0 0 170 0 0 170 0 0 170 0 0 170 0 0 170 0 0 170 0 0 170 0 0 170 0 0 170 0 0 170 0 0 170 0 0 170 0 0 170 0 0 170 0 0 170 0 0 170 0 0 170 0 0 170 0 0 170 0 0 170 0 0 170 0 0 170 0 0 170 0 0 170 0 0 170 0 0 170 0 0 170 0 0 170 0 0 170 0 0 170 0 0 170 0 0 170 0 0 170 0 0 170 0 0 170 0 0 170 0 0 170 0 0 170 0 0 170 0 0 170 0 0 170 0 0 170 0 0 170 0 0 170 0 0 170 0 0 170 0 0 170 0 0 170 0 0 170 0 0 170 0 0 170 0 0 170 0 0 170 0 0 170 0 0 170 0 0 170 0 0 170 0 0 170 0 0 170 0 0 170 0 0 170 0 0 170 0 0 170 0 0 170 0 0 170 0 0 170 0 0 170 0 0 170 0 0 170 0 0 170 0 0 170 0 0 170 0 0 170 0 0 170 0 0 170 0 0 170 0 0 170 0 0 170 0 0 170 0 0 170 0 0 170 0 0 170 0 0 170 0 0 170 0 0 170 0 0 170 0 0 170 0 0 170 0 0 170 0 0 170 0 0 170 0 0 170 0 0 170 0 0 170 0 0 170 0 0 170 0 0 170 0 0 170 0 0 170 0 0 170 0 0 170 0 0 170 0 0 170 0 0 170 0 0 170 0 0 170 0 0 170 0 0 170 0 0 170 0 0 170 0 0 170 0 0 170 0 0 170 0 0 170 0 0 170 0 0 170 0 0 170 0 0 170 0 0 170 0 0 170 0 0 170 0 0 170 0 0 170 0 0 170 0 0 170 0 0 170 0 0 170 0 0 170 0 0 170 0 0 170
0 170 170 0 170 170 0 170 170 0 170 170 0 170 170 0 170 170 0 170 170 0 170 170 0 170 170 0 170 170 0 170 170 0 170 170 0 170 170 0 170 170 0 170 170 0 170 170 0 170 170 0 170 170 0 170 170 0 170 170 0 170 170 0 170 170 0 170 170 0 170 170 0 170 170 0 170 170 0 170 170 0 170 170 0 170 170 0 170 170 0 170 170 0 170 170 0 170 170 0 170 170 0 170 170 0 170 170 0 170 170 0 170 170 0 170 170 0 170 170 0 170 170 0 170 170 0 170 170 0 170 170 0 170 170 0 170 170 0 170 170 0 170 170 0 170 170 0 170 170 0 170 170 0 170 170 0 170 170 0 170 170 0 170 170 0 170 170 0 170 170 0 170 170 0 170 170 0 170 170 0 170 170 0 170 170 0 170 170 0 170 170 0 170 170 0 170 170 0 170 170 0 170 170 0 170 170 0 170 170 0 170 170 0 170 170 0 170 170 0 170 170 0 170 170 0 170 170 0 170 170 0 170 170 0 170 170 0 170 170 0 170 170 0 170 170 0 170 170 0 170 170 0 170 170 0 170 170 0 170 170 0 170 170 0 170 170 0 170 170 0 170 170 0 170 170 0 170 170 0 170 170 0 170 170 0 170 170 0 170 170 0 170 170 0 170 170 0 170 170 0 170 170 0 170 170 0 170 170 0 170 170 0 170 170 0 170 170 0 170 170 0 170 170 0 170 170 0 170 170 0 170 170 0 170 170 0 170 170 0 170 170 0 170 170 0 170 170 0 170 170 0 170 170 0 170 170 0 170 170 0 170 170 0 170 170 0 170 170 0 170 170 0 170 170 0 170 170 0 170 170 0 170 170 0 170 170 0 170 170 0 170 170 0 170 170 0 170 170 0 170 170 0 170 170 0 170 170 0 170 170 0 170 170 0 170 170 0 170 170
