P3
60 35
255
0 0 0 0 0 0 0 0 0 0 0 0 0 0 0 0 0 0 0 0 0 0 0 0 0 0 0 0 0 0 0 0 0 0 0 0 0 0 0 0 170 0 0 170 0 0 170 0 0 170 0 0 170 0 0 170 0 0 170 170 170 0 0 170 0 0 0 0 0 0 0 0 0 0 0 0 0 0 0 0 0 0 0 0 0 0 0 0 0 0 0 0 0 0 0 0 0 0 0 0 0 0 0 0 0 0 0 0 0 0 0 0 0 0 0 170 0 0 170 0 0 170 0 0 170 0 0 170 0 0 0 170 0 170 0 0 170 0 0 170 170 0 170 170 0 170 0 0 0 0 0 0 0 0 0 0 0 0 0 0 0 0 0 0 0 0 0 0 0 0 0 0 0 0 0 0 0 0 0 0
0 0 0 0 0 0 0 0 0 0 0 0 0 0 0 0 0 0 0 0 0 0 0 0 0 0 0 0 0 0 0 170 0 0 170 0 0 170 0 0 170 0 0 170 0 0 170 0 0 170 0 0 170 170 0 170 170 0 0 170 0 0 170 0 170 170 170 0 0 0 0 0 0 0 0 0 0 0 0 0 0 0 0 0 0 0 0 0 0 0 0 0 0 0 0 0 0 0 0 0 170 0 0 170 0 0 170 0 0 170 170 0 0 170 0 170 0 0 170 0 0 170 0 0 170 170 0 170 170 0 0 170 0 170 170 0 170 170 0 170 170 0 170 170 0 170 0 0 0 170 170 0 0 0 170 170 0 170 170 0 170 0 0 0 0 0 0 0 0 0 0 0 0 0 0 0 0 0 0 0
0 0 0 0 0 0 0 0 0 0 0 0 0 0 0 0 0 0 0 0 0 0 0 0 0 170 0 0 170 0 0 170 0 0 170 0 0 170 0 0 170 0 0 170 0 0 170 0 0 170 0 0 170 170 0 0 170 85 85 85 85 85 85 0 0 170 0 170 170 170 0 0 0 0 0 0 0 0 0 0 0 0 0 0 0 170 170 0 170 170 170 0 0 170 0 0 0 0 170 0 0 170 0 170 0 0 170 170 0 170 170 0 0 170 0 170 0 0 170 0 0 170 0 0 170 170 0 170 170 0 0 170 0 170 170 0 170 170 0 170 170 0 170 170 0 170 0 0 0 170 170 0 0 0 170 170 0 170 0 0 0 170 0 0 170 170 0 0 170 0 0 0 170 170 0 170 170 0 0 0
0 0 0 0 0 0 0 0 0 0 0 0 0 0 0 0 0 0 0 0 0 0 170 0 0 170 0 0 170 0 0 170 0 0 0 170 0 0 170 0 0 170 0 0 170 0 0 170 0 170 170 0 170 170 0 170 170 0 0 170 0 0 170 0 170 170 0 170 170 0 170 170 170 0 0 0 0 0 0 0 0 0 0 0 0 0 0 0 170 170 0 170 170 170 0 0 170 0 0 0 0 170 0 170 0 0 170 170 0 170 170 0 0 170 0 0 170 0 0 170 0 0 170 0 0 170 0 0 170 0 0 170 0 0 170 0 0 170 0 0 170 0 0 170 0 0 170 0 0 170 170 0 0 0 170 170 0 170 0 0 0 170 170 0 0 170 0 0 0 170 170 0 170 170 0 0 0 0 0 0
0 0 0 0 0 0 0 0 0 0 0 0 0 0 0 0 0 0 0 170 0 0 170 0 0 170 0 0 0 170 0 0 170 0 0 170 0 170 170 0 170 170 0 0 170 0 0 170 0 0 170 0 170 170 0 170 170 0 170 170 0 170 170 0 170 170 0 0 170 0 0 170 0 0 170 0 0 0 0 0 0 0 0 0 0 0 0 0 0 0 0 0 170 0 0 170 170 0 0 0 0 170 0 170 0 0 170 0 0 170 170 0 170 170 0 0 170 0 170 0 0 170 0 0 170 170 0 170 170 0 0 170 0 170 170 0 170 170 170 0 0 170 0 0 0 0 170 170 0 0 0 170 170 0 170 0 0 170 0 0 0 170 170 0 0 0 0 0 0 0 0 0 0 0 0 0 0 0 0 0
0 0 0 0 0 0 0 0 0 0 0 0 0 0 0 0 0 0 0 170 0 0 170 0 0 0 170 0 0 170 0 170 0 0 170 170 0 170 170 170 0 0 170 0 0 0 0 170 0 0 170 0 0 170 0 0 170 0 0 170 0 0 170 0 0 170 0 170 0 0 170 0 0 170 0 0 170 0 0 170 0 0 170 0 0 170 0 0 170 0 0 170 0 0 170 0 170 0 0 170 0 0 0 0 170 0 170 0 0 170 170 0 170 170 0 0 170 0 170 0 0 170 0 0 170 170 0 170 170 0 0 170 0 170 170 0 170 170 170 0 0 170 0 0 0 0 170 170 0 0 0 170 170 0 170 0 0 0 170 170 0 0 170 0 0 0 170 0 0 170 0 0 170 0 0 170 0 0 170 0
0 0 0 0 0 0 0 0 0 0 0 0 0 0 0 0 170 0 0 170 0 0 170 170 0 0 170 0 170 0 0 170 170 0 170 170 170 0 0 170 0 0 170 0 0 170 0 0 0 0 170 0 0 170 0 170 170 0 170 170 0 170 0 0 170 0 0 170 170 0 170 170 0 0 170 0 0 170 0 0 170 0 0 170 0 0 170 0 0 170 0 0 170 0 170 170 170 0 0 170 0 0 0 0 170 0 170 0 0 170 170 0 170 170 0 0 170 0 170 0 0 170 0 0 170 170 0 170 170 0 0 170 0 170 170 0 170 170 170 0 0 170 0 0 0 0 170 170 0 0 0 170 170 0 170 0 0 0 170 170 0 0 170 0 0 0 0 170 0 0 170 0 0 170 0 0 170 0 0 170
0 0 0 0 0 0 0 0 0 0 0 0 0 0 0 0 170 0 0 170 0 0 170 170 0 0 170 0 170 0 0 170 170 0 170 170 170 0 0 170 0 0 170 0 0 170 0 0 0 0 170 0 0 170 170 0 0 170 0 0 170 0 0 170 0 0 170 0 0 170 0 0 0 0 170 0 170 170 0 0 170 0 170 170 0 0 170 0 170 170 0 0 170 0 170 170 170 0 0 170 0 0 0 0 170 0 170 0 0 170 170 0 170 170 0 0 170 0 170 0 0 170 0 0 170 170 0 170 170 0 0 170 0 170 170 0 170 170 170 0 0 170 0 0 0 0 170 170 0 0 0 170 170 0 170 0 0 0 170 170 0 0 170 0 0 0 0 170 0 170 170 0 0 170 0 170 170 0 0 170
0 0 0 0 0 0 0 0 0 0 0 0 0 0 0 0 170 0 0 170 0 0 170 170 0 0 170 0 170 0 0 170 170 0 170 170 170 0 0 0 0 170 0 0 170 0 0 170 0 0 170 0 0 170 0 0 170 0 0 170 0 0 170 0 0 170 0 0 170 0 0 170 0 0 170 0 0 170 0 0 170 0 0 170 0 0 170 0 0 170 0 0 170 0 0 170 0 0 170 0 0 170 0 0 170 0 0 170 0 170 0 0 170 170 0 0 170 0 170 0 0 170 0 0 170 170 0 170 170 0 0 170 0 170 170 170 0 0 170 0 0 170 0 0 0 0 170 170 0 0 0 170 0 0 0 170 0 0 170 0 0 170 0 0 170 0 0 170 0 0 170 0 0 170 0 0 170 0 0 170
0 0 0 0 0 0 0 0 0 0 0 0 0 0 0 0 170 0 0 170 0 0 170 170 0 0 170 0 0 170 0 170 0 170 0 0 0 0 170 0 170 0 0 170 0 0 170 0 0 170 0 0 170 0 0 170 0 0 170 0 0 170 0 0 170 0 0 170 0 0 170 0 0 170 0 0 170 0 0 170 0 0 170 0 0 170 0 0 170 0 0 170 0 0 170 0 0 170 0 0 170 0 0 170 0 0 0 170 0 170 0 0 170 170 0 0 170 0 170 0 0 170 0 0 170 170 0 170 170 0 0 170 0 170 170 170 0 0 170 0 0 170 0 0 0 0 170 0 170 170 0 170 0 0 0 170 0 170 0 0 170 0 0 170 0 0 170 0 0 170 0 0 170 0 0 170 0 0 170 0
0 0 0 0 0 0 0 0 0 0 0 0 0 0 0 0 170 0 0 170 0 0 0 170 0 0 170 0 0 170 0 0 170 0 0 170 0 0 170 0 0 170 0 0 170 0 0 170 0 0 170 0 0 170 0 0 170 0 0 170 0 0 170 0 0 170 0 0 170 0 170 170 0 170 170 0 170 170 0 170 170 0 170 170 0 170 170 0 170 170 0 170 170 0 170 170 0 170 170 0 170 170 0 170 170 0 0 170 0 170 0 0 170 170 0 0 170 0 170 0 0 170 0 0 170 170 0 170 170 0 0 170 0 170 170 170 0 0 170 0 0 170 0 0 0 0 170 0 170 170 0 170 0 0 0 170 0 170 170 0 170 170 0 170 170 0 170 170 0 170 170 0 170 170 0 170 170 0 170 170
0 0 0 0 0 0 0 0 0 0 0 0 0 0 0 0 170 0 0 170 0 0 0 170 0 170 0 0 170 170 0 0 170 0 170 0 0 0 170 0 170 0 0 170 170 0 170 170 0 170 170 170 0 0 170 0 0 170 0 0 0 0 170 170 0 0 0 0 170 170 0 0 170 0 0 170 0 0 170 0 0 170 0 0 170 0 0 170 0 0 170 0 0 170 0 0 170 0 0 170 0 0 170 0 0 0 0 170 0 170 0 0 170 170 0 0 170 0 170 0 0 170 170 0 170 170 0 170 170 0 0 170 0 170 170 170 0 0 170 0 0 170 0 0 0 0 170 0 170 170 0 170 0 0 0 170 170 0 0 170 0 0 170 0 0 170 0 0 170 0 0 170 0 0 170 0 0 170 0 0
0 0 0 0 0 0 0 0 0 0 0 0 0 0 0 0 170 0 0 0 170 0 0 170 0 0 170 0 0 170 0 0 170 0 170 0 0 0 170 0 170 170 0 170 170 0 0 170 0 170 170 170 0 0 170 0 0 170 0 0 170 0 0 0 0 0 0 0 0 0 0 0 0 0 0 0 0 0 0 0 0 0 0 0 0 0 0 0 0 0 0 0 0 0 0 0 0 0 0 0 0 0 0 0 0 0 0 0 0 170 0 0 170 170 0 170 170 0 0 170 0 170 170 0 170 170 170 0 0 0 0 170 170 0 0 170 0 0 170 0 0 0 0 170 0 170 170 0 170 170 0 170 0 0 0 0 0 0 0 0 0 0 0 0 0 0 0 0 0 0 0 0 0 0 0 0 0 0 0 0
0 0 0 0 0 0 0 0 0 0 0 0 0 170 0 0 0 170 0 170 170 0 170 170 0 170 170 0 170 170 0 0 170 0 170 0 0 0 170 0 170 170 0 0 170 85 85 85 0 0 170 170 0 0 170 0 0 0 0 0 0 0 0 0 0 0 0 0 0 0 0 0 0 0 0 0 0 0 0 0 0 0 0 0 0 0 0 0 0 0 0 0 0 0 0 0 0 0 0 0 0 0 0 0 0 0 0 0 0 0 0 0 170 0 0 170 0 0 170 170 0 170 170 0 170 170 0 170 170 0 0 170 0 170 170 0 170 170 0 170 170 0 170 170 0 170 0 0 170 0 0 0 0 0 0 0 0 0 0 0 0 0 0 0 0 0 0 0 0 0 0 0 0 0 0 0 0 0 0 0
0 0 0 0 0 0 0 0 0 0 0 170 0 0 170 0 0 170 0 0 170 0 0 170 0 0 170 0 0 170 0 0 170 0 170 0 0 0 170 0 170 170 0 170 170 0 0 170 170 0 0 170 0 0 0 0 0 0 0 0 0 0 0 0 0 0 0 0 0 0 0 0 0 0 0 0 0 0 0 0 0 0 0 0 0 0 0 0 0 0 0 0 0 0 0 0 0 0 0 0 0 0 0 0 0 0 0 0 0 0 0 0 0 0 0 0 0 0 170 0 0 170 0 0 170 0 0 170 170 0 0 170 0 170 170 0 170 0 0 170 0 0 170 0 0 0 0 0 0 0 0 0 0 0 0 0 0 0 0 0 0 0 0 0 0 0 0 0 0 0 0 0 0 0 0 0 0 0 0 0
0 0 0 0 0 0 0 170 0 0 170 0 0 170 0 0 170 170 0 170 170 0 170 170 0 170 170 170 0 0 0 0 170 0 170 0 0 0 170 170 0 0 170 0 0 170 0 0 170 0 0 0 0 0 0 0 0 0 0 0 0 0 0 0 0 0 0 0 0 0 0 0 0 0 0 0 0 0 0 0 0 0 0 0 0 0 0 0 0 0 0 0 0 0 0 0 0 0 0 0 0 0 0 0 0 0 0 0 0 0 0 0 0 0 0 0 0 0 0 0 0 0 0 0 0 0 0 0 0 0 0 0 0 0 0 0 0 0 0 0 0 0 0 0 0 0 0 0 0 0 0 0 0 0 0 0 0 0 0 0 0 0 0 0 0 0 0 0 0 0 0 0 0 0 0 0 0 0 0 0
0 0 0 0 0 170 0 0 170 0 0 170 0 0 170 0 0 170 0 0 170 0 0 170 0 0 170 0 0 170 0 0 170 0 170 0 0 0 170 170 0 0 170 0 0 170 0 0 170 0 0 0 0 0 0 0 0 0 0 0 0 0 0 0 0 0 0 0 0 0 0 0 0 0 0 0 0 0 0 0 0 0 0 0 0 0 0 0 0 0 0 0 0 0 0 0 0 0 0 0 0 0 0 0 0 0 0 0 0 0 0 0 0 0 0 0 0 0 0 0 0 0 0 0 0 0 0 0 0 0 0 0 0 0 0 0 0 0 0 0 0 0 0 0 0 0 0 0 0 0 0 0 0 0 0 0 0 0 0 0 0 0 0 0 0 0 0 0 0 0 0 0 0 0 0 0 0 0 0 0
0 170 0 0 170 0 0 170 0 0 0 170 0 170 0 0 0 170 0 0 170 0 170 170 0 170 170 170 0 0 0 0 170 0 0 170 0 0 170 0 0 170 0 0 170 0 0 170 0 0 170 0 0 0 0 0 0 0 0 0 0 0 0 0 0 0 0 0 0 0 0 0 0 0 0 0 0 0 0 0 0 0 0 0 0 0 0 0 0 0 0 0 0 0 0 0 0 0 0 0 0 0 0 0 0 0 0 0 0 0 0 0 0 0 0 0 0 0 0 0 0 0 0 0 0 0 0 0 0 0 0 0 0 0 0 0 0 0 0 0 0 0 0 0 0 0 0 0 0 0 0 0 0 0 0 0 0 0 0 0 0 0 0 0 0 0 0 0 0 0 0 0 0 0 0 0 0 0 0 0
0 170 0 0 170 0 0 0 170 0 170 0 0 170 170 0 170 170 0 0 170 0 0 170 0 170 170 170 0 0 0 0 170 0 170 170 0 170 170 170 0 0 170 0 0 170 0 0 170 0 0 0 0 0 0 0 0 0 0 0 0 0 0 0 0 0 0 0 0 0 0 0 0 0 0 0 0 0 0 0 0 0 0 0 0 0 0 0 0 0 0 0 0 0 0 0 0 0 0 0 0 0 0 0 0 0 0 0 0 0 0 0 0 0 0 0 0 0 0 0 0 0 0 0 0 0 0 0 0 0 0 0 0 0 0 0 0 0 0 0 0 0 0 0 0 0 0 0 0 0 0 0 0 0 0 0 0 0 0 0 0 0 0 0 0 0 0 0 0 0 0 0 0 0 0 0 0 0 0 0
0 0 0 0 170 0 0 170 0 0 0 170 0 170 0 0 0 170 0 0 170 0 170 170 0 170 170 170 0 0 0 0 170 0 0 170 0 0 170 0 0 170 0 0 170 0 0 170 0 0 170 0 0 0 0 0 0 0 0 0 0 0 0 0 0 0 0 0 0 0 0 0 0 0 0 0 0 0 0 0 0 0 0 0 0 0 0 0 0 0 0 0 0 0 0 0 0 0 0 0 0 0 0 0 0 0 0 0 0 0 0 0 0 0 0 0 0 0 0 0 0 0 0 0 0 0 0 0 0 0 0 0 0 0 0 0 0 0 0 0 0 0 0 0 0 0 0 0 0 0 0 0 0 0 0 0 0 0 0 0 0 0 0 0 0 0 0 0 0 0 0 0 0 0 0 0 0 0 0 0
0 0 0 0 0 0 0 0 170 0 0 170 0 0 170 0 0 170 0 0 170 0 0 170 0 0 170 0 0 170 0 0 170 0 170 170 0 170 170 170 0 0 170 0 0 170 0 0 170 0 0 0 0 0 0 0 0 0 0 0 0 0 0 0 0 0 0 0 0 0 0 0 0 0 0 0 0 0 0 0 0 0 0 0 0 0 0 0 0 0 0 0 0 0 0 0 0 0 0 0 0 0 0 0 0 0 0 0 0 0 0 0 0 0 0 0 0 0 0 0 0 0 0 0 0 0 0 0 0 0 0 0 0 0 0 0 0 0 0 0 0 0 0 0 0 0 0 0 0 0 0 0 0 0 0 0 0 0 0 0 0 0 0 0 0 0 0 0 0 0 0 0 0 0 0 0 0 0 0 0
0 0 0 0 0 0 0 0 0 0 170 0 0 170 170 0 170 170 0 170 170 170 0 0 170 0 0 170 0 0 0 0 170 0 0 170 0 0 170 0 0 170 0 0 170 0 0 170 0 0 170 0 0 0 0 0 0 0 0 0 0 0 0 0 0 0 0 0 0 0 0 0 0 0 0 0 0 0 0 0 0 0 0 0 0 0 0 0 0 0 0 0 0 0 0 0 0 0 0 0 0 0 0 0 0 0 0 0 0 0 0 0 0 0 0 0 0 0 0 0 0 0 0 0 0 0 0 0 0 0 0 0 0 0 0 0 0 0 0 0 0 0 0 0 0 0 0 0 0 0 0 0 0 0 0 0 0 0 0 0 0 0 0 0 0 0 0 0 0 0 0 0 0 0 0 0 0 0 0 0
0 0 0 0 0 0 0 0 0 0 0 0 0 0 0 0 0 170 0 0 170 0 0 170 0 0 170 0 0 170 0 0 170 0 170 170 0 170 170 170 0 0 170 0 0 0 0 170 170 0 0 0 0 0 0 0 0 0 0 0 0 0 0 0 0 0 0 0 0 0 0 0 0 0 0 0 0 0 0 0 0 0 0 0 0 0 0 0 0 0 0 0 0 0 0 0 0 0 0 0 0 0 0 0 0 0 0 0 0 0 0 0 0 0 0 0 0 0 0 0 0 0 0 0 0 0 0 0 0 0 0 0 0 0 0 0 0 0 0 0 0 0 0 0 0 0 0 0 0 0 0 0 0 0 0 0 0 0 0 0 0 0 0 0 0 0 0 0 0 0 0 0 0 0 0 0 0 0 0 0
0 0 0 0 0 0 0 0 0 0 0 0 0 0 0 0 0 170 0 170 0 0 170 170 0 170 170 0 170 170 0 170 170 0 170 170 0 170 170 0 170 170 0 170 170 170 0 0 170 0 0 170 0 0 0 0 0 0 0 0 0 0 0 0 0 0 0 0 0 0 0 0 0 0 0 0 0 0 0 0 0 0 0 0 0 0 0 0 0 0 0 0 0 0 0 0 0 0 0 0 0 0 0 0 0 0 0 0 0 0 0 0 0 0 0 0 0 0 0 0 0 0 0 0 0 0 0 0 0 0 0 0 0 0 0 0 0 0 0 0 0 0 0 0 0 0 0 0 0 0 0 0 0 0 0 0 0 0 0 0 0 0 0 0 0 0 0 0 0 0 0 0 0 0 0 0 0 0 0 0
0 0 0 0 0 0 0 0 0 0 0 0 0 0 0 0 0 170 0 170 0 0 0 170 0 0 170 0 0 170 0 0 170 0 0 170 0 170 0 0 170 170 0 170 170 170 0 0 170 0 0 170 0 0 170 0 0 0 0 0 0 0 0 0 0 0 0 0 0 0 0 0 0 0 0 0 0 0 0 0 0 0 0 0 0 0 0 0 0 0 0 0 0 0 0 0 0 0 0 0 0 0 0 0 0 0 0 0 0 0 0 0 0 0 0 0 0 0 0 0 0 0 0 0 0 0 0 0 0 0 0 0 0 0 0 0 0 0 0 0 0 0 0 0 0 0 0 0 0 0 0 0 0 0 0 0 0 0 0 0 0 0 0 0 0 0 0 0 0 0 0 0 0 0 0 0 0 0 0 0
0 0 0 0 0 0 0 0 0 0 0 0 0 170 0 0 0 170 0 170 170 0 0 170 0 170 0 0 170 170 170 0 0 0 0 170 0 170 0 0 170 170 0 170 170 0 170 170 170 0 0 170 0 0 170 0 0 170 0 0 170 0 0 0 0 0 0 0 0 0 0 0 0 0 0 0 0 0 0 0 0 0 0 0 0 0 0 0 0 0 0 0 0 0 0 0 0 0 0 0 0 0 0 0 0 0 0 0 0 0 0 0 0 0 0 0 0 0 0 0 0 0 0 0 0 0 0 0 0 0 0 0 0 0 0 0 0 0 0 0 0 0 0 0 0 0 0 0 0 0 0 0 0 0 0 0 0 0 0 0 0 0 0 0 0 0 0 0 0 0 0 0 0 0 0 0 0 0 0 0
0 0 0 0 0 0 0 0 0 0 0 0 0 170 0 0 0 170 0 170 170 0 0 170 0 170 0 0 0 170 170 0 0 0 0 170 0 0 170 0 170 0 0 170 170 0 170 170 0 170 170 0 170 170 170 0 0 170 0 0 170 0 0 170 0 0 170 0 0 170 0 0 0 0 170 0 170 0 170 0 0 170 0 0 0 0 0 0 0 0 0 0 0 0 0 0 0 0 0 0 0 0 0 0 0 0 0 0 0 0 0 0 0 0 0 0 0 0 0 0 0 0 0 0 0 0 0 0 0 0 0 0 0 0 0 0 0 0 0 0 0 0 0 0 0 0 0 0 0 0 0 0 0 0 0 0 0 0 0 0 0 0 0 0 0 0 0 0 0 0 0 0 0 0 0 0 0 0 0 0
0 0 0 0 0 0 0 0 0 0 0 0 0 0 0 0 0 170 0 170 0 0 0 170 0 0 170 0 0 170 0 0 170 0 0 170 0 0 170 0 170 0 0 170 170 0 170 170 0 170 170 0 170 170 0 170 170 0 170 170 170 0 0 170 0 0 170 0 0 170 0 0 0 0 170 0 170 0 170 0 0 170 0 0 0 0 170 170 0 0 170 0 0 170 0 0 170 0 0 170 0 0 170 0 0 170 0 0 170 0 0 170 0 0 170 0 0 170 0 0 170 0 0 170 0 0 170 0 0 0 0 170 170 0 0 170 0 0 170 0 0 170 0 0 170 0 0 170 0 0 170 0 0 170 0 0 170 0 0 170 0 0 170 0 0 170 0 0 170 0 0 170 0 0 170 0 0 170 0 0
0 0 0 0 0 0 0 0 0 0 0 0 0 0 0 0 0 170 0 170 0 0 170 170 0 0 170 0 170 170 0 0 170 170 0 0 0 0 170 0 0 170 0 170 0 0 170 0 0 170 0 0 170 170 0 170 170 0 170 170 0 170 170 0 170 170 0 170 170 0 170 170 0 0 170 0 170 0 170 0 0 170 0 0 0 0 170 0 170 170 0 170 170 0 170 170 0 170 170 0 170 170 0 170 170 0 170 170 0 170 170 0 170 170 0 170 170 0 170 170 0 170 170 0 170 170 0 170 170 0 0 170 0 170 170 0 170 170 0 170 170 0 170 170 0 170 170 0 170 170 0 170 170 0 170 170 0 170 170 0 170 170 0 170 170 0 170 170 0 170 170 0 170 170 0 170 170 0 170 170
0 0 0 0 0 0 0 0 0 0 0 0 0 0 0 0 0 170 0 0 170 0 0 170 0 0 170 0 0 170 0 0 170 0 0 170 0 170 170 0 170 170 0 0 170 0 0 170 0 0 170 0 170 0 0 170 0 0 170 0 0 170 0 0 170 0 0 170 0 0 170 0 0 0 170 0 170 0 170 0 0 170 0 0 0 0 170 0 170 0 0 170 0 0 170 0 0 170 0 0 170 0 0 170 0 0 170 0 0 170 0 0 170 0 0 170 0 0 170 0 0 170 0 0 170 0 0 170 0 0 0 170 0 170 0 0 170 0 0 170 0 0 170 0 0 170 0 0 170 0 0 170 0 0 170 0 0 170 0 0 170 0 0 170 0 0 170 0 0 170 0 0 170 0 0 170 0 0 170 0
0 0 0 0 0 0 0 0 0 0 0 0 0 0 0 0 170 0 0 170 170 0 170 170 170 0 0 170 0 0 170 0 0 0 0 0 0 0 0 0 170 170 0 170 170 0 170 170 0 170 170 0 0 170 0 0 170 0 0 170 0 0 170 0 0 170 0 0 170 0 0 170 0 0 170 0 170 0 170 0 0 170 0 0 0 0 170 0 0 170 0 0 170 0 0 170 0 0 170 0 0 170 0 0 170 0 0 170 0 0 170 0 0 170 0 0 170 0 0 170 0 0 170 0 0 170 0 0 170 0 0 170 0 0 170 0 0 170 0 0 170 0 0 170 0 0 170 0 0 170 0 0 170 0 0 170 0 0 170 0 0 170 0 0 170 0 0 170 0 0 170 0 0 170 0 0 170 0 0 170
0 0 0 0 0 0 0 0 0 0 0 0 0 0 0 0 170 0 0 170 170 0 170 170 170 0 0 170 0 0 170 0 0 0 0 0 0 0 0 0 0 0 0 0 0 0 0 0 0 0 0 0 170 170 0 170 170 0 170 170 0 170 170 0 170 170 0 170 170 0 170 170 0 0 170 0 170 0 170 0 0 170 0 0 0 0 170 0 170 170 0 170 170 0 170 170 0 170 170 0 170 170 0 170 170 0 170 170 0 170 170 0 170 170 0 170 170 0 170 170 0 170 170 0 170 170 0 170 170 0 0 170 0 170 170 0 170 170 0 170 170 0 170 170 0 170 170 0 170 170 0 170 170 0 170 170 0 170 170 0 170 170 0 170 170 0 170 170 0 170 170 0 170 170 0 170 170 0 170 170
0 0 0 0 0 0 0 0 0 0 0 0 0 0 0 0 170 0 0 170 170 0 170 170 170 0 0 170 0 0 170 0 0 0 0 0 0 0 0 0 0 0 0 0 0 0 0 0 0 0 0 0 0 0 0 0 0 0 0 0 0 0 0 0 0 0 0 0 0 0 170 170 0 0 170 0 170 0 170 0 0 170 0 0 0 0 0 0 0 0 0 0 0 0 0 0 0 0 0 0 0 0 0 0 0 0 0 0 0 0 0 0 0 0 0 0 0 0 0 0 0 0 0 0 0 0 0 0 0 0 0 0 0 0 0 0 0 0 0 0 0 0 0 0 0 0 0 0 0 0 0 0 0 0 0 0 0 0 0 0 0 0 0 0 0 0 0 0 0 0 0 0 0 0 0 0 0 0 0 0
0 0 0 0 0 0 0 0 0 0 0 0 0 0 0 0 0 0 0 0 170 0 0 170 0 0 170 0 0 170 0 0 170 0 0 0 0 0 0 0 0 0 0 0 0 0 0 0 0 0 0 0 0 0 0 0 0 0 0 0 0 0 0 0 0 0 0 0 0 0 0 0 0 0 0 0 170 0 170 0 0 170 0 0 0 0 0 0 0 0 0 0 0 0 0 0 0 0 0 0 0 0 0 0 0 0 0 0 0 0 0 0 0 0 0 0 0 0 0 0 0 0 0 0 0 0 0 0 0 0 0 0 0 0 0 0 0 0 0 0 0 0 0 0 0 0 0 0 0 0 0 0 0 0 0 0 0 0 0 0 0 0 0 0 0 0 0 0 0 0 0 0 0 0 0 0 0 0 0 0
0 0 0 0 0 0 0 0 0 0 0 0 0 0 0 0 0 0 0 0 0 0 170 0 0 170 170 170 0 0 0 0 0 0 0 0 0 0 0 0 0 0 0 0 0 0 0 0 0 0 0 0 0 0 0 0 0 0 0 0 0 0 0 0 0 0 0 0 0 0 0 0 0 0 0 0 0 0 0 0 0 0 0 0 0 0 0 0 0 0 0 0 0 0 0 0 0 0 0 0 0 0 0 0 0 0 0 0 0 0 0 0 0 0 0 0 0 0 0 0 0 0 0 0 0 0 0 0 0 0 0 0 0 0 0 0 0 0 0 0 0 0 0 0 0 0 0 0 0 0 0 0 0 0 0 0 0 0 0 0 0 0 0 0 0 0 0 0 0 0 0 0 0 0 0 0 0 0 0 0
