P3
273 16
255
0 0 0 0 0 0 0 0 0 0 0 170 0 0 170 0 0 170 0 0 170 0 0 170 0 0 170 0 170 0 0 170 0 0 170 0 0 0 170 0 0 170 0 0 170 0 170 0 0 0 170 0 0 170 0 0 170 0 0 170 0 0 170 0 0 170 0 0 170 0 0 170 0 0 170 0 0 170 0 0 170 0 0 170 0 0 170 170 0 0 0 0 170 170 0 0 170 0 0 0 0 170 0 0 170 0 0 170 0 170 0 0 0 0 0 170 0 0 0 0 0 170 0 0 0 0 0 170 0 0 0 0 0 170 0 0 0 0 0 170 0 0 0 170 0 170 0 0 0 170 0 0 170 0 0 170 0 170 0 0 0 170 0 170 0 0 0 0 0 170 0 0 0 0 0 170 0 0 0 0 0 170 0 0 0 0 0 170 0 0 0 0 0 170 0 0 0 170 170 0 0 0 0 170 0 0 0 0 0 0 0 0 170 170 0 0 0 0 170 0 0 170 0 0 170 0 0 170 0 0 170 0 0 170 0 0 170 0 0 170 0 0 170 0 0 170 0 0 170 0 0 170 0 0 170 0 0 170 0 0 170 0 0 170 0 0 170 170 0 0 170 0 0 170 0 0 0 0 170 0 0 170 0 0 170 0 0 170 0 0 170 0 0 170 0 0 0 0 0 0 0 0 0 170 0 0 170 0 0 0 0 0 0 0 170 0 0 170 0 0 0 0 0 170 0 0 170 0 0 170 170 0 0 170 0 0 170 0 0 170 0 0 170 0 0 170 0 0 0 0 170 0 0 170 0 0 170 0 0 170 0 0 170 0 170 0 0 170 0 0 170 0 0 0 170 0 0 170 0 170 0 0 0 170 0 0 170 0 0 170 0 0 170 0 0 170 0 0 170 0 0 170 0 0 170 0 0 170 0 0 170 0 0 170 0 0 170 0 0 170 0 0 170 170 0 0 0 0 170 170 0 0 0 0 170 0 0 0 0 170 0 0 0 170 0 0 0 0 170 0 0 0 0 0 170 0 0 0 0 0 170 0 0 0 0 0 170 0 0 0 0 0 170 0 0 0 170 0 0 170 0 170 0 0 170 0 0 170 0 0 170 0 170 0 0 0 0 170 0 0 170 0 170 0 0 0 0 0 170 0 0 0 0 0 170 0 0 0 0 0 170 0 0 0 0 0 170 0 0 0 0 0 0 170 170 0 0 170 0 0 0 0 170 0 0 0 0 0 170 170 0 0 0 0 170 0 0 170 0 0 170 0 0 170 0 0 170 0 0 170 0 0 170 0 0 170 0 0 170 0 0 170 0 0 170 0 0 170 0 0 170 0 0 170 0 0 170 0 0 170 0 0 170 170 0 0 0 0 170 170 0 0 0 0 170 0 0 170 170 0 0 0 0 170 0 0 170 0 0 170 0 0 170 0 0 170 0 0 170 0 0 170 0 0 170 0 0 170 0 0 170 0 0 170 0 0 0 170 85 0 0 0 170 0 0 170 0 0 170 0 0 170 0 0 170 0 0 170 0 0 170 0 0 170 0 0 170 0 0 170 170 85 0 0 0 170 0 0 170 0 170 0 0 170 0 0 170 0 0 0 170 170 0 0 0 170 0 0 0 170 0 170 0 0 170 0 0 170 0 0 170 0 0 170 0 0 170 0 0 170 0 0 170 0 0 170 0 0 170 0 0 170 0 0 170 0 0 0 170 170 0 0 0 0 170 170 0 0 0 0 170 0 0 0 0 170 0 0 0 170 0 170 0 0 0 0 0 170 0 0 0 0 0 170 0 0 0 0 0 170 0 0 0 0 0 170 0 0 0 170 0 0 170 0 0 170 0 0 0
0 0 0 0 0 0 170 0 0 170 0 0 0 0 170 0 0 170 0 0 170 0 170 0 0 0 0 0 170 0 0 0 0 0 170 0 0 0 0 0 170 0 0 0 0 0 170 0 0 0 170 170 0 0 170 0 0 0 0 170 0 0 0 0 0 170 170 0 0 0 0 170 0 170 0 0 170 0 0 170 0 0 170 0 0 170 0 0 170 0 0 170 0 0 170 0 0 170 0 0 170 0 0 170 0 0 170 0 0 170 0 0 170 0 0 170 0 0 0 170 170 0 0 0 0 170 170 0 0 0 0 170 0 0 170 170 0 0 170 85 0 0 0 170 0 0 170 0 0 170 0 0 170 0 0 170 0 0 170 0 0 170 0 0 170 0 0 170 0 0 170 0 0 0 170 85 0 170 85 0 170 85 0 0 0 170 0 0 170 0 0 170 0 0 170 0 0 170 0 0 170 0 0 170 170 85 0 170 85 0 0 0 170 0 0 170 0 170 0 0 170 0 0 170 0 0 0 170 170 0 0 0 170 0 0 0 170 0 170 0 0 0 0 0 0 0 0 0 0 0 0 0 0 0 0 0 0 0 0 0 0 0 0 0 0 0 0 0 0 0 0 0 0 0 0 170 170 0 0 0 0 170 170 0 0 0 0 170 0 0 0 0 170 0 0 0 170 0 0 0 0 170 0 0 0 0 0 170 0 0 0 0 0 170 0 0 0 0 0 170 0 0 0 170 0 170 0 0 0 170 0 0 170 0 0 0 0 0 0 0 0 0 170 0 0 170 0 0 0 0 170 0 0 170 170 0 0 0 0 170 0 170 0 170 0 0 0 170 0 0 0 0 0 170 0 0 0 0 0 170 0 0 0 170 170 0 0 170 0 0 170 0 0 0 0 170 0 0 0 0 0 170 170 0 0 0 0 170 170 0 0 0 0 0 0 0 0 0 0 0 0 0 0 0 0 0 0 0 0 0 0 0 0 0 0 0 0 0 0 0 0 0 0 0 0 0 0 0 0 0 170 0 0 0 0 170 170 0 0 0 0 170 170 0 0 0 0 170 0 0 170 170 0 0 170 85 0 170 85 0 170 85 0 170 85 0 170 85 0 170 85 0 170 85 0 170 85 0 170 85 0 170 0 0 170 85 0 0 0 0 170 85 0 170 85 0 170 85 0 170 85 0 170 85 0 170 85 0 170 85 0 170 85 0 170 85 0 170 0 0 170 85 0 0 0 170 0 0 170 0 170 0 0 170 0 0 170 0 0 170 0 0 0 170 170 0 0 0 170 0 0 0 170 0 170 0 0 0 0 0 0 0 0 0 0 0 0 0 0 0 0 0 0 0 0 0 0 0 0 0 0 0 0 0 0 0 0 0 0 0 0 170 170 0 0 0 0 170 170 0 0 0 0 170 0 0 0 0 0 0 0 170 0 0 0 170 0 0 0 0 170 0 0 0 0 0 170 0 0 0 0 0 170 0 0 0 0 0 0 170 0 170 0 0 0 170 0 0 170 0 0 170 0 0 0 0 0 0 170 0 0 0 0 170 0 0 170 0 0 170 170 0 0 0 0 170 170 0 0 0 170 0 0 0 0 0 170 0 0 0 0 0 170 0 0 0 0 0 0 170 170 0 0 170 0 0 170 0 0 0 0 170 0 0 0 0 0 170 170 0 0 0 0 170 170 0 0 170 0 0 170 0 0 0 0 0 0 0 0 0 0 0 0 0 0 0 0 0 0 0 0 0 0 0 0 0 0 0 0 0 0 0 0 0 0 0 170 0 0 0 0 170 170 0 0 170 0 0 170 0 0 170 0 0 0 0 170 0 0 170 170 85 0 170 85 0 170 85 0
170 85 0 170 85 0 170 85 0 170 85 0 170 85 0 170 85 0 170 0 0 170 85 0 0 0 0 170 85 0 170 85 0 170 85 0 170 85 0 170 85 0 170 85 0 170 85 0 170 85 0 170 85 0 170 0 0 170 85 0 0 0 170 0 0 170 0 170 0 0 170 0 0 170 0 0 170 0 0 0 170 170 0 0 0 170 0 0 0 170 0 170 0 0 0 0 0 0 0 0 0 0 0 0 0 0 0 0 0 0 0 0 0 0 0 0 0 0 0 0 0 0 0 0 0 0 0 0 170 170 0 0 0 0 170 0 0 170 0 170 0 0 0 170 0 0 0 0 170 0 0 0 170 0 170 0 0 0 0 0 170 0 0 0 0 0 170 0 0 0 0 0 170 0 0 0 0 0 0 170 0 170 0 0 170 0 0 0 170 0 0 170 0 0 170 0 0 170 0 0 170 0 0 0 0 0 0 0 0 170 170 0 0 0 170 0 0 0 0 0 170 0 0 0 0 0 170 0 0 0 0 0 170 0 0 0 170 170 0 0 170 0 0 170 0 0 170 0 0 0 0 170 0 0 170 170 0 0 0 0 170 170 0 0 170 0 0 170 0 0 170 0 0 170 0 0 0 0 0 0 0 0 0 0 0 0 0 0 0 0 0 0 0 0 0 0 0 0 0 0 0 0 0 170 0 0 0 0 170 170 0 0 0 0 170 170 0 0 170 0 0 0 0 170 0 0 170 170 85 0 170 85 0 170 85 0 170 85 0 170 85 0 170 85 0 170 85 0 170 85 0 170 85 0 170 0 0 170 85 0 0 0 0 170 85 0 170 85 0 170 85 0 170 85 0 170 85 0 170 85 0 170 85 0 170 85 0 170 85 0 170 0 0 170 85 0 0 0 170 0 0 170 0 170 0 0 170 0 0 170 0 0 170 0 0 0 170 170 0 0 0 170 0 0 0 170 0 170 0 0 0 0 0 0 0 0 0 0 0 0 0 0 0 0 0 0 0 0 0 0 0 0 0 0 0 0 0 0 0 0 0 0 0 0 170 170 0 0 0 0 170 0 0 170 0 170 0 0 0 170 0 0 0 0 0 0 0 170 0 0 0 170 0 170 0 0 0 0 0 170 0 0 0 0 0 170 0 0 0 0 0 170 0 0 0 170 0 0 0 0 170 0 0 170 0 0 170 0 0 170 0 0 0 0 0 0 0 0 0 0 0 0 0 0 0 170 0 170 0 0 0 0 0 170 0 0 0 0 0 170 0 0 0 0 0 170 0 0 0 170 170 0 0 170 0 0 170 0 0 0 0 170 0 0 0 0 0 170 0 0 170 170 0 0 0 0 170 170 0 0 170 0 0 170 0 0 170 0 0 170 0 0 170 0 0 170 0 0 0 0 0 0 0 0 0 0 0 0 0 0 0 0 0 0 0 0 0 0 0 170 0 0 0 0 170 170 0 0 170 0 0 0 0 170 170 0 0 0 0 170 0 0 170 170 85 0 170 85 0 170 85 0 170 85 0 170 85 0 170 85 0 170 85 0 170 85 0 170 85 0 170 0 0 170 85 0 0 0 0 170 85 0 170 85 0 170 85 0 170 85 0 170 85 0 170 85 0 170 85 0 170 85 0 170 85 0 170 0 0 170 85 0 0 0 170 0 0 170 0 170 0 0 170 0 0 170 0 0 170 0 0 0 170 170 0 0 0 170 0 0 0 170 0 170 0 0 0 0 0 0 0 0 0 0 0 0 0 0 0 0 0 0 0 0 0 0 0 0 0 0 0 0 0 0 0 0 0 0 0 0 170 170 0 0 0 0 170 0 0 170 0 170 0 0 0 170 0 0 0
0 0 0 0 170 0 0 0 170 0 0 0 0 170 0 0 0 0 0 170 0 0 0 0 0 170 0 0 0 0 0 170 0 0 0 170 0 0 170 0 0 170 0 0 170 0 0 170 0 0 170 0 0 170 0 0 170 0 0 170 0 170 0 0 0 0 0 170 0 0 0 0 0 170 0 0 0 0 0 170 0 0 0 0 0 0 170 170 0 0 170 0 0 170 0 0 0 0 170 0 0 0 0 0 170 0 0 170 170 0 0 0 0 170 170 0 0 170 0 0 170 0 0 170 0 0 170 0 0 170 0 0 170 0 0 170 0 0 170 0 0 0 0 0 0 0 0 0 0 0 0 0 0 0 0 0 170 0 0 0 0 170 170 0 0 170 0 0 0 0 170 170 0 0 0 0 170 0 0 170 170 85 0 170 85 0 170 85 0 170 85 0 170 85 0 170 85 0 170 85 0 170 85 0 170 85 0 170 0 0 170 85 0 0 0 0 170 0 0 170 0 0 170 0 0 170 0 0 170 0 0 170 0 0 170 0 0 170 0 0 170 0 0 170 0 0 170 0 0 0 0 170 0 0 170 0 170 0 0 170 0 0 170 0 0 170 0 0 0 170 170 0 0 0 170 0 0 0 170 0 170 0 0 0 0 0 0 0 0 0 0 0 0 0 0 0 0 0 0 0 0 0 0 0 0 0 0 0 0 0 0 0 0 0 0 0 0 170 170 0 0 0 0 170 0 0 170 0 0 0 0 170 0 0 0 170 0 0 0 0 0 0 0 170 0 0 0 170 0 0 170 0 170 0 0 0 0 0 170 0 0 0 0 0 170 0 0 0 0 0 170 0 0 0 0 0 170 0 170 0 0 0 170 0 0 0 0 0 170 0 0 0 0 0 170 0 0 0 0 0 170 0 0 0 0 0 170 0 0 0 0 0 170 0 0 0 170 0 0 170 170 0 0 170 0 0 170 0 0 170 0 0 0 0 170 0 0 0 0 0 170 0 0 170 170 0 0 0 0 170 170 0 0 170 0 0 170 0 0 170 0 0 170 0 0 170 0 0 170 0 0 170 0 0 170 0 0 170 0 0 170 0 0 0 0 0 0 0 0 0 0 0 170 0 0 0 0 170 170 0 0 170 0 0 0 0 170 170 0 0 0 0 170 0 0 170 170 0 0 170 0 0 170 0 0 170 0 0 170 0 0 170 0 0 170 0 0 170 0 0 170 0 0 170 0 0 170 0 0 0 0 0 170 85 0 170 85 0 170 85 0 170 85 0 170 85 0 170 85 0 170 85 0 170 85 0 170 85 0 170 0 0 170 85 0 0 0 170 0 0 170 0 0 170 0 170 0 0 170 0 0 170 0 0 0 170 170 0 0 0 170 0 0 0 170 0 170 0 0 0 0 0 0 0 0 0 0 0 0 0 0 0 0 0 0 0 0 0 0 0 0 0 0 0 0 0 0 0 0 0 0 0 0 170 170 0 0 0 0 170 0 0 170 0 0 0 0 170 0 0 0 170 0 0 0 0 0 0 0 0 0 0 170 0 0 170 0 0 0 170 0 0 170 0 0 170 0 170 0 0 0 0 0 170 0 0 0 0 0 170 0 0 0 0 0 170 0 0 0 0 0 170 0 0 0 0 0 170 0 0 0 0 0 170 0 0 0 0 0 170 0 0 0 170 0 0 170 0 0 170 170 0 0 170 0 0 170 0 0 170 0 0 170 0 0 0 0 170 0 0 0 170 0 0 0 0 170 0 0 170 170 0 0 0 0 170 170 0 0 170 0 0 170 0 0 170 0 0 170 0 0 170 0 0 170 0 0 170 0 0 170 0 0 170 0 0 170 0 0
170 0 0 170 0 0 0 0 0 170 0 0 0 0 170 170 0 0 170 0 0 0 0 170 170 0 0 0 0 170 0 0 170 170 85 0 170 85 0 170 85 0 170 85 0 170 85 0 170 85 0 170 85 0 170 85 0 170 85 0 170 0 0 170 85 0 0 0 0 170 85 0 170 85 0 170 85 0 170 85 0 170 85 0 170 85 0 170 85 0 170 85 0 170 85 0 170 0 0 170 85 0 0 0 170 0 0 170 170 0 0 0 0 170 0 170 0 0 170 0 0 0 170 170 0 0 0 170 0 0 0 170 0 170 0 0 0 0 0 0 0 0 0 0 0 0 0 0 0 0 0 0 0 0 0 0 0 0 0 0 0 0 0 0 0 0 0 0 0 0 170 170 0 0 0 0 170 0 0 170 0 0 0 0 0 0 0 0 170 0 0 0 0 0 0 0 0 0 0 0 0 0 0 0 0 170 0 0 170 0 0 0 170 0 0 170 0 0 170 0 0 170 0 170 0 0 0 0 0 170 0 0 0 0 0 170 0 0 0 0 0 170 0 0 0 0 0 170 0 0 0 170 0 0 170 0 0 170 0 0 170 170 0 0 170 0 0 170 0 0 170 0 0 170 0 0 170 0 0 170 0 0 0 0 170 0 0 0 170 0 0 0 0 170 0 0 170 170 0 0 0 0 170 170 0 0 170 0 0 170 0 0 170 0 0 170 0 0 170 0 0 170 0 0 170 0 0 170 0 0 170 0 0 170 0 0 170 0 0 170 0 0 170 0 0 170 0 0 0 0 170 170 0 0 170 0 0 0 0 170 170 0 0 0 0 170 0 0 170 170 85 0 170 85 0 170 85 0 170 85 0 170 85 0 170 85 0 170 85 0 170 85 0 170 85 0 170 0 0 170 85 0 0 0 0 170 85 0 170 85 0 170 85 0 170 85 0 170 85 0 170 85 0 170 85 0 170 85 0 170 85 0 170 0 0 170 85 0 0 0 170 0 0 170 0 170 0 170 0 0 0 0 170 0 0 170 0 0 170 170 0 0 0 170 0 0 0 170 0 170 0 0 0 0 0 0 0 0 0 0 0 0 0 0 0 0 0 0 0 0 0 0 0 0 0 0 0 0 0 0 0 0 0 0 0 0 170 170 0 0 0 0 170 0 0 170 0 0 0 0 0 0 0 170 0 0 0 170 0 0 0 0 0 0 0 0 0 0 0 0 0 0 170 0 0 170 0 0 170 0 0 0 0 170 0 0 170 0 0 0 170 0 0 170 0 0 170 0 0 170 0 0 170 0 0 170 0 0 170 0 0 170 0 0 170 170 0 0 170 0 0 170 0 0 170 0 0 0 0 170 0 0 170 170 0 0 170 0 0 170 0 0 170 0 0 0 0 170 0 0 0 170 0 0 170 0 0 0 0 170 0 0 170 170 0 0 0 0 170 170 0 0 170 0 0 170 0 0 170 0 0 170 0 0 170 0 0 170 0 0 170 0 0 170 0 0 170 0 0 170 0 0 170 0 0 170 0 0 170 0 0 170 0 0 0 0 170 170 0 0 170 0 0 0 0 170 170 0 0 0 0 170 0 0 170 170 85 0 170 85 0 170 85 0 170 85 0 170 85 0 170 85 0 170 85 0 170 85 0 170 85 0 170 0 0 170 85 0 0 0 0 170 85 0 170 85 0 170 85 0 170 85 0 170 85 0 170 85 0 170 85 0 170 85 0 170 85 0 170 0 0 170 85 0 0 0 170 0 0 170 0 170 0 0 170 0 170 0 0 170 0 0 0 0 170 170 0 0 0 170 0 0 0 170 0 170 0 0 0 0 0 0 0 0 0 0 0 0 0
0 0 0 0 0 0 0 0 0 0 0 0 0 0 0 0 0 0 0 0 0 0 0 170 170 0 0 0 0 170 0 0 170 0 0 0 0 0 0 0 0 0 0 170 0 0 0 170 0 0 0 0 0 0 0 0 0 0 0 170 170 0 0 0 0 170 0 0 170 0 0 170 0 0 170 0 0 0 0 170 0 0 170 0 0 0 0 0 0 170 170 0 0 170 0 0 170 0 0 170 0 0 0 0 170 0 0 170 0 0 170 0 0 170 0 0 170 0 0 170 170 0 0 170 0 0 170 0 0 0 0 170 0 0 0 170 0 0 170 0 0 170 0 0 0 0 170 0 0 170 170 0 0 0 0 170 170 0 0 170 0 0 170 0 0 170 0 0 170 0 0 170 0 0 170 0 0 170 0 0 170 0 0 170 0 0 170 0 0 170 0 0 170 0 0 170 0 0 170 0 0 0 0 170 170 0 0 170 0 0 0 0 170 170 0 0 0 0 170 0 0 170 170 85 0 170 85 0 170 85 0 170 85 0 170 85 0 170 85 0 170 85 0 170 85 0 170 85 0 170 0 0 170 85 0 0 0 0 170 85 0 170 85 0 170 85 0 170 85 0 170 85 0 170 85 0 170 85 0 170 85 0 170 85 0 170 0 0 170 85 0 0 0 170 0 0 170 0 170 0 0 170 0 0 170 0 0 170 0 0 0 170 0 0 170 0 170 0 0 0 170 0 170 0 0 0 0 0 0 0 0 0 0 0 0 0 0 0 0 0 0 0 0 0 0 0 0 0 0 0 0 0 0 0 0 0 0 0 0 170 170 0 0 170 0 0 0 0 170 0 0 0 0 0 0 0 0 0 0 0 0 0 170 0 0 0 170 0 0 0 0 0 0 0 0 170 170 0 0 0 0 170 170 170 170 0 0 170 0 0 170 0 0 170 0 0 170 0 0 170 0 0 0 0 0 170 170 0 0 0 0 170 0 0 170 0 0 170 0 0 170 0 0 170 0 0 170 0 0 170 170 0 0 0 0 170 170 0 0 170 0 0 0 0 170 0 0 0 170 0 0 170 0 0 170 0 0 170 0 0 0 0 170 170 0 0 170 0 0 0 0 170 170 0 0 170 0 0 170 0 0 170 0 0 170 0 0 170 0 0 170 0 0 170 0 0 170 0 0 170 0 0 170 0 0 170 0 0 170 0 0 170 0 0 0 0 170 170 0 0 170 0 0 170 0 0 170 0 0 170 0 0 0 0 170 0 0 170 170 85 0 170 85 0 170 85 0 170 85 0 170 85 0 170 85 0 170 85 0 170 85 0 170 85 0 170 0 0 170 85 0 0 0 0 170 85 0 170 85 0 170 85 0 170 85 0 170 85 0 170 85 0 170 85 0 170 85 0 170 85 0 170 0 0 170 85 0 0 0 170 0 0 170 0 170 0 0 170 0 0 170 0 0 170 0 0 170 0 0 0 170 0 170 0 0 0 170 0 170 0 0 0 0 0 0 0 0 0 0 0 0 0 0 0 0 0 0 0 0 0 0 0 0 0 0 0 0 0 0 0 0 0 0 0 0 170 170 0 0 170 0 0 0 0 170 0 0 0 0 0 0 0 0 0 0 0 0 0 0 0 0 170 0 0 0 170 0 0 0 0 0 170 170 0 0 0 0 170 0 0 170 0 0 170 0 0 170 170 170 170 0 0 170 0 0 170 0 0 0 0 0 170 170 0 0 0 0 170 0 0 170 170 170 170 0 0 170 0 0 170 0 0 170 0 0 170 170 0 0 0 0 170 170 0 0 0 0 170 0 0 0 170 0 0 170 0 0 170 0 0 170 0 0 170 0 0 0 0 170
170 0 0 0 0 170 170 0 0 170 0 0 170 0 0 170 0 0 170 0 0 170 0 0 170 0 0 170 0 0 170 0 0 170 0 0 170 0 0 170 0 0 170 0 0 170 0 0 170 0 0 0 0 170 170 0 0 170 0 0 170 0 0 170 0 0 170 0 0 0 0 170 0 0 170 170 85 0 170 85 0 170 85 0 170 85 0 170 85 0 170 85 0 170 85 0 170 85 0 170 85 0 170 0 0 170 85 0 0 0 0 170 85 0 170 85 0 170 85 0 170 85 0 170 85 0 170 85 0 170 85 0 170 85 0 170 85 0 170 0 0 170 85 0 0 0 170 0 0 170 0 170 0 0 170 0 0 170 0 0 170 0 0 170 0 0 0 170 0 0 170 0 0 170 0 0 170 0 0 170 0 0 170 0 0 0 0 0 0 0 0 0 0 0 0 0 0 0 0 0 0 0 0 0 0 0 0 0 0 0 0 0 0 0 0 170 170 0 0 0 0 170 0 0 0 0 0 0 0 0 0 0 0 0 0 0 0 0 170 0 0 0 0 0 0 0 0 0 170 170 0 0 0 0 170 0 0 170 0 0 170 0 0 170 0 0 170 0 0 170 0 0 170 0 0 0 0 0 170 170 0 0 0 0 170 0 0 170 0 0 170 0 0 170 0 0 170 170 170 170 0 0 170 170 0 0 0 0 170 170 0 0 170 0 0 170 0 0 170 0 0 170 0 0 170 0 0 170 0 0 170 0 0 0 0 170 170 0 0 0 0 170 170 0 0 170 0 0 170 0 0 170 0 0 170 0 0 170 0 0 170 0 0 170 0 0 170 0 0 0 0 170 0 0 170 0 0 170 0 0 170 0 0 170 0 0 170 0 0 170 170 0 0 170 0 0 170 0 0 170 0 0 170 0 0 0 0 170 0 0 170 170 85 0 170 85 0 170 85 0 170 85 0 170 85 0 170 85 0 170 85 0 170 85 0 170 85 0 170 0 0 170 85 0 0 0 0 170 85 0 170 85 0 170 85 0 170 85 0 170 85 0 170 85 0 170 85 0 170 85 0 170 85 0 170 0 0 170 85 0 170 85 0 0 0 170 0 0 170 0 170 0 0 170 0 0 170 0 0 170 0 0 0 170 0 0 0 0 0 0 0 0 170 0 0 170 0 0 170 0 0 170 0 0 170 0 0 170 0 0 0 0 0 0 0 0 0 0 0 0 0 0 0 0 0 0 0 0 0 0 0 170 170 0 0 170 0 0 0 0 170 0 0 0 0 0 0 0 0 0 0 0 0 0 0 0 0 0 0 0 0 0 0 0 170 0 0 170 0 0 170 0 0 0 0 0 0 0 0 170 0 0 170 0 0 170 0 0 170 0 0 0 0 0 170 170 0 0 0 0 170 0 0 170 0 0 170 0 0 170 170 0 0 170 0 0 0 0 170 0 0 170 0 0 170 170 0 0 170 0 0 170 0 0 170 0 0 170 0 0 170 0 0 170 0 0 0 0 170 170 0 0 170 0 0 0 0 170 170 0 0 170 0 0 170 0 0 170 0 0 170 0 0 170 0 0 170 0 0 0 0 170 0 0 170 0 0 170 0 0 170 0 0 170 0 0 170 170 0 0 170 0 0 0 0 170 170 0 0 170 0 0 170 0 0 170 0 0 0 0 170 0 0 170 170 0 0 170 85 0 170 85 0 170 85 0 170 85 0 170 85 0 170 85 0 170 85 0 170 85 0 170 85 0 170 0 0 170 85 0 0 0 0 170 85 0 170 85 0 170 85 0 170 85 0 170 85 0 170 85 0 170 85 0 170 85 0 170 85 0 170 0 0 170 85 0 170 85 0
0 0 170 0 0 170 0 170 0 0 170 0 0 170 0 0 170 0 0 0 170 0 0 0 0 0 0 0 0 0 0 0 170 0 0 170 0 0 170 0 0 170 0 0 170 0 0 170 0 0 170 0 0 0 0 0 0 0 0 0 0 0 0 0 0 0 0 0 170 0 0 170 170 0 0 170 0 0 0 0 170 0 0 170 0 0 170 0 0 170 0 0 0 0 0 0 0 0 0 0 0 0 0 0 0 0 0 170 0 0 170 0 0 170 0 0 170 0 0 170 0 0 0 0 0 170 0 0 0 0 0 170 170 0 0 0 0 170 170 0 0 170 0 0 0 0 170 0 0 170 0 0 170 0 0 170 170 0 0 170 0 0 170 0 0 170 0 0 170 0 0 0 0 170 0 0 170 0 0 170 0 0 170 170 0 0 170 0 0 0 0 170 170 0 0 170 0 0 170 0 0 170 0 0 170 0 0 170 0 0 0 0 170 0 0 170 0 0 170 0 0 170 0 0 170 0 0 170 0 0 0 0 0 170 170 0 0 170 0 0 0 0 170 170 0 0 170 0 0 170 0 0 170 0 0 0 0 170 0 0 170 170 0 0 170 85 0 170 85 0 170 85 0 170 85 0 170 85 0 170 85 0 170 85 0 170 85 0 170 85 0 170 0 0 170 85 0 0 0 0 170 0 0 170 0 0 170 0 0 170 0 0 170 0 0 170 0 0 170 0 0 170 0 0 170 0 0 170 0 0 170 0 0 170 0 0 0 0 170 0 0 170 0 170 0 0 170 0 0 170 0 0 170 0 0 0 170 0 0 0 0 0 0 0 0 0 0 0 170 0 0 0 0 0 170 0 0 0 0 0 0 0 0 170 0 0 170 0 0 170 0 0 170 0 0 170 0 0 0 0 0 0 0 0 0 0 0 170 0 0 170 0 0 170 0 170 0 0 170 0 0 170 0 0 0 170 0 0 0 0 0 0 0 0 170 0 0 170 0 0 170 0 0 0 0 0 0 0 0 0 0 0 0 0 0 170 0 0 170 0 0 170 0 0 0 0 0 170 170 0 0 0 0 170 0 0 170 0 0 170 170 0 0 170 0 0 170 0 0 170 0 0 0 0 170 0 0 170 0 0 170 170 0 0 170 0 0 0 0 170 0 0 0 0 0 0 0 0 0 0 0 170 0 0 170 0 0 170 170 0 0 170 0 0 170 0 0 0 0 170 0 0 170 0 0 170 0 0 170 0 0 170 0 0 0 0 0 0 0 0 170 0 0 0 0 0 0 0 0 170 170 0 0 170 0 0 0 0 170 170 0 0 170 0 0 170 0 0 170 0 0 0 0 170 0 0 170 170 0 0 170 0 0 170 0 0 170 0 0 170 0 0 170 0 0 170 0 0 170 0 0 170 0 0 170 0 0 170 0 0 170 0 0 0 0 0 170 85 0 170 85 0 170 85 0 170 85 0 170 85 0 170 85 0 170 85 0 170 85 0 170 85 0 170 0 0 170 85 0 170 85 0 0 0 170 0 0 170 0 170 0 0 170 0 0 170 0 0 170 0 0 170 0 0 0 170 0 0 0 0 0 0 0 0 170 0 0 170 0 0 0 0 0 0 0 0 170 0 0 0 0 0 0 0 0 170 0 0 170 0 0 170 0 0 170 0 0 170 0 0 170 0 0 170 0 170 0 0 170 0 0 170 0 0 0 0 0 170 0 0 0 0 0 0 170 0 0 0 0 0 0 0 0 170 0 0 170 0 0 170 0 0 170 0 0 170 0 0 170 0 0 0 0 0 0 0 0 0 0 0 0 0 0 170 170 0 0 170 0 0 170 0 0 170 0 0 0 0 170
0 0 170 0 0 170 0 0 170 0 0 170 0 0 170 170 0 0 170 0 0 0 0 170 0 0 0 0 0 0 0 0 0 0 0 0 0 0 0 0 0 0 0 0 170 0 0 170 0 0 170 0 0 170 0 0 170 0 0 170 0 0 170 0 0 0 0 0 0 0 0 170 0 0 0 0 0 0 0 0 170 0 0 170 0 0 170 170 0 0 0 0 170 170 0 0 170 0 0 170 0 0 170 0 0 170 0 0 0 0 170 0 0 170 170 0 0 170 85 0 170 85 0 170 85 0 170 85 0 170 85 0 170 85 0 170 85 0 170 85 0 170 85 0 170 0 0 170 85 0 0 0 0 170 85 0 170 85 0 170 85 0 170 85 0 170 85 0 170 85 0 170 85 0 170 85 0 170 85 0 170 0 0 170 85 0 170 85 0 170 85 0 0 0 170 0 0 170 0 170 0 0 170 0 0 170 0 0 170 0 0 0 170 0 0 0 0 0 0 0 0 170 0 0 0 0 0 0 0 0 170 0 0 0 0 0 0 0 0 170 0 0 170 0 0 0 0 0 0 0 0 0 0 0 0 0 0 170 0 170 0 0 170 0 0 170 0 0 0 0 0 170 0 0 0 0 0 170 0 0 0 170 0 0 0 0 0 0 0 0 0 0 0 170 0 0 170 0 0 170 0 0 170 0 0 170 0 0 170 0 0 170 0 0 170 0 0 170 0 0 170 0 0 170 0 0 170 0 0 170 0 0 170 0 0 170 0 0 170 0 0 170 0 0 170 0 0 170 170 0 0 170 0 0 170 0 0 0 0 170 0 0 0 0 0 0 0 0 0 0 0 0 0 0 0 0 0 0 0 0 0 0 0 170 170 0 0 170 0 0 170 0 0 170 0 0 0 0 170 0 0 170 0 0 0 0 0 0 0 0 170 0 0 0 0 0 0 0 0 170 170 0 0 170 0 0 0 0 170 170 0 0 170 0 0 170 0 0 170 0 0 0 0 170 0 0 170 170 85 0 170 0 0 170 85 0 170 85 0 170 85 0 170 85 0 170 85 0 170 85 0 170 85 0 170 85 0 170 85 0 170 0 0 170 85 0 0 0 0 170 85 0 170 85 0 170 85 0 170 85 0 170 85 0 170 85 0 170 85 0 170 85 0 170 85 0 170 0 0 170 85 0 170 85 0 170 85 0 0 0 170 0 0 170 0 170 0 0 170 0 0 170 0 0 170 0 0 0 170 0 0 0 0 0 0 0 0 170 0 0 0 0 0 170 0 0 0 0 0 0 0 0 170 0 0 0 0 0 170 0 0 0 0 0 0 0 0 0 0 0 0 0 0 170 0 170 0 0 170 0 0 0 0 0 170 0 0 0 0 0 170 0 0 0 0 0 0 170 0 0 0 0 0 0 0 0 0 0 0 0 0 0 170 0 0 170 0 0 170 0 0 170 0 0 170 0 0 170 0 0 170 0 0 170 0 0 170 0 0 170 0 0 170 0 0 170 0 0 170 0 0 170 0 0 170 0 0 170 0 0 170 170 0 0 170 0 0 170 0 0 170 0 0 0 0 170 0 0 0 0 0 0 0 0 0 0 0 0 0 0 0 0 0 0 0 0 0 0 0 170 170 0 0 170 0 0 170 0 0 170 0 0 0 0 170 0 0 0 0 0 170 0 0 0 0 0 0 0 0 170 0 0 0 0 0 170 170 0 0 170 0 0 0 0 170 170 0 0 170 0 0 170 0 0 170 0 0 0 0 170 0 0 170 170 85 0 170 0 0 170 85 0 170 85 0 170 85 0 170 85 0 170 85 0 170 85 0 170 85 0 170 85 0 170 85 0 170 0 0
170 85 0 0 0 0 170 85 0 170 85 0 170 85 0 170 85 0 170 85 0 170 85 0 170 85 0 170 85 0 170 85 0 170 0 0 170 85 0 170 85 0 170 85 0 170 85 0 0 0 170 0 0 170 0 170 0 0 170 0 0 170 0 0 170 0 0 0 170 0 0 0 0 0 170 0 0 170 0 0 0 0 0 0 0 0 170 0 0 0 0 0 0 0 0 170 0 0 0 0 0 0 0 0 0 0 0 170 0 170 0 0 170 0 0 170 0 0 170 0 0 0 0 0 170 0 0 0 0 0 170 0 0 0 170 0 0 170 0 0 0 0 0 0 0 0 0 0 0 0 0 0 0 0 0 0 0 0 0 0 0 170 0 0 170 0 0 170 170 0 0 170 0 0 170 0 0 0 0 170 0 0 170 0 0 170 170 0 0 170 0 0 170 0 0 170 0 0 170 0 0 170 0 0 170 0 0 0 0 170 0 0 170 0 0 0 0 0 0 0 0 0 0 0 0 0 0 0 0 0 0 0 0 0 0 0 0 0 0 170 170 0 0 170 0 0 170 0 0 0 0 170 0 0 0 0 0 0 0 0 170 0 0 0 0 0 0 0 0 170 0 0 170 170 0 0 0 0 170 170 0 0 170 0 0 170 0 0 170 0 0 0 0 170 0 0 170 170 85 0 170 85 0 170 0 0 170 85 0 170 85 0 170 85 0 170 85 0 170 85 0 170 85 0 170 85 0 170 85 0 170 85 0 170 0 0 170 85 0 0 0 0 170 85 0 170 85 0 170 85 0 170 85 0 170 85 0 170 85 0 170 85 0 170 85 0 170 85 0 170 0 0 170 85 0 170 85 0 170 85 0 170 85 0 0 0 170 0 0 170 0 170 0 0 170 0 0 170 0 0 170 0 0 0 170 0 0 0 0 0 0 0 0 170 0 0 0 0 0 170 0 0 0 0 0 0 0 0 170 0 0 170 0 0 0 0 0 0 0 0 0 0 0 170 0 170 0 0 170 0 0 170 0 0 0 0 0 170 0 0 0 0 0 170 0 0 0 0 0 170 0 0 0 170 0 0 0 0 0 0 0 0 0 0 0 0 0 0 170 0 0 170 0 0 0 0 0 0 0 0 0 0 0 170 170 0 0 170 0 0 170 0 0 0 0 170 170 0 0 170 0 0 170 0 0 0 0 170 0 0 170 170 0 0 170 0 0 170 0 0 170 0 0 0 0 170 0 0 0 0 0 0 0 0 0 0 0 0 0 0 0 0 0 0 0 0 0 0 0 0 0 0 0 0 0 170 170 0 0 170 0 0 170 0 0 0 0 170 0 0 170 0 0 0 0 0 0 0 0 170 0 0 0 0 0 170 170 0 0 170 0 0 0 0 170 170 0 0 170 0 0 170 0 0 170 0 0 0 0 170 0 0 170 170 85 0 170 85 0 170 0 0 170 85 0 170 85 0 170 85 0 170 85 0 170 85 0 170 85 0 170 85 0 170 85 0 170 85 0 170 0 0 170 85 0 0 0 0 170 85 0 170 85 0 170 85 0 170 85 0 170 85 0 170 85 0 170 85 0 170 85 0 170 85 0 170 0 0 170 85 0 170 85 0 170 85 0 170 85 0 170 85 0 0 0 170 0 0 170 0 170 0 0 170 0 0 170 0 0 0 170 0 0 0 0 0 0 0 0 170 0 0 170 0 0 0 0 0 0 0 0 170 0 0 0 0 0 170 0 0 0 0 0 0 0 0 0 0 0 170 0 170 0 0 170 0 0 170 0 0 170 0 0 170 0 0 170 0 0 0 0 0 170 0 0 0 0 0 0 170 0 0 0 0 0 0 0 0 0
0 0 170 0 0 170 0 0 170 0 0 170 0 0 0 0 0 0 0 0 170 170 0 0 170 0 0 170 0 0 0 0 170 170 0 0 170 0 0 0 0 170 0 0 170 0 0 170 0 0 170 170 0 0 170 0 0 170 0 0 0 0 170 0 0 0 0 0 0 0 0 0 0 0 0 0 0 0 0 0 0 0 0 0 0 0 0 0 0 0 0 0 170 170 0 0 170 0 0 170 0 0 0 0 170 0 0 0 0 0 170 0 0 0 0 0 0 0 0 170 0 0 170 170 0 0 170 0 0 0 0 170 170 0 0 170 0 0 170 0 0 0 0 170 0 0 170 170 85 0 170 85 0 170 85 0 170 0 0 170 85 0 170 85 0 170 85 0 170 85 0 170 85 0 170 85 0 170 85 0 170 85 0 170 85 0 170 0 0 170 85 0 0 0 0 170 85 0 170 85 0 170 85 0 170 85 0 170 85 0 170 85 0 170 85 0 170 85 0 170 85 0 170 0 0 170 85 0 170 85 0 170 85 0 170 85 0 170 85 0 170 85 0 0 0 170 0 0 170 0 170 0 0 170 0 0 0 170 0 0 170 0 0 0 0 0 170 0 0 0 0 0 170 0 0 170 0 0 170 0 0 170 0 0 170 0 0 170 0 0 170 0 0 170 0 0 170 0 0 170 0 0 170 0 170 0 0 170 0 0 170 0 0 170 0 0 170 0 0 170 0 0 170 0 0 0 170 0 0 0 0 0 0 0 0 0 0 0 170 0 0 170 0 0 170 0 0 170 0 0 0 0 0 170 170 0 0 170 0 0 170 0 0 170 0 0 170 0 0 0 0 170 170 0 0 0 0 170 0 0 170 0 0 170 0 0 170 170 0 0 170 0 0 170 0 0 0 0 170 0 0 0 0 0 0 0 0 0 0 0 0 0 0 0 0 0 0 0 0 0 0 0 170 0 0 170 0 0 170 0 0 170 0 0 170 0 0 170 0 0 170 0 0 170 0 0 170 0 0 170 0 0 170 0 0 0 0 0 170 170 0 0 0 0 170 0 0 170 170 0 0 170 0 0 0 0 170 0 0 170 170 85 0 170 85 0 170 85 0 170 85 0 170 0 0 170 85 0 170 85 0 170 85 0 170 85 0 170 85 0 170 85 0 170 85 0 170 85 0 170 85 0 170 0 0 170 85 0 0 0 0 170 85 0 170 85 0 170 85 0 170 85 0 170 85 0 170 85 0 170 85 0 170 85 0 170 85 0 170 0 0 170 85 0 170 85 0 170 85 0 170 85 0 170 85 0 170 85 0 170 85 0 0 0 170 0 0 170 0 170 0 0 170 0 0 0 170 0 0 0 0 0 170 0 0 170 0 0 0 0 0 0 0 0 0 0 0 0 0 0 0 0 0 0 0 0 0 0 0 0 0 0 0 0 0 0 0 0 170 0 0 170 0 0 170 0 0 170 0 0 170 0 170 0 0 170 0 0 0 170 0 0 170 0 0 0 0 0 0 0 0 0 0 0 0 0 0 170 0 0 170 0 0 0 0 0 0 0 0 170 170 0 0 170 0 0 170 0 0 170 0 0 170 0 0 0 0 170 170 0 0 170 0 0 0 0 170 0 0 170 170 0 0 170 0 0 170 0 0 170 0 0 0 0 170 0 0 170 0 0 0 0 0 0 0 0 170 0 0 170 0 0 170 0 0 170 0 0 170 170 0 0 170 0 0 170 0 0 170 0 0 170 0 0 170 0 0 170 0 0 170 0 0 170 0 0 170 0 0 0 0 170 0 0 170 170 0 0 0 0 170 170 0 0 170 0 0 0 0 170 0 0 170 170 85 0 170 85 0
170 85 0 170 85 0 170 85 0 170 0 0 170 85 0 170 85 0 170 85 0 170 85 0 170 85 0 170 85 0 170 85 0 170 85 0 170 85 0 170 0 0 170 85 0 0 0 0 170 85 0 170 85 0 170 85 0 170 85 0 170 85 0 170 85 0 170 85 0 170 85 0 170 85 0 170 0 0 170 85 0 170 85 0 170 85 0 170 85 0 170 85 0 170 85 0 170 85 0 170 85 0 0 0 170 0 0 170 0 0 170 0 0 170 0 0 170 0 0 170 0 170 0 0 170 0 0 170 0 0 170 0 0 170 0 0 0 0 0 0 0 0 0 0 0 0 0 0 0 0 0 0 0 0 0 0 0 0 0 0 0 0 0 0 170 0 0 170 0 0 170 0 0 170 0 0 170 0 0 0 0 0 0 0 0 0 0 0 0 0 0 0 0 0 0 0 0 0 0 0 170 0 0 170 170 0 0 170 0 0 170 0 0 170 0 0 170 0 0 170 0 0 170 0 0 0 0 170 0 0 170 170 0 0 170 0 0 170 0 0 170 0 0 170 0 0 170 0 0 170 0 0 0 0 170 0 0 170 0 0 170 0 0 170 0 0 170 170 0 0 170 0 0 170 0 0 170 0 0 170 0 0 170 0 0 170 0 0 170 0 0 170 0 0 170 0 0 170 0 0 170 0 0 170 0 0 170 0 0 0 0 170 0 0 170 0 0 170 0 0 170 0 0 170 0 0 170 170 85 0 170 85 0 170 85 0 170 85 0 170 85 0 170 85 0 170 0 0 170 85 0 170 85 0 170 85 0 170 85 0 170 85 0 170 85 0 170 85 0 170 85 0 170 85 0 170 0 0 170 85 0 0 0 0 170 0 0 170 0 0 170 0 0 170 0 0 170 0 0 170 0 0 170 0 0 170 0 0 170 0 0 170 0 0 170 0 0 170 0 0 170 0 0 170 0 0 170 0 0 170 0 0 170 0 0 170 0 0 170 0 0 170 0 0 0 0 170 0 0 170 0 0 170 0 0 170 0 170 0 0 170 0 0 170 0 0 170 0 0 170 0 0 170 0 0 170 0 0 170 0 0 0 0 0 0 0 0 0 0 0 0 0 0 0 0 0 0 0 0 0 0 0 0 0 0 0 170 0 0 170 0 0 170 0 0 170 0 0 170 0 0 170 0 0 170 0 0 170 0 0 170 0 0 170 170 0 0 170 0 0 170 0 0 170 0 0 170 0 0 170 0 0 170 0 0 170 0 0 170 0 0 170 0 0 170 0 0 0 0 170 0 0 170 0 0 170 0 0 170 0 0 170 0 0 170 0 0 170 0 0 170 0 0 170 0 0 170 170 0 0 170 0 0 170 0 0 170 0 0 170 0 0 170 0 0 170 0 0 170 0 0 170 0 0 170 0 0 170 0 0 170 0 0 170 0 0 170 0 0 170 0 0 170 0 0 0 0 170 0 0 170 0 0 170 0 0 170 0 0 170 170 0 0 170 0 0 170 0 0 170 0 0 170 0 0 170 0 0 170 0 0 170 0 0 170 0 0 170 0 0 170 0 0 170 0 0 170 0 0 170 0 0 170 0 0 170 0 0 170 0 0 170 0 0 170 0 0 0 0 0 170 85 0 170 85 0 170 85 0 170 85 0 170 85 0 170 85 0 170 85 0 170 85 0 170 85 0 170 0 0 170 85 0 170 85 0 170 85 0 170 85 0 170 85 0 170 85 0 170 85 0 170 85 0 170 85 0 170 0 0 170 85 0 170 85 0 0 0 170 0 0 170 0 170 0 0 0 170 0 0 170 0 0 170 0 0 170 0 0 170 0 0 170 0 0 170 0 0 170
0 0 170 0 0 170 0 0 170 0 0 170 0 0 170 0 0 170 0 0 170 0 0 170 0 0 170 0 0 170 0 0 170 0 0 170 0 0 170 0 0 170 0 0 170 0 0 170 170 0 0 170 0 0 170 0 0 170 0 0 170 0 0 170 0 0 170 0 0 170 0 0 170 0 0 170 0 0 170 0 0 170 0 0 170 0 0 0 0 170 0 0 170 0 0 170 0 0 170 0 0 170 0 0 170 0 0 170 0 0 170 0 0 170 0 0 170 0 0 170 0 0 170 0 0 170 0 0 170 0 0 170 0 0 170 0 0 170 0 0 170 0 0 170 0 0 170 0 0 170 0 0 170 0 0 170 0 0 170 170 0 0 0 0 170 0 0 170 170 0 0 170 85 0 170 85 0 170 85 0 170 85 0 170 85 0 170 85 0 170 85 0 170 85 0 170 85 0 170 0 0 170 85 0 170 85 0 170 85 0 170 85 0 170 85 0 170 85 0 170 85 0 170 85 0 170 85 0 170 0 0 170 85 0 0 0 0 170 85 0 170 85 0 170 85 0 170 85 0 170 85 0 170 85 0 170 85 0 170 85 0 170 85 0 170 0 0 170 85 0 170 85 0 170 85 0 170 85 0 170 85 0 170 85 0 170 85 0 170 85 0 170 85 0 170 0 0 170 85 0 170 85 0 0 0 170 0 0 170 0 170 0 0 0 170 0 170 0 0 170 0 0 170 0 0 170 0 0 170 0 0 170 0 0 170 0 0 170 0 0 0 0 0 0 170 0 0 0 0 0 0 0 0 170 170 0 0 0 0 170 0 0 170 170 85 0 0 0 170 0 0 170 170 0 0 170 0 0 170 0 0 170 0 0 0 0 170 0 0 170 0 0 170 0 0 170 0 0 170 0 0 170 0 0 170 0 0 170 0 0 170 0 0 170 0 0 170 0 0 170 0 0 170 170 0 0 170 0 0 170 0 0 170 0 0 0 0 170 0 0 170 170 85 0 0 0 170 0 0 170 170 0 0 0 0 170 170 0 0 170 0 0 0 0 170 170 0 0 170 0 0 170 0 0 170 0 0 170 0 0 170 0 0 170 0 0 170 0 0 170 0 0 0 0 170 170 0 0 0 0 170 0 0 170 170 0 0 170 85 0 170 85 0 170 85 0 170 85 0 170 85 0 170 85 0 170 85 0 170 85 0 170 85 0 170 0 0 170 85 0 170 85 0 170 85 0 170 85 0 170 85 0 170 85 0 170 85 0 170 85 0 170 85 0 170 0 0 170 85 0 0 0 0 170 85 0 170 85 0 170 85 0 170 85 0 170 85 0 170 85 0 170 85 0 170 85 0 170 85 0 170 0 0 170 85 0 170 85 0 170 85 0 170 85 0 170 85 0 170 85 0 170 85 0 170 85 0 170 85 0 170 0 0 170 85 0 170 85 0 0 0 170 0 0 170 0 170 0 0 0 170 0 170 0 0 0 170 0 0 170 0 0 170 0 0 170 0 0 170 0 0 170 0 0 170 0 0 170 0 0 170 0 0 170 170 0 0 0 0 170 170 0 0 0 0 170 0 0 170 170 85 0 0 0 170 0 0 170 0 0 170 0 0 170 0 0 170 0 0 170 170 0 0 170 0 0 170 0 0 170 0 0 170 0 0 170 0 0 170 0 0 170 0 0 170 0 0 170 0 0 170 0 0 170 0 0 170 0 0 0 0 170 0 0 170 0 0 170 0 0 170 0 0 170 0 0 170 170 85 0 0 0 170 0 0 170 170 0 0 0 0 170 170 0 0 0 0 170 0 0 170 0 0 170 0 0 170 0 0 170 0 0 170 0 0 170 0 0 170
0 0 170 0 0 170 170 0 0 0 0 170 170 0 0 0 0 170 0 0 170 170 0 0 170 85 0 170 85 0 170 85 0 170 85 0 170 85 0 170 85 0 170 85 0 170 85 0 170 85 0 170 0 0 170 85 0 170 85 0 170 85 0 170 85 0 170 85 0 170 85 0 170 85 0 170 85 0 170 85 0 170 0 0 170 85 0 0 0 0 170 85 0 170 85 0 170 85 0 170 85 0 170 85 0 170 85 0 170 85 0 170 85 0 170 85 0 170 0 0 170 85 0 170 85 0 170 85 0 170 85 0 170 85 0 170 85 0 170 85 0 170 85 0 170 85 0 170 0 0 170 85 0 170 85 0 0 0 170 0 0 170 0 170 0 0 0 170 0 170 0 0 0 170 0 170 0 0 170 0 0 170 0 0 170 0 0 170 0 0 170 0 0 170 0 0 0 170 0 0 170 170 0 0 0 0 170 170 0 0 0 0 170 0 0 170 170 85 0 0 0 170 0 0 170 0 170 0 0 170 0 0 170 0 0 0 0 0 0 170 0 0 170 0 0 170 0 0 170 0 0 170 0 0 170 0 0 170 0 0 170 0 0 170 0 0 170 0 0 170 0 0 170 0 0 170 170 0 0 170 0 0 170 0 0 170 0 0 0 0 170 0 0 170 170 85 0 0 0 170 0 0 170 170 0 0 0 0 170 170 0 0 0 0 170 0 0 170 170 0 0 170 0 0 170 0 0 170 0 0 170 0 0 170 0 0 170 0 0 0 0 170 170 0 0 0 0 170 170 0 0 0 0 170 0 0 170 170 0 0 170 85 0 170 85 0 170 85 0 170 85 0 170 85 0 170 85 0 170 85 0 170 85 0 170 85 0 170 0 0 170 85 0 170 85 0 170 85 0 170 85 0 170 85 0 170 85 0 170 85 0 170 85 0 170 85 0 170 0 0 170 85 0 0 0 0 170 85 0 170 85 0 170 85 0 170 85 0 170 85 0 170 85 0 170 85 0 170 85 0 170 85 0 170 0 0 170 85 0 170 85 0 170 85 0 170 85 0 170 85 0 170 85 0 170 85 0 170 85 0 170 85 0 170 0 0 170 85 0 170 85 0 0 0 170 0 0 170 0 170 0 0 0 170 0 170 0 0 0 170 0 170 0 0 0 0 0 0 0 170 0 0 170 0 0 0 0 170 0 0 170 0 170 0 0 0 170 170 0 0 0 0 170 170 0 0 0 0 170 0 0 170 170 85 0 0 0 170 0 0 170 0 170 0 0 170 0 0 170 0 0 0 0 0 0 0 0 0 0 0 0 0 0 0 170 0 0 0 0 0 0 0 0 0 0 0 0 0 0 0 0 0 170 170 0 0 170 0 0 170 0 0 170 0 0 170 0 0 170 0 0 170 0 0 0 0 170 0 0 170 170 85 0 0 0 170 0 0 170 170 0 0 0 0 170 170 0 0 170 0 0 170 0 0 0 0 170 0 0 170 170 0 0 170 0 0 170 0 0 170 0 0 170 0 0 0 0 170 170 0 0 0 0 170 170 0 0 0 0 170 0 0 170 170 0 0 170 85 0 170 85 0 170 85 0 170 85 0 170 85 0 170 85 0 170 85 0 170 85 0 170 85 0 170 0 0 170 85 0 170 85 0 170 85 0 170 85 0 170 85 0 170 85 0 170 85 0 170 85 0 170 85 0 170 0 0 170 85 0 0 0 0 170 85 0 170 85 0 170 85 0 170 85 0 170 85 0 170 85 0 170 85 0 170 85 0 170 85 0 170 0 0 170 85 0 170 85 0 170 85 0 170 85 0 170 85 0 170 85 0 170 85 0 170 85 0 170 85 0
170 0 0 170 85 0 170 85 0 0 0 170 0 0 170 0 170 0 0 0 170 0 170 0 0 0 170 0 170 0 170 0 0 170 0 0 0 0 170 0 0 170 0 170 0 0 170 0 170 0 0 0 0 170 170 0 0 0 0 170 0 0 170 0 0 170 170 85 0 170 85 0 0 0 170 0 0 170 0 170 0 0 170 0 0 170 0 0 0 0 0 0 0 0 0 0 0 0 0 0 0 170 0 0 170 0 0 170 0 0 170 0 0 170 0 0 170 0 0 170 170 0 0 170 0 0 170 0 0 170 0 0 170 0 0 170 0 0 170 0 0 0 0 170 0 0 170 170 85 0 170 0 0 0 0 170 0 0 170 0 0 170 170 0 0 170 0 0 170 0 0 170 0 0 170 0 0 0 0 170 0 0 170 170 0 0 170 0 0 170 0 0 0 0 170 170 0 0 0 0 170 170 0 0 0 0 170 0 0 170 170 0 0 170 85 0 170 85 0 170 85 0 170 85 0 170 85 0 170 85 0 170 85 0 170 85 0 170 85 0 170 0 0 170 85 0 170 85 0 170 85 0 170 85 0 170 85 0 170 85 0 170 85 0 170 85 0 170 85 0 170 0 0 170 85 0 0 0 0 170 85 0 170 85 0 170 85 0 170 85 0 170 85 0 170 85 0 170 85 0 170 85 0 170 85 0 170 0 0 170 85 0 170 85 0 170 85 0 170 85 0 170 85 0 170 85 0 170 85 0 170 85 0 170 85 0 170 0 0 170 85 0 170 85 0 0 0 170 0 0 170 0 170 0 0 0 170 0 170 0 0 0 170 0 170 0 0 0 170 0 0 170 0 170 0 0 170 0 0 0 0 0 0 0 170 0 0 0 0 170 170 0 0 0 0 170 0 0 170 170 85 0 170 85 0 170 85 0 170 85 0 0 0 170 0 0 170 0 170 0 0 170 0 0 0 0 0 0 0 0 0 0 0 0 0 0 0 170 0 0 0 0 0 0 0 0 0 0 0 0 0 0 0 0 0 170 170 0 0 170 0 0 170 0 0 170 0 0 170 0 0 170 0 0 0 0 170 0 0 170 170 85 0 170 85 0 170 0 0 0 0 170 0 0 170 0 0 170 170 0 0 170 0 0 170 0 0 170 0 0 170 0 0 170 0 0 170 0 0 0 0 170 0 0 170 170 0 0 0 0 170 170 0 0 0 0 170 170 0 0 0 0 170 0 0 170 170 0 0 170 85 0 170 85 0 170 85 0 170 85 0 170 85 0 170 85 0 170 85 0 170 85 0 170 85 0 170 0 0 170 85 0 170 85 0 170 85 0 170 85 0 170 85 0 170 85 0 170 85 0 170 85 0 170 85 0 170 0 0 170 85 0 0 0 0 170 85 0 170 85 0 170 85 0 170 85 0 170 85 0 170 85 0 170 85 0 170 85 0 170 85 0 170 0 0 170 85 0 170 85 0 170 85 0 170 85 0 170 85 0 170 85 0 170 85 0 170 85 0 170 85 0 170 0 0 170 85 0 170 85 0 0 0 170 0 0 170 0 170 0 0 0 170 0 170 0 0 0 170 0 0 170 0 170 0 0 170 0 170 0 0 170 0 0 170 0 0 170 0 0 170 0 0 0 0 170 170 0 0 0 0 170 0 0 170 170 85 0 170 85 0 170 85 0 170 85 0 0 0 170 0 0 170 0 170 0 0 170 0 0 170 0 0 0 0 0 0 0 0 0 0 0 0 170 0 0 170 0 0 170 0 0 170 0 0 170 0 0 170 0 0 170 170 0 0 170 0 0 170 0 0 170 0 0 170 0 0 170 0 0 0 0 170 0 0 170 170 85 0
170 85 0 170 0 0 0 0 170 0 0 170 0 0 170 170 0 0 170 0 0 170 0 0 170 0 0 170 0 0 170 0 0 170 0 0 170 0 0 170 0 0 0 0 170 0 0 170 170 0 0 0 0 170 170 0 0 0 0 170 0 0 170 170 0 0 170 85 0 170 85 0 170 85 0 170 85 0 170 85 0 170 85 0 170 85 0 170 85 0 170 85 0 170 0 0 170 85 0 170 85 0 170 85 0 170 85 0 170 85 0 170 85 0 170 85 0 170 85 0 170 85 0 170 0 0 170 85 0 0 0 0 170 85 0 170 85 0 170 85 0 170 85 0 170 85 0 170 85 0 170 85 0 170 85 0 170 85 0 170 0 0 170 85 0 170 85 0 170 85 0 170 85 0 170 85 0 170 85 0 170 85 0 170 85 0 170 85 0 170 0 0 170 85 0 170 85 0 0 0 170 0 0 170 0 170 0 0 0 170 170 0 0 0 0 170 0 0 170 0 0 170 0 0 170 0 0 170 0 0 170 0 0 170 0 0 170 0 0 170 0 0 170 170 0 0 0 0 170 0 0 170 170 85 0 170 85 0 170 85 0 170 85 0 170 85 0 0 0 170 0 0 170 0 170 0 0 170 0 0 0 0 0 0 0 0 0 0 0 0 170 0 0 0 0 0 0 0 0 0 0 0 0 0 0 0 0 0 170 170 0 0 170 0 0 170 0 0 170 0 0 170 0 0 0 0 170 0 0 170 170 85 0 170 85 0 170 85 0 170 0 0 170 85 0 0 0 170 0 0 170 170 0 0 0 0 170 0 0 170 0 0 170 0 0 170 0 0 170 0 0 170 0 0 170 0 0 170 0 0 170 0 0 170 170 0 0 0 0 170 170 0 0 0 0 170 0 0 170 170 0 0 170 85 0 170 85 0 170 85 0 170 85 0 170 85 0 170 85 0 170 85 0 170 85 0 170 85 0 170 0 0 170 85 0 170 85 0 170 85 0 170 85 0 170 85 0 170 85 0 170 85 0 170 85 0 170 85 0 170 0 0 170 85 0 0 0 0 170 0 0 170 0 0 170 0 0 170 0 0 170 0 0 170 0 0 170 0 0 170 0 0 170 0 0 170 0 0 170 0 0 170 0 0 170 0 0 170 0 0 170 0 0 170 0 0 170 0 0 170 0 0 170 0 0 170 0 0 170 0 0 170 0 0 0 0 170 0 0 170 0 170 0 0 0 170 170 0 0 170 0 0 170 0 0 170 0 0 170 0 0 170 0 0 170 0 0 170 0 0 170 0 0 170 0 0 170 0 0 170 0 0 0 0 170 0 0 170 170 0 0 170 0 0 170 0 0 170 0 0 170 0 0 0 0 170 0 0 170 0 170 0 0 170 0 0 170 0 0 0 0 0 0 0 0 0 170 0 0 0 0 0 170 0 0 170 0 0 170 0 0 0 0 0 170 170 0 0 170 0 0 170 0 0 170 0 0 170 0 0 0 0 170 0 0 170 170 0 0 170 0 0 170 0 0 170 0 0 170 0 0 0 0 170 0 0 170 170 0 0 170 0 0 170 0 0 170 0 0 170 0 0 170 0 0 170 0 0 170 0 0 170 0 0 170 0 0 170 0 0 170 0 0 0 0 170 170 0 0 0 0 170 0 0 170 170 0 0 170 0 0 170 0 0 170 0 0 170 0 0 170 0 0 170 0 0 170 0 0 170 0 0 170 0 0 170 0 0 170 0 0 170 0 0 170 0 0 170 0 0 170 0 0 170 0 0 170 0 0 170 0 0 170 0 0 170 0 0 170 0 0 0 0 0 170 85 0 170 85 0 170 85 0 170 85 0 170 85 0
