P3
44 68
255
0 170 170 0 170 170 0 170 170 0 170 170 0 170 170 0 170 170 0 170 170 0 170 170 0 170 170 0 170 170 0 170 170 0 170 170 0 170 170 0 170 170 0 170 170 0 170 170 0 170 170 0 170 170 0 170 170 0 170 170 0 170 170 0 170 170 0 170 170 0 170 170 0 170 170 0 170 170 0 170 170 0 170 170 0 170 170 0 170 170 0 170 170 0 170 170 0 170 170 0 170 170 0 170 170 0 170 170 0 170 170 0 170 170 0 170 170 0 170 170 0 170 170 0 170 170 0 170 170 0 170 170
0 170 170 0 170 0 0 170 0 0 170 0 0 170 0 0 170 0 0 170 0 0 170 0 0 170 0 0 170 0 0 170 0 0 170 0 0 170 0 0 170 0 0 170 0 0 170 0 0 170 0 0 170 0 0 170 0 0 170 0 0 170 0 0 170 0 0 170 0 0 170 0 0 170 0 0 170 0 0 170 0 0 170 0 0 170 0 0 170 0 0 170 0 0 170 0 0 170 0 0 170 0 0 170 0 0 170 0 0 170 0 0 170 0 0 170 0 0 170 0 0 170 0 0 170 0 0 170 0 0 170 170
0 170 170 0 170 0 0 170 0 0 170 0 0 170 0 0 170 0 0 170 0 0 170 0 0 170 0 0 170 0 0 170 0 0 170 0 0 170 0 0 170 0 0 170 0 0 170 0 0 170 0 0 170 0 0 170 0 0 170 0 0 170 0 0 170 0 0 170 0 0 170 0 0 170 0 0 170 0 0 170 0 0 170 0 0 170 0 0 170 0 0 170 0 0 170 0 0 170 0 0 170 0 0 170 0 0 170 0 0 170 0 0 170 0 0 170 0 0 170 0 0 170 0 0 170 0 170 0 0 0 170 170
0 170 170 0 170 0 0 170 0 0 170 0 0 170 0 0 170 0 0 170 0 0 170 0 0 170 0 0 170 0 0 170 0 0 170 0 0 170 0 0 170 0 0 170 0 0 170 0 0 170 0 0 170 0 0 170 0 0 170 0 0 170 0 0 170 0 0 170 0 0 170 0 0 170 0 0 170 0 0 170 0 0 170 0 0 170 0 0 170 0 0 170 0 0 170 0 0 170 0 0 170 0 0 170 0 0 170 0 0 170 0 0 170 0 0 170 0 0 170 0 0 170 0 170 0 0 170 0 0 0 170 170
0 170 170 0 170 0 0 170 0 0 170 0 0 170 170 0 170 170 0 170 170 0 170 170 0 170 170 0 170 170 0 170 170 0 170 170 0 170 170 0 170 170 0 170 170 0 170 170 0 170 170 0 170 170 0 170 170 0 170 170 0 170 170 0 170 170 0 170 170 0 170 170 0 170 170 0 170 170 0 170 170 0 170 170 0 170 170 0 170 170 0 170 170 0 170 170 0 170 170 0 170 170 0 170 170 0 170 170 0 170 170 0 170 170 0 170 170 0 170 170 0 170 170 170 0 0 170 0 0 0 170 170
0 170 170 0 170 0 0 170 0 0 170 0 0 170 170 170 0 0 170 0 0 170 0 0 170 0 0 170 0 0 170 0 0 170 0 0 170 0 0 170 0 0 170 0 0 170 0 0 170 0 0 170 0 0 170 0 0 170 0 0 170 0 0 170 0 0 170 0 0 170 0 0 170 0 0 170 0 0 170 0 0 170 0 0 170 0 0 170 0 0 170 0 0 170 0 0 170 0 0 170 0 0 170 0 0 170 0 0 170 0 0 170 0 0 170 0 0 170 0 0 170 0 0 170 0 0 170 0 0 0 170 170
0 170 170 0 170 0 0 170 0 0 170 0 0 170 170 170 0 0 0 170 170 0 170 170 0 170 170 0 170 170 0 170 170 0 170 170 0 170 170 0 170 170 0 170 170 0 170 170 0 170 170 0 170 170 0 170 170 0 170 170 0 170 170 0 170 170 0 170 170 0 170 170 0 170 170 0 170 170 0 170 170 0 170 170 0 170 170 0 170 170 0 170 170 0 170 170 0 170 170 0 170 170 0 170 170 0 170 170 0 170 170 0 170 170 0 0 170 170 0 0 170 0 0 170 0 0 170 0 0 0 170 170
0 170 170 0 170 0 0 170 0 0 170 0 0 170 170 170 0 0 0 170 170 0 170 170 0 170 170 0 170 170 0 170 170 0 170 170 0 170 170 0 170 170 0 170 170 0 170 170 0 170 170 0 170 170 0 170 170 0 170 170 0 170 170 0 170 170 0 170 170 0 170 170 0 170 170 0 170 170 0 170 170 0 170 170 0 170 170 0 170 170 0 170 170 0 170 170 0 170 170 0 170 170 0 170 170 0 170 170 0 170 170 0 170 170 0 0 170 170 0 0 170 0 0 170 0 0 170 0 0 0 170 170
0 170 170 0 170 0 0 170 0 0 170 0 0 170 170 170 0 0 0 170 170 0 170 170 0 170 170 0 170 170 0 170 170 0 170 170 0 170 170 0 170 170 0 170 170 0 170 170 0 170 170 0 170 170 0 170 170 0 170 170 0 170 170 0 170 170 0 170 170 0 170 170 0 170 170 0 170 170 0 170 170 0 170 170 0 170 170 0 170 170 0 170 170 0 170 170 0 170 170 0 170 170 0 170 170 0 170 170 0 170 170 0 170 170 0 0 170 170 0 0 170 0 0 170 0 0 170 0 0 0 170 170
0 170 170 0 170 0 0 170 0 0 170 0 0 170 170 170 0 0 0 170 170 0 170 170 0 170 170 0 170 170 0 170 170 0 170 170 0 170 170 0 170 170 0 170 170 0 170 170 0 170 170 0 170 170 0 170 170 0 170 170 0 170 170 0 170 170 0 170 170 0 170 170 0 170 170 0 170 170 0 170 170 0 170 170 0 170 170 0 170 170 0 170 170 0 170 170 0 170 170 0 170 170 0 170 170 0 170 170 0 170 170 0 170 170 0 0 170 170 0 0 170 0 0 170 0 0 170 0 0 0 170 170
0 170 170 0 170 0 0 170 0 0 170 0 0 170 170 170 0 0 0 170 170 0 170 170 0 170 170 0 170 170 0 170 170 0 170 170 0 170 170 0 170 170 0 170 170 0 170 170 0 170 170 0 170 170 0 170 170 0 170 170 0 170 170 0 170 170 0 170 170 0 170 170 0 170 170 0 170 170 0 170 170 0 170 170 0 170 170 0 170 170 0 170 170 0 170 170 0 170 170 0 170 170 0 170 170 0 170 170 0 170 170 0 170 170 0 0 170 170 0 0 170 0 0 170 0 0 170 0 0 0 170 170
0 170 170 0 170 0 0 170 0 0 170 0 0 170 170 170 0 0 0 170 170 0 170 170 0 170 170 0 170 170 0 170 170 0 170 170 0 170 170 0 170 170 0 170 170 0 170 170 0 170 170 0 170 170 0 170 170 0 170 170 0 170 170 0 170 170 0 170 170 0 170 170 0 170 170 0 170 170 0 170 170 0 170 170 0 170 170 0 170 170 0 170 170 0 170 170 0 170 170 0 170 170 0 170 170 0 170 170 0 170 170 0 170 170 0 0 170 170 0 0 170 0 0 170 0 0 170 0 0 0 170 170
0 170 170 0 170 0 0 170 0 0 170 0 0 170 170 170 0 0 0 170 170 0 170 170 0 170 170 0 170 170 0 170 170 0 170 170 0 170 170 0 170 170 0 170 170 0 170 170 0 170 170 0 170 170 0 170 170 0 170 170 0 170 170 0 170 170 0 170 170 0 170 170 0 170 170 0 170 170 0 170 170 0 170 170 0 170 170 0 170 170 0 170 170 0 170 170 0 170 170 0 170 170 0 170 170 0 170 170 0 170 170 0 170 170 0 0 170 170 0 0 170 0 0 170 0 0 170 0 0 0 170 170
0 170 170 0 170 0 0 170 0 0 170 0 0 170 170 170 0 0 0 170 170 0 170 170 0 170 170 0 170 170 0 170 170 0 170 170 0 170 170 0 170 170 0 170 170 0 170 170 0 170 170 0 170 170 0 170 170 0 170 170 0 170 170 0 170 170 0 170 170 0 170 170 0 170 170 0 170 170 0 170 170 0 170 170 0 170 170 0 170 170 0 170 170 0 170 170 0 170 170 0 170 170 0 170 170 0 170 170 0 170 170 0 170 170 0 0 170 170 0 0 170 0 0 170 0 0 170 0 0 0 170 170
0 170 170 0 170 0 0 170 0 0 170 0 0 170 170 170 0 0 0 170 170 0 170 170 0 170 170 0 170 170 0 170 170 0 170 170 0 170 170 0 170 170 0 170 170 0 170 170 0 170 170 0 170 170 0 170 170 0 170 170 0 170 170 0 170 170 0 170 170 0 170 170 0 170 170 0 170 170 0 170 170 0 170 170 0 170 170 0 170 170 0 170 170 0 170 170 0 170 170 0 170 170 0 170 170 0 170 170 0 170 170 0 170 170 0 0 170 170 0 0 170 0 0 170 0 0 170 0 0 0 170 170
0 170 170 0 170 0 0 170 0 0 170 0 0 170 170 170 0 0 0 170 170 0 170 170 0 170 170 0 170 170 0 170 170 0 170 170 0 170 170 0 170 170 0 170 170 0 170 170 0 170 170 0 170 170 0 170 170 0 170 170 0 170 170 0 170 170 0 170 170 0 170 170 0 170 170 0 170 170 0 170 170 0 170 170 0 170 170 0 170 170 0 170 170 0 170 170 0 170 170 0 170 170 0 170 170 0 170 170 0 170 170 0 170 170 0 0 170 170 0 0 170 0 0 170 0 0 170 0 0 0 170 170
0 170 170 0 170 0 0 170 0 0 170 0 0 170 170 170 0 0 0 170 170 0 170 170 0 170 170 0 170 170 0 170 170 0 170 170 0 170 170 0 170 170 0 170 170 0 170 170 0 170 170 0 170 170 0 170 170 0 170 170 0 170 170 0 170 170 0 170 170 0 170 170 0 170 170 0 170 170 0 170 170 0 170 170 0 170 170 0 170 170 0 170 170 0 170 170 0 170 170 0 170 170 0 170 170 0 170 170 0 170 170 0 170 170 0 0 170 170 0 0 170 0 0 170 0 0 170 0 0 0 170 170
0 170 170 0 170 0 0 170 0 0 170 0 0 170 170 170 0 0 0 170 170 0 170 170 0 170 170 0 170 170 0 170 170 0 170 170 0 170 170 0 170 170 0 170 170 0 170 170 0 170 170 0 170 170 0 170 170 0 170 170 0 170 170 0 170 170 0 170 170 0 170 170 0 170 170 0 170 170 0 170 170 0 170 170 0 170 170 0 170 170 0 170 170 0 170 170 0 170 170 0 170 170 0 170 170 0 170 170 0 170 170 0 170 170 0 0 170 170 0 0 170 0 0 170 0 0 170 0 0 0 170 170
0 170 170 0 170 0 0 170 0 0 170 0 0 170 170 170 0 0 0 170 170 0 170 170 0 170 170 0 170 170 0 170 170 0 170 170 0 170 170 0 170 170 0 170 170 0 170 170 0 170 170 0 170 170 0 170 170 0 170 170 0 170 170 0 170 170 0 170 170 0 170 170 0 170 170 0 170 170 0 170 170 0 170 170 0 170 170 0 170 170 0 170 170 0 170 170 0 170 170 0 170 170 0 170 170 0 170 170 0 170 170 0 170 170 0 0 170 170 0 0 170 0 0 170 0 0 170 0 0 0 170 170
0 170 170 0 170 0 0 170 0 0 170 0 0 170 170 170 0 0 0 170 170 0 170 170 0 170 170 0 170 170 0 170 170 0 170 170 0 170 170 0 170 170 0 170 170 0 170 170 0 170 170 0 170 170 0 170 170 0 170 170 0 170 170 0 170 170 0 170 170 0 170 170 0 170 170 0 170 170 0 170 170 0 170 170 0 170 170 0 170 170 0 170 170 0 170 170 0 170 170 0 170 170 0 170 170 0 170 170 0 170 170 0 170 170 0 0 170 170 0 0 170 0 0 170 0 0 170 0 0 0 170 170
0 170 170 0 170 0 0 170 0 0 170 0 0 170 170 170 0 0 0 170 170 0 170 170 0 170 170 0 170 170 0 170 170 0 170 170 0 170 170 0 170 170 0 170 170 0 170 170 0 170 170 0 170 170 0 170 170 0 170 170 0 170 170 0 170 170 0 170 170 0 170 170 0 170 170 0 170 170 0 170 170 0 170 170 0 170 170 0 170 170 0 170 170 0 170 170 0 170 170 0 170 170 0 170 170 0 170 170 0 170 170 0 170 170 0 0 170 170 0 0 170 0 0 170 0 0 170 0 0 0 170 170
0 170 170 0 170 0 0 170 0 0 170 0 0 170 170 170 0 0 0 170 170 0 170 170 0 170 170 0 170 170 0 170 170 0 170 170 0 170 170 0 170 170 0 170 170 0 170 170 0 170 170 0 170 170 0 170 170 0 170 170 0 170 170 0 170 170 0 170 170 0 170 170 0 170 170 0 170 170 0 170 170 0 170 170 0 170 170 0 170 170 0 170 170 0 170 170 0 170 170 0 170 170 0 170 170 0 170 170 0 170 170 0 170 170 0 0 170 170 0 0 170 0 0 170 0 0 170 0 0 0 170 170
0 170 170 0 170 0 0 170 0 0 170 0 0 170 170 170 0 0 0 170 170 0 170 170 0 170 170 0 170 170 0 170 170 0 170 170 0 170 170 0 170 170 0 170 170 0 170 170 0 170 170 0 170 170 0 170 170 0 170 170 0 170 170 0 170 170 0 170 170 0 170 170 0 170 170 0 170 170 0 170 170 0 170 170 0 170 170 0 170 170 0 170 170 0 170 170 0 170 170 0 170 170 0 170 170 0 170 170 0 170 170 0 170 170 0 0 170 170 0 0 170 0 0 170 0 0 170 0 0 0 170 170
0 170 170 0 170 0 0 170 0 0 170 0 0 170 170 170 0 0 0 170 170 0 170 170 0 170 170 0 170 170 0 170 170 0 170 170 0 170 170 0 170 170 0 170 170 0 170 170 0 170 170 0 170 170 0 170 170 0 170 170 0 170 170 0 170 170 0 170 170 0 170 170 0 170 170 0 170 170 0 170 170 0 170 170 0 170 170 0 170 170 0 170 170 0 170 170 0 170 170 0 170 170 0 170 170 0 170 170 0 170 170 0 170 170 0 0 170 170 0 0 170 0 0 170 0 0 170 0 0 0 170 170
0 170 170 0 170 0 0 170 0 0 170 0 0 170 170 170 0 0 0 170 170 0 170 170 0 170 170 0 170 170 0 170 170 0 170 170 0 170 170 0 170 170 0 170 170 0 170 170 0 170 170 0 170 170 0 170 170 0 170 170 0 170 170 0 170 170 0 170 170 0 170 170 0 170 170 0 170 170 0 170 170 0 170 170 0 170 170 0 170 170 0 170 170 0 170 170 0 170 170 0 170 170 0 170 170 0 170 170 0 170 170 0 170 170 0 0 170 170 0 0 170 0 0 170 0 0 170 0 0 0 170 170
0 170 170 0 170 0 0 170 0 0 170 0 0 170 170 170 0 0 0 170 170 0 170 170 0 170 170 0 170 170 0 170 170 0 170 170 0 170 170 0 170 170 0 170 170 0 170 170 0 170 170 0 170 170 0 170 170 0 170 170 0 170 170 0 170 170 0 170 170 0 170 170 0 170 170 0 170 170 0 170 170 0 170 170 0 170 170 0 170 170 0 170 170 0 170 170 0 170 170 0 170 170 0 170 170 0 170 170 0 170 170 0 170 170 0 0 170 170 0 0 170 0 0 170 0 0 170 0 0 0 170 170
0 170 170 0 170 0 0 170 0 0 170 0 0 170 170 170 0 0 0 170 170 0 170 170 0 170 170 0 170 170 0 170 170 0 170 170 0 170 170 0 170 170 0 170 170 0 170 170 0 170 170 0 170 170 0 170 170 0 170 170 0 170 170 0 170 170 0 170 170 0 170 170 0 170 170 0 170 170 0 170 170 0 170 170 0 170 170 0 170 170 0 170 170 0 170 170 0 170 170 0 170 170 0 170 170 0 170 170 0 170 170 0 170 170 0 0 170 170 0 0 170 0 0 170 0 0 170 0 0 0 170 170
0 170 170 0 170 0 0 170 0 0 170 0 0 170 170 170 0 0 0 170 170 0 170 170 0 170 170 0 170 170 0 170 170 0 170 170 0 170 170 0 170 170 0 170 170 0 170 170 0 170 170 0 170 170 0 170 170 0 170 170 0 170 170 0 170 170 0 170 170 0 170 170 0 170 170 0 170 170 0 170 170 0 170 170 0 170 170 0 170 170 0 170 170 0 170 170 0 170 170 0 170 170 0 170 170 0 170 170 0 170 170 0 170 170 0 0 170 170 0 0 170 0 0 170 0 0 170 0 0 0 170 170
0 170 170 0 170 0 0 170 0 0 170 0 0 170 170 170 0 0 0 170 170 0 170 170 0 170 170 0 170 170 0 170 170 0 170 170 0 170 170 0 170 170 0 170 170 0 170 170 0 170 170 0 170 170 0 170 170 0 170 170 0 170 170 0 170 170 0 170 170 0 170 170 0 170 170 0 170 170 0 170 170 0 170 170 0 170 170 0 170 170 0 170 170 0 170 170 0 170 170 0 170 170 0 170 170 0 170 170 0 170 170 0 170 170 0 0 170 170 0 0 170 0 0 170 0 0 170 0 0 0 170 170
0 170 170 0 170 0 0 170 0 0 170 0 0 170 170 170 0 0 0 170 170 0 170 170 0 170 170 0 170 170 0 170 170 0 170 170 0 170 170 0 170 170 0 170 170 0 170 170 0 170 170 0 170 170 0 170 170 0 170 170 0 170 170 0 170 170 0 170 170 0 170 170 0 170 170 0 170 170 0 170 170 0 170 170 0 170 170 0 170 170 0 170 170 0 170 170 0 170 170 0 170 170 0 170 170 0 170 170 0 170 170 0 170 170 0 0 170 170 0 0 170 0 0 170 0 0 170 0 0 0 170 170
0 170 170 0 170 0 0 170 0 0 170 0 0 170 170 170 0 0 0 170 170 0 170 170 0 170 170 0 170 170 0 170 170 0 170 170 0 170 170 0 170 170 0 170 170 0 170 170 0 170 170 0 170 170 0 170 170 0 170 170 0 170 170 0 170 170 0 170 170 0 170 170 0 170 170 0 170 170 0 170 170 0 170 170 0 170 170 0 170 170 0 170 170 0 170 170 0 170 170 0 170 170 0 170 170 0 170 170 0 170 170 0 170 170 0 0 170 170 0 0 170 0 0 170 0 0 170 0 0 0 170 170
0 170 170 0 170 0 0 170 0 0 170 0 0 170 170 170 0 0 0 170 170 0 170 170 0 170 170 0 170 170 0 170 170 0 170 170 0 170 170 0 170 170 0 170 170 0 170 170 0 170 170 0 170 170 0 170 170 0 170 170 0 170 170 0 170 170 0 170 170 0 170 170 0 170 170 0 170 170 0 170 170 0 170 170 0 170 170 0 170 170 0 170 170 0 170 170 0 170 170 0 170 170 0 170 170 0 170 170 0 170 170 0 170 170 0 0 170 170 0 0 170 0 0 170 0 0 170 0 0 0 170 170
0 170 170 0 170 0 0 170 0 0 170 0 0 170 170 170 0 0 0 170 170 0 170 170 0 170 170 0 170 170 0 170 170 0 170 170 0 170 170 0 170 170 0 170 170 0 170 170 0 170 170 0 170 170 0 170 170 0 170 170 0 170 170 0 170 170 0 170 170 0 170 170 0 170 170 0 170 170 0 170 170 0 170 170 0 170 170 0 170 170 0 170 170 0 170 170 0 170 170 0 170 170 0 170 170 0 170 170 0 170 170 0 170 170 0 0 170 170 0 0 170 0 0 170 0 0 170 0 0 0 170 170
0 170 170 0 170 0 0 170 0 0 170 0 0 170 170 170 0 0 0 170 170 0 170 170 0 170 170 0 170 170 0 170 170 0 170 170 0 170 170 0 170 170 0 170 170 0 170 170 0 170 170 0 170 170 0 170 170 0 170 170 0 170 170 0 170 170 0 170 170 0 170 170 0 170 170 0 170 170 0 170 170 0 170 170 0 170 170 0 170 170 0 170 170 0 170 170 0 170 170 0 170 170 0 170 170 0 170 170 0 170 170 0 170 170 0 0 170 170 0 0 170 0 0 170 0 0 170 0 0 0 170 170
0 170 170 0 170 0 0 170 0 0 170 0 0 170 170 170 0 0 0 170 170 0 170 170 0 170 170 0 170 170 0 170 170 0 170 170 0 170 170 0 170 170 0 170 170 0 170 170 0 170 170 0 170 170 0 170 170 0 170 170 0 170 170 0 170 170 0 170 170 0 170 170 0 170 170 0 170 170 0 170 170 0 170 170 0 170 170 0 170 170 0 170 170 0 170 170 0 170 170 0 170 170 0 170 170 0 170 170 0 170 170 0 170 170 0 0 170 170 0 0 170 0 0 170 0 0 170 0 0 0 170 170
0 170 170 0 170 0 0 170 0 0 170 0 0 170 170 170 0 0 0 170 170 0 170 170 0 170 170 0 170 170 0 170 170 0 170 170 0 170 170 0 170 170 0 170 170 0 170 170 0 170 170 0 170 170 0 170 170 0 170 170 0 170 170 0 170 170 0 170 170 0 170 170 0 170 170 0 170 170 0 170 170 0 170 170 0 170 170 0 170 170 0 170 170 0 170 170 0 170 170 0 170 170 0 170 170 0 170 170 0 170 170 0 170 170 0 0 170 170 0 0 170 0 0 170 0 0 170 0 0 0 170 170
0 170 170 0 170 0 0 170 0 0 170 0 0 170 170 170 0 0 0 170 170 0 170 170 0 170 170 0 170 170 0 170 170 0 170 170 0 170 170 0 170 170 0 170 170 0 170 170 0 170 170 0 170 170 0 170 170 0 170 170 0 170 170 0 170 170 0 170 170 0 170 170 0 170 170 0 170 170 0 170 170 0 170 170 0 170 170 0 170 170 0 170 170 0 170 170 0 170 170 0 170 170 0 170 170 0 170 170 0 170 170 0 170 170 0 0 170 170 0 0 170 0 0 170 0 0 170 0 0 0 170 170
0 170 170 0 170 0 0 170 0 0 170 0 0 170 170 170 0 0 0 170 170 0 170 170 0 170 170 0 170 170 0 170 170 0 170 170 0 170 170 0 170 170 0 170 170 0 170 170 0 170 170 0 170 170 0 170 170 0 170 170 0 170 170 0 170 170 0 170 170 0 170 170 0 170 170 0 170 170 0 170 170 0 170 170 0 170 170 0 170 170 0 170 170 0 170 170 0 170 170 0 170 170 0 170 170 0 170 170 0 170 170 0 170 170 0 0 170 170 0 0 170 0 0 170 0 0 170 0 0 0 170 170
0 170 170 0 170 0 0 170 0 0 170 0 0 170 170 170 0 0 0 170 170 0 170 170 0 170 170 0 170 170 0 170 170 0 170 170 0 170 170 0 170 170 0 170 170 0 170 170 0 170 170 0 170 170 0 170 170 0 170 170 0 170 170 0 170 170 0 170 170 0 170 170 0 170 170 0 170 170 0 170 170 0 170 170 0 170 170 0 170 170 0 170 170 0 170 170 0 170 170 0 170 170 0 170 170 0 170 170 0 170 170 0 170 170 0 0 170 170 0 0 170 0 0 170 0 0 170 0 0 0 170 170
0 170 170 0 170 0 0 170 0 0 170 0 0 170 170 170 0 0 0 170 170 0 170 170 0 170 170 0 170 170 0 170 170 0 170 170 0 170 170 0 170 170 0 170 170 0 170 170 0 170 170 0 170 170 0 170 170 0 170 170 0 170 170 0 170 170 0 170 170 0 170 170 0 170 170 0 170 170 0 170 170 0 170 170 0 170 170 0 170 170 0 170 170 0 170 170 0 170 170 0 170 170 0 170 170 0 170 170 0 170 170 0 170 170 0 0 170 170 0 0 170 0 0 170 0 0 170 0 0 0 170 170
0 170 170 0 170 0 0 170 0 0 170 0 0 170 170 170 0 0 0 170 170 0 170 170 0 170 170 0 170 170 0 170 170 0 170 170 0 170 170 0 170 170 0 170 170 0 170 170 0 170 170 0 170 170 0 170 170 0 170 170 0 170 170 0 170 170 0 170 170 0 170 170 0 170 170 0 170 170 0 170 170 0 170 170 0 170 170 0 170 170 0 170 170 0 170 170 0 170 170 0 170 170 0 170 170 0 170 170 0 170 170 0 170 170 0 0 170 170 0 0 170 0 0 170 0 0 170 0 0 0 170 170
0 170 170 0 170 0 0 170 0 0 170 0 0 170 170 170 0 0 0 170 170 0 170 170 0 170 170 0 170 170 0 170 170 0 170 170 0 170 170 0 170 170 0 170 170 0 170 170 0 170 170 0 170 170 0 170 170 0 170 170 0 170 170 0 170 170 0 170 170 0 170 170 0 170 170 0 170 170 0 170 170 0 170 170 0 170 170 0 170 170 0 170 170 0 170 170 0 170 170 0 170 170 0 170 170 0 170 170 0 170 170 0 170 170 0 0 170 170 0 0 170 0 0 170 0 0 170 0 0 0 170 170
0 170 170 0 170 0 0 170 0 0 170 0 0 170 170 170 0 0 0 170 170 0 170 170 0 170 170 0 170 170 0 170 170 0 170 170 0 170 170 0 170 170 0 170 170 0 170 170 0 170 170 0 170 170 0 170 170 0 170 170 0 170 170 0 170 170 0 170 170 0 170 170 0 170 170 0 170 170 0 170 170 0 170 170 0 170 170 0 170 170 0 170 170 0 170 170 0 170 170 0 170 170 0 170 170 0 170 170 0 170 170 0 170 170 0 0 170 170 0 0 170 0 0 170 0 0 170 0 0 0 170 170
0 170 170 0 170 0 0 170 0 0 170 0 0 170 170 170 0 0 0 170 170 0 170 170 0 170 170 0 170 170 0 170 170 0 170 170 0 170 170 0 170 170 0 170 170 0 170 170 0 170 170 0 170 170 0 170 170 0 170 170 0 170 170 0 170 170 0 170 170 0 170 170 0 170 170 0 170 170 0 170 170 0 170 170 0 170 170 0 170 170 0 170 170 0 170 170 0 170 170 0 170 170 0 170 170 0 170 170 0 170 170 0 170 170 0 0 170 170 0 0 170 0 0 170 0 0 170 0 0 0 170 170
0 170 170 0 170 0 0 170 0 0 170 0 0 170 170 170 0 0 0 170 170 0 170 170 0 170 170 0 170 170 0 170 170 0 170 170 0 170 170 0 170 170 0 170 170 0 170 170 0 170 170 0 170 170 0 170 170 0 170 170 0 170 170 0 170 170 0 170 170 0 170 170 0 170 170 0 170 170 0 170 170 0 170 170 0 170 170 0 170 170 0 170 170 0 170 170 0 170 170 0 170 170 0 170 170 0 170 170 0 170 170 0 170 170 0 0 170 170 0 0 170 0 0 170 0 0 170 0 0 0 170 170
0 170 170 0 170 0 0 170 0 0 170 0 0 170 170 170 0 0 0 170 170 0 170 170 0 170 170 0 170 170 0 170 170 0 170 170 0 170 170 0 170 170 0 170 170 0 170 170 0 170 170 0 170 170 0 170 170 0 170 170 0 170 170 0 170 170 0 170 170 0 170 170 0 170 170 0 170 170 0 170 170 0 170 170 0 170 170 0 170 170 0 170 170 0 170 170 0 170 170 0 170 170 0 170 170 0 170 170 0 170 170 0 170 170 0 0 170 170 0 0 170 0 0 170 0 0 170 0 0 0 170 170
0 170 170 0 170 0 0 170 0 0 170 0 0 170 170 170 0 0 0 170 170 0 170 170 0 170 170 0 170 170 0 170 170 0 170 170 0 170 170 0 170 170 0 170 170 0 170 170 0 170 170 0 170 170 0 170 170 0 170 170 0 170 170 0 170 170 0 170 170 0 170 170 0 170 170 0 170 170 0 170 170 0 170 170 0 170 170 0 170 170 0 170 170 0 170 170 0 170 170 0 170 170 0 170 170 0 170 170 0 170 170 0 170 170 0 0 170 170 0 0 170 0 0 170 0 0 170 0 0 0 170 170
0 170 170 0 170 0 0 170 0 0 170 0 0 170 170 170 0 0 0 170 170 0 170 170 0 170 170 0 170 170 0 170 170 0 170 170 0 170 170 0 170 170 0 170 170 0 170 170 0 170 170 0 170 170 0 170 170 0 170 170 0 170 170 0 170 170 0 170 170 0 170 170 0 170 170 0 170 170 0 170 170 0 170 170 0 170 170 0 170 170 0 170 170 0 170 170 0 170 170 0 170 170 0 170 170 0 170 170 0 170 170 0 170 170 0 0 170 170 0 0 170 0 0 170 0 0 170 0 0 0 170 170
0 170 170 0 170 0 0 170 0 0 170 0 0 170 170 170 0 0 0 170 170 0 170 170 0 170 170 0 170 170 0 170 170 0 170 170 0 170 170 0 170 170 0 170 170 0 170 170 0 170 170 0 170 170 0 170 170 0 170 170 0 170 170 0 170 170 0 170 170 0 170 170 0 170 170 0 170 170 0 170 170 0 170 170 0 170 170 0 170 170 0 170 170 0 170 170 0 170 170 0 170 170 0 170 170 0 170 170 0 170 170 0 170 170 0 0 170 170 0 0 170 0 0 170 0 0 170 0 0 0 170 170
0 170 170 0 170 0 0 170 0 0 170 0 0 170 170 170 0 0 0 170 170 0 170 170 0 170 170 0 170 170 0 170 170 0 170 170 0 170 170 0 170 170 0 170 170 0 170 170 0 170 170 0 170 170 0 170 170 0 170 170 0 170 170 0 170 170 0 170 170 0 170 170 0 170 170 0 170 170 0 170 170 0 170 170 0 170 170 0 170 170 0 170 170 0 170 170 0 170 170 0 170 170 0 170 170 0 170 170 0 170 170 0 170 170 0 0 170 170 0 0 170 0 0 170 0 0 170 0 0 0 170 170
0 170 170 0 170 0 0 170 0 0 170 0 0 170 170 170 0 0 0 170 170 0 170 170 0 170 170 0 170 170 0 170 170 0 170 170 0 170 170 0 170 170 0 170 170 0 170 170 0 170 170 0 170 170 0 170 170 0 170 170 0 170 170 0 170 170 0 170 170 0 170 170 0 170 170 0 170 170 0 170 170 0 170 170 0 170 170 0 170 170 0 170 170 0 170 170 0 170 170 0 170 170 0 170 170 0 170 170 0 170 170 0 170 170 0 0 170 170 0 0 170 0 0 170 0 0 170 0 0 0 170 170
0 170 170 0 170 0 0 170 0 0 170 0 0 170 170 170 0 0 0 170 170 0 170 170 0 170 170 0 170 170 0 170 170 0 170 170 0 170 170 0 170 170 0 170 170 0 170 170 0 170 170 0 170 170 0 170 170 0 170 170 0 170 170 0 170 170 0 170 170 0 170 170 0 170 170 0 170 170 0 170 170 0 170 170 0 170 170 0 170 170 0 170 170 0 170 170 0 170 170 0 170 170 0 170 170 0 170 170 0 170 170 0 170 170 0 0 170 170 0 0 170 0 0 170 0 0 170 0 0 0 170 170
0 170 170 0 170 0 0 170 0 0 170 0 0 170 170 170 0 0 0 170 170 0 170 170 0 170 170 0 170 170 0 170 170 0 170 170 0 170 170 0 170 170 0 170 170 0 170 170 0 170 170 0 170 170 0 170 170 0 170 170 0 170 170 0 170 170 0 170 170 0 170 170 0 170 170 0 170 170 0 170 170 0 170 170 0 170 170 0 170 170 0 170 170 0 170 170 0 170 170 0 170 170 0 170 170 0 170 170 0 170 170 0 170 170 0 0 170 170 0 0 170 0 0 170 0 0 170 0 0 0 170 170
0 170 170 0 170 0 0 170 0 0 170 0 0 170 170 170 0 0 0 170 170 0 170 170 0 170 170 0 170 170 0 170 170 0 170 170 0 170 170 0 170 170 0 170 170 0 170 170 0 170 170 0 170 170 0 170 170 0 170 170 0 170 170 0 170 170 0 170 170 0 170 170 0 170 170 0 170 170 0 170 170 0 170 170 0 170 170 0 170 170 0 170 170 0 170 170 0 170 170 0 170 170 0 170 170 0 170 170 0 170 170 0 170 170 0 0 170 170 0 0 170 0 0 170 0 0 170 0 0 0 170 170
0 170 170 0 170 0 0 170 0 0 170 0 0 170 170 170 0 0 0 170 170 0 170 170 0 170 170 0 170 170 0 170 170 0 170 170 0 170 170 0 170 170 0 170 170 0 170 170 0 170 170 0 170 170 0 170 170 0 170 170 0 170 170 0 170 170 0 170 170 0 170 170 0 170 170 0 170 170 0 170 170 0 170 170 0 170 170 0 170 170 0 170 170 0 170 170 0 170 170 0 170 170 0 170 170 0 170 170 0 170 170 0 170 170 0 0 170 170 0 0 170 0 0 170 0 0 170 0 0 0 170 170
0 170 170 0 170 0 0 170 0 0 170 0 0 170 170 170 0 0 0 170 170 0 170 170 0 170 170 0 170 170 0 170 170 0 170 170 0 170 170 0 170 170 0 170 170 0 170 170 0 170 170 0 170 170 0 170 170 0 170 170 0 170 170 0 170 170 0 170 170 0 170 170 0 170 170 0 170 170 0 170 170 0 170 170 0 170 170 0 170 170 0 170 170 0 170 170 0 170 170 0 170 170 0 170 170 0 170 170 0 170 170 0 170 170 0 0 170 170 0 0 170 0 0 170 0 0 170 0 0 0 170 170
0 170 170 0 170 0 0 170 0 0 170 0 0 170 170 170 0 0 0 170 170 0 170 170 0 170 170 0 170 170 0 170 170 0 170 170 0 170 170 0 170 170 0 170 170 0 170 170 0 170 170 0 170 170 0 170 170 0 170 170 0 170 170 0 170 170 0 170 170 0 170 170 0 170 170 0 170 170 0 170 170 0 170 170 0 170 170 0 170 170 0 170 170 0 170 170 0 170 170 0 170 170 0 170 170 0 170 170 0 170 170 0 170 170 0 0 170 170 0 0 170 0 0 170 0 0 170 0 0 0 170 170
0 170 170 0 170 0 0 170 0 0 170 0 0 170 170 170 0 0 0 170 170 0 170 170 0 170 170 0 170 170 0 170 170 0 170 170 0 170 170 0 170 170 0 170 170 0 170 170 0 170 170 0 170 170 0 170 170 0 170 170 0 170 170 0 170 170 0 170 170 0 170 170 0 170 170 0 170 170 0 170 170 0 170 170 0 170 170 0 170 170 0 170 170 0 170 170 0 170 170 0 170 170 0 170 170 0 170 170 0 170 170 0 170 170 0 0 170 170 0 0 170 0 0 170 0 0 170 0 0 0 170 170
0 170 170 0 170 0 0 170 0 0 170 0 0 170 170 170 0 0 0 170 170 0 170 170 0 170 170 0 170 170 0 170 170 0 170 170 0 170 170 0 170 170 0 170 170 0 170 170 0 170 170 0 170 170 0 170 170 0 170 170 0 170 170 0 170 170 0 170 170 0 170 170 0 170 170 0 170 170 0 170 170 0 170 170 0 170 170 0 170 170 0 170 170 0 170 170 0 170 170 0 170 170 0 170 170 0 170 170 0 170 170 0 170 170 0 0 170 170 0 0 170 0 0 170 0 0 170 0 0 0 170 170
0 170 170 0 170 0 0 170 0 0 170 0 0 170 170 170 0 0 0 170 170 0 170 170 0 170 170 0 170 170 0 170 170 0 170 170 0 170 170 0 170 170 0 170 170 0 170 170 0 170 170 0 170 170 0 170 170 0 170 170 0 170 170 0 170 170 0 170 170 0 170 170 0 170 170 0 170 170 0 170 170 0 170 170 0 170 170 0 170 170 0 170 170 0 170 170 0 170 170 0 170 170 0 170 170 0 170 170 0 170 170 0 170 170 0 0 170 170 0 0 170 0 0 170 0 0 170 0 0 0 170 170
0 170 170 0 170 0 0 170 0 0 170 0 0 170 170 170 0 0 0 170 170 0 170 170 0 170 170 0 170 170 0 170 170 0 170 170 0 170 170 0 170 170 0 170 170 0 170 170 0 170 170 0 170 170 0 170 170 0 170 170 0 170 170 0 170 170 0 170 170 0 170 170 0 170 170 0 170 170 0 170 170 0 170 170 0 170 170 0 170 170 0 170 170 0 170 170 0 170 170 0 170 170 0 170 170 0 170 170 0 170 170 0 170 170 0 0 170 170 0 0 170 0 0 170 0 0 170 0 0 0 170 170
0 170 170 0 170 0 0 170 0 0 170 0 0 170 170 170 0 0 0 170 170 0 170 170 0 170 170 0 170 170 0 170 170 0 170 170 0 170 170 0 170 170 0 170 170 0 170 170 0 170 170 0 170 170 0 170 170 0 170 170 0 170 170 0 170 170 0 170 170 0 170 170 0 170 170 0 170 170 0 170 170 0 170 170 0 170 170 0 170 170 0 170 170 0 170 170 0 170 170 0 170 170 0 170 170 0 170 170 0 170 170 0 170 170 0 0 170 170 0 0 170 0 0 170 0 0 170 0 0 0 170 170
0 170 170 0 170 0 0 170 0 0 170 0 0 170 170 170 0 0 0 0 170 0 0 170 0 0 170 0 0 170 0 0 170 0 0 170 0 0 170 0 0 170 0 0 170 0 0 170 0 0 170 0 0 170 0 0 170 0 0 170 0 0 170 0 0 170 0 0 170 0 0 170 0 0 170 0 0 170 0 0 170 0 0 170 0 0 170 0 0 170 0 0 170 0 0 170 0 0 170 0 0 170 0 0 170 0 0 170 0 0 170 0 0 170 0 0 170 170 0 0 170 0 0 170 0 0 170 0 0 0 170 170
0 170 170 0 170 0 0 170 0 0 170 0 0 170 170 170 0 0 170 0 0 170 0 0 170 0 0 170 0 0 170 0 0 170 0 0 170 0 0 170 0 0 170 0 0 170 0 0 170 0 0 170 0 0 170 0 0 170 0 0 170 0 0 170 0 0 170 0 0 170 0 0 170 0 0 170 0 0 170 0 0 170 0 0 170 0 0 170 0 0 170 0 0 170 0 0 170 0 0 170 0 0 170 0 0 170 0 0 170 0 0 170 0 0 170 0 0 170 0 0 170 0 0 170 0 0 170 0 0 0 170 170
0 170 170 0 170 0 0 170 0 0 170 0 170 0 0 170 0 0 170 0 0 170 0 0 170 0 0 170 0 0 170 0 0 170 0 0 170 0 0 170 0 0 170 0 0 170 0 0 170 0 0 170 0 0 170 0 0 170 0 0 170 0 0 170 0 0 170 0 0 170 0 0 170 0 0 170 0 0 170 0 0 170 0 0 170 0 0 170 0 0 170 0 0 170 0 0 170 0 0 170 0 0 170 0 0 170 0 0 170 0 0 170 0 0 170 0 0 170 0 0 170 0 0 170 0 0 170 0 0 0 170 170
0 170 170 0 170 0 0 170 0 170 0 0 170 0 0 170 0 0 170 0 0 170 0 0 170 0 0 170 0 0 170 0 0 170 0 0 170 0 0 170 0 0 170 0 0 170 0 0 170 0 0 170 0 0 170 0 0 170 0 0 170 0 0 170 0 0 170 0 0 170 0 0 170 0 0 170 0 0 170 0 0 170 0 0 170 0 0 170 0 0 170 0 0 170 0 0 170 0 0 170 0 0 170 0 0 170 0 0 170 0 0 170 0 0 170 0 0 170 0 0 170 0 0 170 0 0 170 0 0 0 170 170
0 170 170 0 170 0 170 0 0 170 0 0 170 0 0 170 0 0 170 0 0 170 0 0 170 0 0 170 0 0 170 0 0 170 0 0 170 0 0 170 0 0 170 0 0 170 0 0 170 0 0 170 0 0 170 0 0 170 0 0 170 0 0 170 0 0 170 0 0 170 0 0 170 0 0 170 0 0 170 0 0 170 0 0 170 0 0 170 0 0 170 0 0 170 0 0 170 0 0 170 0 0 170 0 0 170 0 0 170 0 0 170 0 0 170 0 0 170 0 0 170 0 0 170 0 0 170 0 0 0 170 170
0 170 170 0 170 170 0 170 170 0 170 170 0 170 170 0 170 170 0 170 170 0 170 170 0 170 170 0 170 170 0 170 170 0 170 170 0 170 170 0 170 170 0 170 170 0 170 170 0 170 170 0 170 170 0 170 170 0 170 170 0 170 170 0 170 170 0 170 170 0 170 170 0 170 170 0 170 170 0 170 170 0 170 170 0 170 170 0 170 170 0 170 170 0 170 170 0 170 170 0 170 170 0 170 170 0 170 170 0 170 170 0 170 170 0 170 170 0 170 170 0 170 170 0 170 170 0 170 170 0 170 170
